; G-Code generated by Simplify3D(R) Version 4.0.0
; Jun 3, 2018 at 4:20:52 PM
; Settings Summary
;   processName,Process1
;   applyToModels,TempCalTower260
;   profileName,P802 (modified)
;   profileVersion,2018-06-02 16:02:04
;   baseProfile,Default (modified)
;   printMaterial,PLA
;   printQuality,Medium
;   printExtruders,
;   extruderName,Primary Extruder
;   extruderToolheadNumber,0
;   extruderDiameter,0.4
;   extruderAutoWidth,0
;   extruderWidth,0.45
;   extrusionMultiplier,0.9
;   extruderUseRetract,1
;   extruderRetractionDistance,8
;   extruderExtraRestartDistance,0.1
;   extruderRetractionZLift,0
;   extruderRetractionSpeed,1800
;   extruderUseCoasting,0
;   extruderCoastingDistance,0.1
;   extruderUseWipe,1
;   extruderWipeDistance,1.5
;   primaryExtruder,0
;   layerHeight,0.2
;   topSolidLayers,0
;   bottomSolidLayers,3
;   perimeterOutlines,3
;   printPerimetersInsideOut,1
;   startPointOption,2
;   startPointOriginX,100
;   startPointOriginY,200
;   sequentialIslands,0
;   spiralVaseMode,0
;   firstLayerHeightPercentage,100
;   firstLayerWidthPercentage,100
;   firstLayerUnderspeed,0.8
;   useRaft,0
;   raftExtruder,0
;   raftTopLayers,3
;   raftBaseLayers,2
;   raftOffset,3
;   raftSeparationDistance,0.14
;   raftTopInfill,100
;   aboveRaftSpeedMultiplier,0.3
;   useSkirt,0
;   skirtExtruder,0
;   skirtLayers,1
;   skirtOutlines,5
;   skirtOffset,1
;   usePrimePillar,0
;   primePillarExtruder,999
;   primePillarWidth,12
;   primePillarLocation,7
;   primePillarSpeedMultiplier,1
;   useOozeShield,0
;   oozeShieldExtruder,999
;   oozeShieldOffset,2
;   oozeShieldOutlines,1
;   oozeShieldSidewallShape,1
;   oozeShieldSidewallAngle,30
;   oozeShieldSpeedMultiplier,1
;   infillExtruder,0
;   internalInfillPattern,Fast Honeycomb
;   externalInfillPattern,Concentric
;   infillPercentage,0
;   outlineOverlapPercentage,15
;   infillExtrusionWidthPercentage,90
;   minInfillLength,5
;   infillLayerInterval,1
;   internalInfillAngles,0
;   overlapInternalInfillAngles,0
;   externalInfillAngles,45,-45
;   generateSupport,0
;   supportExtruder,0
;   supportInfillPercentage,30
;   supportExtraInflation,0
;   supportBaseLayers,0
;   denseSupportExtruder,0
;   denseSupportLayers,0
;   denseSupportInfillPercentage,70
;   supportLayerInterval,1
;   supportHorizontalPartOffset,0.3
;   supportUpperSeparationLayers,1
;   supportLowerSeparationLayers,1
;   supportType,0
;   supportGridSpacing,4
;   maxOverhangAngle,45
;   supportAngles,0
;   temperatureName,Primary Extruder,bed
;   temperatureNumber,0,0
;   temperatureSetpointCount,11,1
;   temperatureSetpointLayers,1,50,100,150,200,250,300,350,400,450,500,1
;   temperatureSetpointTemperatures,260,256,252,248,244,240,236,232,228,224,220,60
;   temperatureStabilizeAtStartup,1,1
;   temperatureHeatedBed,0,1
;   temperatureRelayBetweenLayers,0,0
;   temperatureRelayBetweenLoops,0,0
;   fanLayers,1,2,3
;   fanSpeeds,0,50,100
;   blipFanToFullPower,0
;   adjustSpeedForCooling,0
;   minSpeedLayerTime,15
;   minCoolingSpeedSlowdown,40
;   increaseFanForCooling,0
;   minFanLayerTime,45
;   maxCoolingFanSpeed,100
;   increaseFanForBridging,0
;   bridgingFanSpeed,100
;   use5D,1
;   relativeEdistances,0
;   allowEaxisZeroing,1
;   independentExtruderAxes,0
;   includeM10123,0
;   stickySupport,1
;   applyToolheadOffsets,0
;   gcodeXoffset,0
;   gcodeYoffset,0
;   gcodeZoffset,0
;   overrideMachineDefinition,1
;   machineTypeOverride,0
;   strokeXoverride,220
;   strokeYoverride,220
;   strokeZoverride,250
;   originOffsetXoverride,0
;   originOffsetYoverride,0
;   originOffsetZoverride,0
;   homeXdirOverride,-1
;   homeYdirOverride,-1
;   homeZdirOverride,-1
;   flipXoverride,1
;   flipYoverride,-1
;   flipZoverride,1
;   toolheadOffsets,0,0|0,0|0,0|0,0|0,0|0,0
;   overrideFirmwareConfiguration,0
;   firmwareTypeOverride,RepRap (Marlin/Repetier/Sprinter)
;   GPXconfigOverride,r2
;   baudRateOverride,115200
;   overridePrinterModels,0
;   printerModelsOverride
;   startingGcode,G28 ; home all axes
;   layerChangeGcode,
;   retractionGcode,
;   toolChangeGcode,
;   endingGcode,M104 S0 ; turn off extruder,M140 S0 ; turn off bed,G28 X0 Y0,M84 ; disable motors
;   exportFileFormat,gcode
;   celebration,0
;   celebrationSong,Random Song
;   postProcessing,
;   defaultSpeed,2400
;   outlineUnderspeed,1
;   solidInfillUnderspeed,0.6
;   supportUnderspeed,1
;   rapidXYspeed,3000
;   rapidZspeed,1000
;   minBridgingArea,50
;   bridgingExtraInflation,0
;   bridgingExtrusionMultiplier,1
;   bridgingSpeedMultiplier,1
;   useFixedBridgingAngle,0
;   fixedBridgingAngle,0
;   applyBridgingToPerimeters,0
;   filamentDiameters,1.75|1.75|1.75|1.75|1.75|1.75
;   filamentPricesPerKg,46|46|46|46|46|46
;   filamentDensities,1.25|1.25|1.25|1.25|1.25|1.25
;   useMinPrintHeight,0
;   minPrintHeight,0
;   useMaxPrintHeight,0
;   maxPrintHeight,3
;   useDiaphragm,0
;   diaphragmLayerInterval,20
;   robustSlicing,1
;   mergeAllIntoSolid,0
;   onlyRetractWhenCrossingOutline,1
;   retractBetweenLayers,0
;   useRetractionMinTravel,1
;   retractionMinTravel,20
;   retractWhileWiping,0
;   onlyWipeOutlines,1
;   avoidCrossingOutline,0
;   maxMovementDetourFactor,3
;   toolChangeRetractionDistance,6
;   toolChangeExtraRestartDistance,-0.5
;   toolChangeRetractionSpeed,600
;   externalThinWallType,0
;   internalThinWallType,2
;   thinWallAllowedOverlapPercentage,10
;   singleExtrusionMinLength,1
;   singleExtrusionMinPrintingWidthPercentage,50
;   singleExtrusionMaxPrintingWidthPercentage,200
;   singleExtrusionEndpointExtension,0.2
;   horizontalSizeCompensation,0
G90
M82
M106 S0
M140 S60
M190 S60
M104 S260 T0
M109 S260 T0
G28 ; home all axes
G92 E0
G1 E-8.0000 F1800
G1 Z0.200 F1000
; process Process1
; layer 1, Z = 0.200
T0
; tool H0.200 W0.450
; inner perimeter
G1 X101.478 Y100.875 F3000
G1 E0.1000 F540
G92 E0
G1 X102.426 Y100.875 E0.0319 F1920
G1 X102.426 Y101.375 E0.0488
G1 X118.875 Y101.375 E0.6027
G1 X118.875 Y119.125 E1.2004
G1 X101.125 Y119.125 E1.7982
G1 X101.125 Y101.375 E2.3959
G1 X101.478 Y101.375 E2.4078
G1 X101.478 Y100.875 E2.4247
G1 X101.028 Y100.925 F3000
G92 E0
G1 X101.028 Y100.425 E0.0168 F1920
G1 X102.876 Y100.425 E0.0791
G1 X102.876 Y100.925 E0.0959
G1 X119.325 Y100.925 E0.6498
G1 X119.325 Y119.575 E1.2779
G1 X100.675 Y119.575 E1.9060
G1 X100.675 Y100.925 E2.5340
G1 X101.028 Y100.925 E2.5459
; outer perimeter
G1 X100.578 Y100.475 F3000
G92 E0
G1 X100.578 Y99.975 E0.0168 F1920
G1 X103.326 Y99.975 E0.1094
G1 X103.326 Y100.475 E0.1262
G1 X105.480 Y100.475 E0.1987
G1 X105.480 Y99.975 E0.2156
G1 X106.188 Y99.975 E0.2394
G1 X106.188 Y100.475 E0.2563
G1 X109.177 Y100.475 E0.3569
G1 X109.177 Y99.975 E0.3738
G1 X109.866 Y99.975 E0.3970
G1 X109.866 Y100.475 E0.4138
G1 X119.775 Y100.475 E0.7475
G1 X119.775 Y120.025 E1.4059
G1 X100.225 Y120.025 E2.0642
G1 X100.225 Y100.475 E2.7226
G1 X100.578 Y100.475 E2.7345
G1 X100.578 Y99.975 F2400
G1 X101.578 Y99.975 F2400
; solid layer
G1 X101.860 Y101.257 F3000
G92 E0
G1 X102.043 Y101.257 E0.0062 F1152
G1 X102.043 Y101.757 E0.0230
G1 X118.493 Y101.757 E0.5769
G1 X118.493 Y118.743 E1.1489
G1 X101.507 Y118.743 E1.7209
G1 X101.507 Y101.757 E2.2929
G1 X101.860 Y101.757 E2.3048
G1 X101.860 Y101.257 E2.3216
G1 X101.957 Y102.207 F3000
G92 E0
G1 X118.043 Y102.207 E0.5417 F1152
G1 X118.043 Y118.293 E1.0834
G1 X101.957 Y118.293 E1.6250
G1 X101.957 Y102.207 E2.1667
G1 X102.408 Y102.658 F3000
G92 E0
G1 X117.593 Y102.657 E0.5114 F1152
G1 X117.593 Y117.843 E1.0227
G1 X102.407 Y117.843 E1.5341
G1 X102.407 Y102.657 E2.0455
G1 X102.857 Y103.107 F3000
G92 E0
G1 X117.142 Y103.108 E0.4811 F1152
G1 X117.142 Y117.392 E0.9621
G1 X102.858 Y117.392 E1.4432
G1 X102.858 Y103.108 E1.9242
G1 X103.308 Y103.558 F3000
G92 E0
G1 X116.692 Y103.558 E0.4508 F1152
G1 X116.692 Y116.942 E0.9015
G1 X103.308 Y116.942 E1.3523
G1 X103.308 Y103.558 E1.8030
G1 X103.757 Y104.007 F3000
G92 E0
G1 X116.243 Y104.007 E0.4204 F1152
G1 X116.243 Y116.493 E0.8409
G1 X103.757 Y116.493 E1.2613
G1 X103.757 Y104.007 E1.6818
G1 X104.207 Y104.457 F3000
G92 E0
G1 X115.793 Y104.457 E0.3901 F1152
G1 X115.793 Y116.043 E0.7803
G1 X104.207 Y116.043 E1.1704
G1 X104.207 Y104.457 E1.5605
G1 X104.658 Y104.908 F3000
G92 E0
G1 X115.343 Y104.907 E0.3598 F1152
G1 X115.343 Y115.593 E0.7197
G1 X104.657 Y115.593 E1.0795
G1 X104.657 Y104.907 E1.4393
G1 X105.107 Y105.357 F3000
G92 E0
G1 X114.892 Y105.358 E0.3295 F1152
G1 X114.892 Y115.142 E0.6590
G1 X105.108 Y115.142 E0.9886
G1 X105.108 Y105.358 E1.3181
G1 X105.558 Y105.808 F3000
G92 E0
G1 X114.442 Y105.808 E0.2992 F1152
G1 X114.442 Y114.692 E0.5984
G1 X105.558 Y114.692 E0.8976
G1 X105.558 Y105.808 E1.1968
G1 X106.007 Y106.257 F3000
G92 E0
G1 X113.993 Y106.257 E0.2689 F1152
G1 X113.993 Y114.243 E0.5378
G1 X106.007 Y114.243 E0.8067
G1 X106.007 Y106.257 E1.0756
G1 X106.457 Y106.707 F3000
G92 E0
G1 X113.543 Y106.707 E0.2386 F1152
G1 X113.543 Y113.793 E0.4772
G1 X106.457 Y113.793 E0.7158
G1 X106.457 Y106.707 E0.9544
G1 X106.908 Y107.158 F3000
G92 E0
G1 X113.093 Y107.157 E0.2083 F1152
G1 X113.093 Y113.343 E0.4166
G1 X106.907 Y113.343 E0.6249
G1 X106.907 Y107.157 E0.8331
G1 X107.357 Y107.607 F3000
G92 E0
G1 X112.642 Y107.608 E0.1780 F1152
G1 X112.642 Y112.892 E0.3560
G1 X107.358 Y112.892 E0.5339
G1 X107.358 Y107.608 E0.7119
G1 X107.808 Y108.058 F3000
G92 E0
G1 X112.192 Y108.058 E0.1477 F1152
G1 X112.192 Y112.442 E0.2953
G1 X107.808 Y112.442 E0.4430
G1 X107.808 Y108.058 E0.5907
G1 X108.257 Y108.507 F3000
G92 E0
G1 X111.743 Y108.507 E0.1174 F1152
G1 X111.743 Y111.993 E0.2347
G1 X108.257 Y111.993 E0.3521
G1 X108.257 Y108.507 E0.4694
G1 X108.707 Y108.957 F3000
G92 E0
G1 X111.293 Y108.957 E0.0871 F1152
G1 X111.293 Y111.543 E0.1741
G1 X108.707 Y111.543 E0.2612
G1 X108.707 Y108.957 E0.3482
G1 X109.158 Y109.408 F3000
G92 E0
G1 X110.843 Y109.407 E0.0567 F1152
G1 X110.843 Y111.093 E0.1135
G1 X109.157 Y111.093 E0.1702
G1 X109.157 Y109.407 E0.2270
G1 X109.607 Y109.857 F3000
G92 E0
G1 X110.392 Y109.858 E0.0264 F1152
G1 X110.392 Y110.642 E0.0529
G1 X109.608 Y110.642 E0.0793
G1 X109.608 Y109.858 E0.1057
; layer 2, Z = 0.400
M106 S127
; inner perimeter
G1 X102.426 Y101.375 F3000
G1 Z0.400 F1000
G92 E0
G1 X118.875 Y101.375 E0.5539 F2400
G1 X118.875 Y119.125 E1.1517
G1 X101.125 Y119.125 E1.7494
G1 X101.125 Y101.375 E2.3472
G1 X101.478 Y101.375 E2.3591
G1 X101.478 Y100.875 E2.3759
G1 X102.426 Y100.875 E2.4078
G1 X102.426 Y101.375 E2.4247
G1 X102.876 Y100.925 F3000
G92 E0
G1 X105.550 Y100.925 E0.0901 F2400
G1 X105.550 Y100.425 E0.1069
G1 X106.122 Y100.425 E0.1261
G1 X106.122 Y100.925 E0.1430
G1 X109.250 Y100.925 E0.2483
G1 X109.250 Y100.425 E0.2652
G1 X109.794 Y100.425 E0.2835
G1 X109.794 Y100.925 E0.3003
G1 X119.325 Y100.925 E0.6213
G1 X119.325 Y119.575 E1.2493
G1 X100.675 Y119.575 E1.8774
G1 X100.675 Y100.925 E2.5055
G1 X101.028 Y100.925 E2.5173
G1 X101.028 Y100.425 E2.5342
G1 X102.876 Y100.425 E2.5964
G1 X102.876 Y100.925 E2.6132
; outer perimeter
G1 X103.326 Y100.475 F3000
G92 E0
G1 X105.100 Y100.475 E0.0597 F2400
G1 X105.100 Y99.975 E0.0766
G1 X106.572 Y99.975 E0.1261
G1 X106.572 Y100.475 E0.1430
G1 X108.800 Y100.475 E0.2180
G1 X108.800 Y99.975 E0.2349
G1 X110.244 Y99.975 E0.2835
G1 X110.244 Y100.475 E0.3003
G1 X119.775 Y100.475 E0.6213
G1 X119.775 Y120.025 E1.2797
G1 X100.225 Y120.025 E1.9380
G1 X100.225 Y100.475 E2.5964
G1 X100.578 Y100.475 E2.6083
G1 X100.578 Y99.975 E2.6251
G1 X103.326 Y99.975 E2.7176
G1 X103.326 Y100.475 E2.7345
G1 X104.826 Y100.475 F2400
; solid layer
G1 X102.043 Y101.257 F3000
G92 E0
G1 X102.043 Y101.757 E0.0168 F1440
G1 X118.493 Y101.757 E0.5708
G1 X118.493 Y118.743 E1.1428
G1 X101.507 Y118.743 E1.7147
G1 X101.507 Y101.757 E2.2867
G1 X101.860 Y101.757 E2.2986
G1 X101.860 Y101.257 E2.3155
G1 X102.043 Y101.257 E2.3216
G1 X101.957 Y102.207 F3000
G92 E0
G1 X118.043 Y102.207 E0.5417 F1440
G1 X118.043 Y118.293 E1.0834
G1 X101.957 Y118.293 E1.6250
G1 X101.957 Y102.207 E2.1667
G1 X102.408 Y102.658 F3000
G92 E0
G1 X117.593 Y102.657 E0.5114 F1440
G1 X117.593 Y117.843 E1.0227
G1 X102.407 Y117.843 E1.5341
G1 X102.407 Y102.657 E2.0455
G1 X102.857 Y103.107 F3000
G92 E0
G1 X117.142 Y103.108 E0.4811 F1440
G1 X117.142 Y117.392 E0.9621
G1 X102.858 Y117.392 E1.4432
G1 X102.858 Y103.108 E1.9242
G1 X103.308 Y103.558 F3000
G92 E0
G1 X116.692 Y103.558 E0.4508 F1440
G1 X116.692 Y116.942 E0.9015
G1 X103.308 Y116.942 E1.3523
G1 X103.308 Y103.558 E1.8030
G1 X103.757 Y104.007 F3000
G92 E0
G1 X116.243 Y104.007 E0.4204 F1440
G1 X116.243 Y116.493 E0.8409
G1 X103.757 Y116.493 E1.2613
G1 X103.757 Y104.007 E1.6818
G1 X104.207 Y104.457 F3000
G92 E0
G1 X115.793 Y104.457 E0.3901 F1440
G1 X115.793 Y116.043 E0.7803
G1 X104.207 Y116.043 E1.1704
G1 X104.207 Y104.457 E1.5605
G1 X104.658 Y104.908 F3000
G92 E0
G1 X115.343 Y104.907 E0.3598 F1440
G1 X115.343 Y115.593 E0.7197
G1 X104.657 Y115.593 E1.0795
G1 X104.657 Y104.907 E1.4393
G1 X105.107 Y105.357 F3000
G92 E0
G1 X114.892 Y105.358 E0.3295 F1440
G1 X114.892 Y115.142 E0.6590
G1 X105.108 Y115.142 E0.9886
G1 X105.108 Y105.358 E1.3181
G1 X105.558 Y105.808 F3000
G92 E0
G1 X114.442 Y105.808 E0.2992 F1440
G1 X114.442 Y114.692 E0.5984
G1 X105.558 Y114.692 E0.8976
G1 X105.558 Y105.808 E1.1968
G1 X106.007 Y106.257 F3000
G92 E0
G1 X113.993 Y106.257 E0.2689 F1440
G1 X113.993 Y114.243 E0.5378
G1 X106.007 Y114.243 E0.8067
G1 X106.007 Y106.257 E1.0756
G1 X106.457 Y106.707 F3000
G92 E0
G1 X113.543 Y106.707 E0.2386 F1440
G1 X113.543 Y113.793 E0.4772
G1 X106.457 Y113.793 E0.7158
G1 X106.457 Y106.707 E0.9544
G1 X106.908 Y107.158 F3000
G92 E0
G1 X113.093 Y107.157 E0.2083 F1440
G1 X113.093 Y113.343 E0.4166
G1 X106.907 Y113.343 E0.6249
G1 X106.907 Y107.157 E0.8331
G1 X107.357 Y107.607 F3000
G92 E0
G1 X112.642 Y107.608 E0.1780 F1440
G1 X112.642 Y112.892 E0.3560
G1 X107.358 Y112.892 E0.5339
G1 X107.358 Y107.608 E0.7119
G1 X107.808 Y108.058 F3000
G92 E0
G1 X112.192 Y108.058 E0.1477 F1440
G1 X112.192 Y112.442 E0.2953
G1 X107.808 Y112.442 E0.4430
G1 X107.808 Y108.058 E0.5907
G1 X108.257 Y108.507 F3000
G92 E0
G1 X111.743 Y108.507 E0.1174 F1440
G1 X111.743 Y111.993 E0.2347
G1 X108.257 Y111.993 E0.3521
G1 X108.257 Y108.507 E0.4694
G1 X108.707 Y108.957 F3000
G92 E0
G1 X111.293 Y108.957 E0.0871 F1440
G1 X111.293 Y111.543 E0.1741
G1 X108.707 Y111.543 E0.2612
G1 X108.707 Y108.957 E0.3482
G1 X109.158 Y109.408 F3000
G92 E0
G1 X110.843 Y109.407 E0.0567 F1440
G1 X110.843 Y111.093 E0.1135
G1 X109.157 Y111.093 E0.1702
G1 X109.157 Y109.407 E0.2270
G1 X109.607 Y109.857 F3000
G92 E0
G1 X110.392 Y109.858 E0.0264 F1440
G1 X110.392 Y110.642 E0.0529
G1 X109.608 Y110.642 E0.0793
G1 X109.608 Y109.858 E0.1057
; layer 3, Z = 0.600
M106 S255
; inner perimeter
G1 X102.426 Y101.375 F3000
G1 Z0.600 F1000
G92 E0
G1 X118.875 Y101.375 E0.5539 F2400
G1 X118.875 Y119.125 E1.1517
G1 X101.125 Y119.125 E1.7494
G1 X101.125 Y101.375 E2.3472
G1 X101.480 Y101.375 E2.3591
G1 X101.480 Y100.875 E2.3760
G1 X102.426 Y100.875 E2.4078
G1 X102.426 Y101.375 E2.4247
G1 X102.876 Y100.925 F3000
G92 E0
G1 X109.064 Y100.925 E0.2084 F2400
G1 X109.064 Y100.425 E0.2252
G1 X109.982 Y100.425 E0.2561
G1 X109.982 Y100.925 E0.2730
G1 X119.325 Y100.925 E0.5876
G1 X119.325 Y119.575 E1.2157
G1 X100.675 Y119.575 E1.8437
G1 X100.675 Y100.925 E2.4718
G1 X101.030 Y100.925 E2.4837
G1 X101.030 Y100.425 E2.5006
G1 X102.876 Y100.425 E2.5627
G1 X102.876 Y100.925 E2.5796
; outer perimeter
G1 X103.326 Y100.475 F3000
G92 E0
G1 X104.902 Y100.475 E0.0531 F2400
G1 X104.902 Y99.975 E0.0699
G1 X105.537 Y99.975 E0.0913
G1 X105.537 Y100.475 E0.1081
G1 X106.080 Y100.475 E0.1264
G1 X106.080 Y99.975 E0.1433
G1 X106.792 Y99.975 E0.1672
G1 X106.792 Y100.475 E0.1841
G1 X108.614 Y100.475 E0.2454
G1 X108.614 Y99.975 E0.2623
G1 X110.432 Y99.975 E0.3235
G1 X110.432 Y100.475 E0.3403
G1 X119.775 Y100.475 E0.6550
G1 X119.775 Y120.025 E1.3133
G1 X100.225 Y120.025 E1.9717
G1 X100.225 Y100.475 E2.6301
G1 X100.580 Y100.475 E2.6420
G1 X100.580 Y99.975 E2.6588
G1 X103.326 Y99.975 E2.7513
G1 X103.326 Y100.475 E2.7682
G1 X104.826 Y100.475 F2400
; solid layer
G1 X102.043 Y101.257 F3000
G92 E0
G1 X102.043 Y101.757 E0.0168 F1440
G1 X118.493 Y101.757 E0.5708
G1 X118.493 Y118.743 E1.1428
