;Generated with Cura_SteamEngine 15.01
; Default start code
G28 ; Home extruder
G1 Z15 F400
M107 ; Turn off fan
G90 ; Absolute positioning
M82 ; Extruder in absolute mode
M190 S30
T0
; Activate all used extruder
M104 T0 S190
G92 E0 ; Reset extruder position
; Wait for all used extruders to reach temperature
M109 T0 S190
;Layer count: 100
;LAYER:0
M107
G0 F3000 X132.200 Y132.200 Z0.300
;TYPE:SKIRT
G1 F1200 X167.800 Y132.200 E1.77609
G1 X167.800 Y167.800 E3.55218
G1 X132.200 Y167.800 E5.32827
G1 X132.200 Y132.200 E7.10436
G0 F3000 X132.600 Y132.600
G1 F1200 X167.400 Y132.600 E8.84054
G1 X167.400 Y167.400 E10.57672
G1 X132.600 Y167.400 E12.31290
G1 X132.600 Y132.600 E14.04908
G0 F3000 X133.000 Y133.000
G1 F1200 X167.000 Y133.000 E15.74535
G1 X167.000 Y167.000 E17.44161
G1 X133.000 Y167.000 E19.13788
G1 X133.000 Y133.000 E20.83415
G0 F3000 X133.400 Y133.400
G1 F1200 X166.600 Y133.400 E22.49050
G1 X166.600 Y166.600 E24.14686
G1 X133.400 Y166.600 E25.80321
G1 X133.400 Y133.400 E27.45957
G0 F3000 X133.800 Y133.800
G1 F1200 X166.200 Y133.800 E29.07601
G1 X166.200 Y166.200 E30.69245
G1 X133.800 Y166.200 E32.30890
G1 X133.800 Y133.800 E33.92534
G0 F3000 X134.200 Y134.200
G1 F1200 X165.800 Y134.200 E35.50187
G1 X165.800 Y165.800 E37.07840
G1 X134.200 Y165.800 E38.65493
G1 X134.200 Y134.200 E40.23146
G0 F3000 X134.600 Y134.600
G1 F1200 X165.400 Y134.600 E41.76808
G1 X165.400 Y165.400 E43.30470
G1 X134.600 Y165.400 E44.84131
G1 X134.600 Y134.600 E46.37793
G0 F3000 X135.000 Y135.000
G1 F1200 X165.000 Y135.000 E47.87464
G1 X165.000 Y165.000 E49.37134
G1 X135.000 Y165.000 E50.86805
G1 X135.000 Y135.000 E52.36476
G0 F3000 X135.400 Y135.400
G1 F1200 X164.600 Y135.400 E53.82155
G1 X164.600 Y164.600 E55.27834
G1 X135.400 Y164.600 E56.73514
G1 X135.400 Y135.400 E58.19193
G0 F3000 X135.800 Y135.800
G1 F1200 X164.200 Y135.800 E59.60881
G1 X164.200 Y164.200 E61.02570
G1 X135.800 Y164.200 E62.44258
G1 X135.800 Y135.800 E63.85946
G0 F3000 X136.200 Y136.200
G1 F1200 X163.800 Y136.200 E65.23643
G1 X163.800 Y163.800 E66.61340
G1 X136.200 Y163.800 E67.99037
G1 X136.200 Y136.200 E69.36734
G0 F3000 X136.600 Y136.600
G1 F1200 X163.400 Y136.600 E70.70440
G1 X163.400 Y163.400 E72.04145
G1 X136.600 Y163.400 E73.37851
G1 X136.600 Y136.600 E74.71557
G0 F3000 X137.000 Y137.000
G1 F1200 X163.000 Y137.000 E76.01271
G1 X163.000 Y163.000 E77.30986
G1 X137.000 Y163.000 E78.60700
G1 X137.000 Y137.000 E79.90415
G0 F3000 X137.400 Y137.400
G1 F1200 X162.600 Y137.400 E81.16138
G1 X162.600 Y162.600 E82.41861
G1 X137.400 Y162.600 E83.67585
G1 X137.400 Y137.400 E84.93308
G0 F3000 X137.800 Y137.800
G1 F1200 X162.200 Y137.800 E86.15040
G1 X162.200 Y162.200 E87.36772
G1 X137.800 Y162.200 E88.58504
G1 X137.800 Y137.800 E89.80236
G0 F3000 X138.200 Y138.200
G1 F1200 X161.800 Y138.200 E90.97977
G1 X161.800 Y161.800 E92.15718
G1 X138.200 Y161.800 E93.33459
G1 X138.200 Y138.200 E94.51200
G0 F3000 X138.600 Y138.600
G1 F1200 X161.400 Y138.600 E95.64950
G1 X161.400 Y161.400 E96.78699
G1 X138.600 Y161.400 E97.92449
G1 X138.600 Y138.600 E99.06199
G0 F3000 X139.000 Y139.000
G1 F1200 X161.000 Y139.000 E100.15957
G1 X161.000 Y161.000 E101.25716
G1 X139.000 Y161.000 E102.35474
G1 X139.000 Y139.000 E103.45232
G0 F3000 X139.400 Y139.400
G1 F1200 X160.600 Y139.400 E104.51000
G1 X160.600 Y160.600 E105.56767
G1 X139.400 Y160.600 E106.62534
G1 X139.400 Y139.400 E107.68301
G0 F3000 X139.800 Y139.800
G1 F1200 X160.200 Y139.800 E108.70077
G1 X160.200 Y160.200 E109.71853
G1 X139.800 Y160.200 E110.73629
G1 X139.800 Y139.800 E111.75405
G0 F3000 X140.600 Y140.600
;TYPE:WALL-INNER
G1 F1200 X159.400 Y140.600 E112.69199
G1 X159.400 Y159.400 E113.62993
G1 X140.600 Y159.400 E114.56786
G1 X140.600 Y140.600 E115.50580
G0 F3000 X140.200 Y140.200
;TYPE:WALL-OUTER
G1 F1200 X159.800 Y140.200 E116.48364
G1 X159.800 Y159.800 E117.46149
G1 X140.200 Y159.800 E118.43934
G1 X140.200 Y140.200 E119.41719
G0 F3000 X140.739 Y141.022
;TYPE:SKIN
G1 F1200 X158.976 Y159.259 E120.70391
G0 F3000 X159.259 Y158.976
G1 F1200 X141.023 Y140.740 E121.99056
G0 F3000 X141.588 Y140.740
G1 F1200 X159.259 Y158.411 E123.23734
G0 F3000 X159.259 Y157.845
G1 F1200 X142.154 Y140.740 E124.44419
G0 F3000 X142.720 Y140.740
G1 F1200 X159.259 Y157.279 E125.61111
G0 F3000 X159.259 Y156.713
G1 F1200 X143.285 Y140.740 E126.73812
G0 F3000 X143.851 Y140.740
G1 F1200 X159.259 Y156.148 E127.82524
G0 F3000 X159.259 Y155.582
G1 F1200 X144.417 Y140.740 E128.87242
G0 F3000 X144.983 Y140.740
G1 F1200 X159.259 Y155.016 E129.87967
G0 F3000 X159.259 Y154.451
G1 F1200 X145.548 Y140.740 E130.84706
G0 F3000 X146.114 Y140.740
G1 F1200 X159.259 Y153.885 E131.77451
G0 F3000 X159.259 Y153.319
G1 F1200 X146.680 Y140.740 E132.66203
G0 F3000 X147.245 Y140.740
G1 F1200 X159.259 Y152.754 E133.50968
G0 F3000 X159.259 Y152.188
G1 F1200 X147.811 Y140.740 E134.31740
G0 F3000 X148.377 Y140.740
G1 F1200 X159.259 Y151.622 E135.08518
G0 F3000 X159.259 Y151.057
G1 F1200 X148.942 Y140.740 E135.81310
G0 F3000 X149.508 Y140.740
G1 F1200 X159.259 Y150.491 E136.50109
G0 F3000 X159.259 Y149.925
G1 F1200 X150.074 Y140.740 E137.14914
G0 F3000 X150.639 Y140.740
G1 F1200 X159.259 Y149.360 E137.75732
G0 F3000 X159.259 Y148.794
G1 F1200 X151.205 Y140.740 E138.32558
G0 F3000 X151.771 Y140.740
G1 F1200 X159.259 Y148.228 E138.85390
G0 F3000 X159.259 Y147.662
G1 F1200 X152.336 Y140.740 E139.34232
G0 F3000 X152.902 Y140.740
G1 F1200 X159.259 Y147.097 E139.79084
G0 F3000 X159.259 Y146.531
G1 F1200 X153.468 Y140.740 E140.19942
G0 F3000 X154.034 Y140.740
G1 F1200 X159.259 Y145.965 E140.56808
G0 F3000 X159.259 Y145.400
G1 F1200 X154.599 Y140.740 E140.89686
G0 F3000 X155.165 Y140.740
G1 F1200 X159.259 Y144.834 E141.18572
G0 F3000 X159.259 Y144.268
G1 F1200 X155.731 Y140.740 E141.43464
G0 F3000 X156.296 Y140.740
G1 F1200 X159.259 Y143.703 E141.64369
G0 F3000 X159.259 Y143.137
G1 F1200 X156.862 Y140.740 E141.81281
G0 F3000 X157.428 Y140.740
G1 F1200 X159.259 Y142.571 E141.94200
G0 F3000 X159.259 Y142.006
G1 F1200 X157.993 Y140.740 E142.03132
G0 F3000 X158.559 Y140.740
G1 F1200 X159.259 Y141.440 E142.08071
G0 F3000 X159.259 Y140.874
G1 F1200 X159.125 Y140.740 E142.09017
G0 F3000 X140.739 Y141.588
G1 F1200 X158.411 Y159.259 E143.33699
G0 F3000 X157.845 Y159.259
G1 F1200 X140.739 Y142.153 E144.54391
G0 F3000 X140.739 Y142.719
G1 F1200 X157.279 Y159.259 E145.71089
G0 F3000 X156.713 Y159.259
G1 F1200 X140.739 Y143.285 E146.83795
G0 F3000 X140.739 Y143.850
G1 F1200 X156.148 Y159.259 E147.92513
G0 F3000 X155.582 Y159.259
G1 F1200 X140.739 Y144.416 E148.97239
G0 F3000 X140.739 Y144.982
G1 F1200 X155.016 Y159.259 E149.97971
G0 F3000 X154.451 Y159.259
G1 F1200 X140.739 Y145.548 E150.94713
G0 F3000 X140.739 Y146.113
G1 F1200 X153.885 Y159.259 E151.87465
G0 F3000 X153.319 Y159.259
G1 F1200 X140.739 Y146.679 E152.76224
G0 F3000 X140.739 Y147.245
G1 F1200 X152.754 Y159.259 E153.60992
G0 F3000 X152.188 Y159.259
G1 F1200 X140.739 Y147.810 E154.41771
G0 F3000 X140.739 Y148.376
G1 F1200 X151.622 Y159.259 E155.18557
G0 F3000 X151.057 Y159.259
G1 F1200 X140.739 Y148.942 E155.91352
G0 F3000 X140.739 Y149.507
G1 F1200 X150.491 Y159.259 E156.60158
G0 F3000 X149.925 Y159.259
G1 F1200 X140.739 Y150.073 E157.24970
G0 F3000 X140.739 Y150.639
G1 F1200 X149.360 Y159.259 E157.85792
G0 F3000 X148.794 Y159.259
G1 F1200 X140.739 Y151.204 E158.42625
G0 F3000 X140.739 Y151.770
G1 F1200 X148.228 Y159.259 E158.95464
G0 F3000 X147.662 Y159.259
G1 F1200 X140.739 Y152.336 E159.44309
G0 F3000 X140.739 Y152.901
G1 F1200 X147.097 Y159.259 E159.89168
G0 F3000 X146.531 Y159.259
G1 F1200 X140.739 Y153.467 E160.30034
G0 F3000 X140.739 Y154.033
G1 F1200 X145.965 Y159.259 E160.66906
G0 F3000 X145.400 Y159.259
G1 F1200 X140.739 Y154.598 E160.99792
G0 F3000 X140.739 Y155.164
G1 F1200 X144.834 Y159.259 E161.28685
G0 F3000 X144.268 Y159.259
G1 F1200 X140.739 Y155.730 E161.53584
G0 F3000 X140.739 Y156.296
G1 F1200 X143.703 Y159.259 E161.74493
G0 F3000 X143.137 Y159.259
G1 F1200 X140.739 Y156.861 E161.91412
G0 F3000 X140.739 Y157.427
G1 F1200 X142.571 Y159.259 E162.04338
G0 F3000 X142.006 Y159.259
G1 F1200 X140.739 Y157.993 E162.13273
G0 F3000 X140.739 Y158.558
G1 F1200 X141.440 Y159.259 E162.18219
G0 F3000 X140.874 Y159.259
G1 F1200 X140.739 Y159.124 E162.19172
;LAYER:1
M106 S63
G0 F3000 X140.600 Y159.400 Z0.500
;TYPE:WALL-INNER
G1 F1200 X140.600 Y140.600 E162.81701
G1 X159.400 Y140.600 E163.44230
G1 X159.400 Y159.400 E164.06759
G1 X140.600 Y159.400 E164.69288
G0 F3000 X140.200 Y159.800
;TYPE:WALL-OUTER
G1 F1200 X140.200 Y140.200 E165.34478
G1 X159.800 Y140.200 E165.99668
G1 X159.800 Y159.800 E166.64858
G1 X140.200 Y159.800 E167.30048
G0 F3000 X140.836 Y159.259
;TYPE:SKIN
G1 F2220 X159.259 Y140.836 E168.16704
G0 F3000 X158.790 Y140.739
G1 F2220 X140.740 Y158.790 E169.01608
G0 F3000 X140.740 Y158.224
G1 F2220 X158.225 Y140.739 E169.83852
G0 F3000 X157.659 Y140.739
G1 F2220 X140.740 Y157.658 E170.63434
G0 F3000 X140.740 Y157.092
G1 F2220 X157.093 Y140.739 E171.40353
G0 F3000 X156.527 Y140.739
G1 F2220 X140.740 Y156.527 E172.14613
G0 F3000 X140.740 Y155.961
G1 F2220 X155.962 Y140.739 E172.86212
G0 F3000 X155.396 Y140.739
G1 F2220 X140.740 Y155.395 E173.55150
G0 F3000 X140.740 Y154.830
G1 F2220 X154.830 Y140.739 E174.21427
G0 F3000 X154.265 Y140.739
G1 F2220 X140.740 Y154.264 E174.85044
G0 F3000 X140.740 Y153.698
G1 F2220 X153.699 Y140.739 E175.46000
G0 F3000 X153.133 Y140.739
G1 F2220 X140.740 Y153.133 E176.04295
G0 F3000 X140.740 Y152.567
G1 F2220 X152.568 Y140.739 E176.59930
G0 F3000 X152.002 Y140.739
G1 F2220 X140.740 Y152.001 E177.12903
G0 F3000 X140.740 Y151.436
G1 F2220 X151.436 Y140.739 E177.63216
G0 F3000 X150.871 Y140.739
G1 F2220 X140.740 Y150.870 E178.10869
G0 F3000 X140.740 Y150.304
G1 F2220 X150.305 Y140.739 E178.55860
G0 F3000 X149.739 Y140.739
G1 F2220 X140.740 Y149.739 E178.98191
G0 F3000 X140.740 Y149.173
G1 F2220 X149.174 Y140.739 E179.37862
G0 F3000 X148.608 Y140.739
G1 F2220 X140.740 Y148.607 E179.74871
G0 F3000 X140.740 Y148.041
G1 F2220 X148.042 Y140.739 E180.09217
G0 F3000 X147.477 Y140.739
G1 F2220 X140.740 Y147.476 E180.40906
G0 F3000 X140.740 Y146.910
G1 F2220 X146.911 Y140.739 E180.69932
G0 F3000 X146.345 Y140.739
G1 F2220 X140.740 Y146.344 E180.96296
G0 F3000 X140.740 Y145.779
G1 F2220 X145.779 Y140.739 E181.20001
G0 F3000 X145.214 Y140.739
G1 F2220 X140.740 Y145.213 E181.41045
G0 F3000 X140.740 Y144.647
G1 F2220 X144.648 Y140.739 E181.59427
G0 F3000 X144.082 Y140.739
G1 F2220 X140.740 Y144.082 E181.75149
G0 F3000 X140.740 Y143.516
G1 F2220 X143.517 Y140.739 E181.88211
G0 F3000 X142.951 Y140.739
G1 F2220 X140.740 Y142.950 E181.98611
G0 F3000 X140.740 Y142.385
G1 F2220 X142.385 Y140.739 E182.06351
G0 F3000 X141.820 Y140.739
G1 F2220 X140.740 Y141.819 E182.11431
G0 F3000 X140.740 Y141.253
G1 F2220 X141.254 Y140.739 E182.13849
G0 F3000 X159.259 Y141.402
G1 F2220 X141.402 Y159.259 E182.97843
G0 F3000 X141.967 Y159.259
G1 F2220 X159.259 Y141.967 E183.79179
G0 F3000 X159.259 Y142.533
G1 F2220 X142.533 Y159.259 E184.57853
G0 F3000 X143.099 Y159.259
G1 F2220 X159.259 Y143.099 E185.33865
G0 F3000 X159.259 Y143.665
G1 F2220 X143.665 Y159.259 E186.07214
G0 F3000 X144.230 Y159.259
G1 F2220 X159.259 Y144.230 E186.77906
G0 F3000 X159.259 Y144.796
G1 F2220 X144.796 Y159.259 E187.45935
G0 F3000 X145.362 Y159.259
G1 F2220 X159.259 Y145.362 E188.11302
G0 F3000 X159.259 Y145.927
G1 F2220 X145.927 Y159.259 E188.74012
G0 F3000 X146.493 Y159.259
G1 F2220 X159.259 Y146.493 E189.34059
G0 F3000 X159.259 Y147.059
G1 F2220 X147.059 Y159.259 E189.91445
G0 F3000 X147.624 Y159.259
G1 F2220 X159.259 Y147.624 E190.46172
G0 F3000 X159.259 Y148.190
G1 F2220 X148.190 Y159.259 E190.98237
G0 F3000 X148.756 Y159.259
G1 F2220 X159.259 Y148.756 E191.47640
G0 F3000 X159.259 Y149.321
G1 F2220 X149.321 Y159.259 E191.94385
G0 F3000 X149.887 Y159.259
G1 F2220 X159.259 Y149.887 E192.38468
G0 F3000 X159.259 Y150.453
G1 F2220 X150.453 Y159.259 E192.79889
G0 F3000 X151.018 Y159.259
G1 F2220 X159.259 Y151.018 E193.18652
G0 F3000 X159.259 Y151.584
G1 F2220 X151.584 Y159.259 E193.54753
G0 F3000 X152.150 Y159.259
G1 F2220 X159.259 Y152.150 E193.88192
G0 F3000 X159.259 Y152.715
G1 F2220 X152.715 Y159.259 E194.18973
G0 F3000 X153.281 Y159.259
G1 F2220 X159.259 Y153.281 E194.47091
G0 F3000 X159.259 Y153.847
G1 F2220 X153.847 Y159.259 E194.72548
G0 F3000 X154.413 Y159.259
G1 F2220 X159.259 Y154.413 E194.95342
G0 F3000 X159.259 Y154.978
G1 F2220 X154.978 Y159.259 E195.15478
G0 F3000 X155.544 Y159.259
G1 F2220 X159.259 Y155.544 E195.32953
G0 F3000 X159.259 Y156.110
G1 F2220 X156.110 Y159.259 E195.47764
G0 F3000 X156.675 Y159.259
G1 F2220 X159.259 Y156.675 E195.59919
G0 F3000 X159.259 Y157.241
G1 F2220 X157.241 Y159.259 E195.69411
G0 F3000 X157.807 Y159.259
G1 F2220 X159.259 Y157.807 E195.76241
G0 F3000 X159.259 Y158.372
G1 F2220 X158.372 Y159.259 E195.80413
G0 F3000 X158.938 Y159.259
G1 F2220 X159.259 Y158.938 E195.81923
;LAYER:2
M106 S127
G0 F3000 X159.400 Y159.400 Z0.700
;TYPE:WALL-INNER
G1 F1980 X140.600 Y159.400 E196.44452
G1 X140.600 Y140.600 E197.06981
G1 X159.400 Y140.600 E197.69510
G1 X159.400 Y159.400 E198.32039
G0 F3000 X159.800 Y159.800
;TYPE:WALL-OUTER
G1 F1980 X140.200 Y159.800 E198.97229
G1 X140.200 Y140.200 E199.62419
G1 X159.800 Y140.200 E200.27608
G1 X159.800 Y159.800 E200.92798
G0 F3000 X158.976 Y159.259
;TYPE:SKIN
G1 F2700 X140.739 Y141.022 E201.78580
G0 F3000 X141.023 Y140.740
G1 F2700 X159.259 Y158.976 E202.64356
G0 F3000 X159.259 Y158.411
G1 F2700 X141.588 Y140.740 E203.47475
G0 F3000 X142.154 Y140.740
G1 F2700 X159.259 Y157.845 E204.27932
G0 F3000 X159.259 Y157.279
G1 F2700 X142.720 Y140.740 E205.05726
G0 F3000 X143.285 Y140.740
G1 F2700 X159.259 Y156.713 E205.80861
G0 F3000 X159.259 Y156.148
G1 F2700 X143.851 Y140.740 E206.53335
G0 F3000 X144.417 Y140.740
G1 F2700 X159.259 Y155.582 E207.23147
G0 F3000 X159.259 Y155.016
G1 F2700 X144.983 Y140.740 E207.90297
G0 F3000 X145.548 Y140.740
G1 F2700 X159.259 Y154.451 E208.54790
G0 F3000 X159.259 Y153.885
G1 F2700 X146.114 Y140.740 E209.16620
G0 F3000 X146.680 Y140.740
G1 F2700 X159.259 Y153.319 E209.75787
G0 F3000 X159.259 Y152.754
G1 F2700 X147.245 Y140.740 E210.32298
G0 F3000 X147.811 Y140.740
G1 F2700 X159.259 Y152.188 E210.86146
G0 F3000 X159.259 Y151.622
G1 F2700 X148.377 Y140.740 E211.37331
G0 F3000 X148.942 Y140.740
G1 F2700 X159.259 Y151.057 E211.85859
G0 F3000 X159.259 Y150.491
G1 F2700 X149.508 Y140.740 E212.31725
G0 F3000 X150.074 Y140.740
G1 F2700 X159.259 Y149.925 E212.74928
G0 F3000 X159.259 Y149.360
G1 F2700 X150.639 Y140.740 E213.15474
G0 F3000 X151.205 Y140.740
G1 F2700 X159.259 Y148.794 E213.53358
G0 F3000 X159.259 Y148.228
G1 F2700 X151.771 Y140.740 E213.88579
G0 F3000 X152.336 Y140.740
G1 F2700 X159.259 Y147.662 E214.21140
G0 F3000 X159.259 Y147.097
G1 F2700 X152.902 Y140.740 E214.51042
G0 F3000 X153.468 Y140.740
G1 F2700 X159.259 Y146.531 E214.78281
G0 F3000 X159.259 Y145.965
G1 F2700 X154.034 Y140.740 E215.02857
G0 F3000 X154.599 Y140.740
G1 F2700 X159.259 Y145.400 E215.24777
G0 F3000 X159.259 Y144.834
G1 F2700 X155.165 Y140.740 E215.44034
G0 F3000 X155.731 Y140.740
G1 F2700 X159.259 Y144.268 E215.60628
G0 F3000 X159.259 Y143.703
G1 F2700 X156.296 Y140.740 E215.74565
G0 F3000 X156.862 Y140.740
G1 F2700 X159.259 Y143.137 E215.85840
G0 F3000 X159.259 Y142.571
G1 F2700 X157.428 Y140.740 E215.94452
G0 F3000 X157.993 Y140.740
G1 F2700 X159.259 Y142.006 E216.00407
G0 F3000 X159.259 Y141.440
G1 F2700 X158.559 Y140.740 E216.03700
G0 F3000 X159.125 Y140.740
G1 F2700 X159.259 Y140.874 E216.04330
G0 F3000 X158.411 Y159.259
G1 F2700 X140.739 Y141.588 E216.87452
G0 F3000 X140.739 Y142.153
G1 F2700 X157.845 Y159.259 E217.67913
G0 F3000 X157.279 Y159.259
G1 F2700 X140.739 Y142.719 E218.45712
G0 F3000 X140.739 Y143.285
G1 F2700 X156.713 Y159.259 E219.20849
G0 F3000 X156.148 Y159.259
G1 F2700 X140.739 Y143.850 E219.93328
G0 F3000 X140.739 Y144.416
G1 F2700 X155.582 Y159.259 E220.63145
G0 F3000 X155.016 Y159.259
G1 F2700 X140.739 Y144.982 E221.30300
G0 F3000 X140.739 Y145.548
G1 F2700 X154.451 Y159.259 E221.94794
G0 F3000 X153.885 Y159.259
G1 F2700 X140.739 Y146.113 E222.56629
