; generated by PrusaSlicer 2.4.2+win64 on 2022-05-25 at 01:36:10 UTC

; 

; external perimeters extrusion width = 0.45mm
; perimeters extrusion width = 0.45mm
; infill extrusion width = 0.45mm
; solid infill extrusion width = 0.45mm
; top infill extrusion width = 0.40mm
; support material extrusion width = 0.35mm
; first layer extrusion width = 0.45mm

M107
;TYPE:Custom
M104 S200 ; set extruder temp
M140 S60 ; set bed temp
M190 S60 ; wait for bed temp
M109 S200 ; wait for extruder temp
G28 ; home all axes
G1 Z5 F3000; lift nozzle
G1 X5 Y5 F1500 ; move to prime
G1 Z0.2 F3000 ; get ready to prime
G92 E0 ; reset extrusion distance
G1 Y100 E8 F600 ; prime nozzle
G1 Y50 F5000 ; quick wipe
G92 E0
G21 ; set units to millimeters
G90 ; use absolute coordinates
M82 ; use absolute distances for extrusion
G92 E0
; Filament gcode
M107
;LAYER_CHANGE
;Z:0.3
;HEIGHT:0.3
G1 Z.3 F6000
G1 E-8 F1800
G92 E0
G1 X87.122 Y66.455 F6000
G1 E8 F1800
;TYPE:Skirt/Brim
;WIDTH:0.45
G1 F900
G1 X87.911 Y65.581 E8.05664
G1 X88.631 Y65.104 E8.09817
G1 X89.496 Y64.814 E8.14208
G1 X98.066 Y64.795 E8.55424
G1 X98.711 Y64.958 E8.58625
G1 X99.299 Y65.231 E8.61743
G1 X100.266 Y66.073 E8.67911
G1 X100.822 Y66.936 E8.7285
G1 X101.104 Y67.986 E8.78076
G1 X101.104 Y94.801 E10.07049
G1 X101.031 Y95.343 E10.09679
G1 X100.56 Y96.41 E10.15289
G1 X99.771 Y97.285 E10.20953
G1 X99.052 Y97.762 E10.25106
G1 X98.186 Y98.051 E10.29495
G1 X89.875 Y98.096 E10.69468
G1 X89.331 Y98.022 E10.7211
G1 X88.264 Y97.551 E10.77721
G1 X87.389 Y96.763 E10.83387
G1 X86.836 Y95.875 E10.88417
G1 X86.578 Y94.881 E10.93358
G1 X86.578 Y68.064 E12.22334
G1 X86.651 Y67.523 E12.24964
G1 X87.098 Y66.51 E12.30286
G1 X87.449 Y66.668 F6000
G1 F900
G1 X88.178 Y65.86 E12.35518
G1 X88.819 Y65.441 E12.39203
G1 X89.587 Y65.19 E12.43087
G1 X97.996 Y65.175 E12.83535
G1 X98.566 Y65.315 E12.86355
G1 X99.11 Y65.569 E12.89245
G1 X99.99 Y66.343 E12.94882
G1 X100.481 Y67.117 E12.99289
G1 X100.719 Y68.011 E13.03736
G1 X100.719 Y94.787 E14.32523
G1 X100.653 Y95.262 E14.34826
G1 X100.221 Y96.223 E14.39892
G1 X99.504 Y97.005 E14.44998
G1 X98.863 Y97.424 E14.48683
G1 X98.096 Y97.675 E14.52565
G1 X89.888 Y97.71 E14.92043
G1 X89.412 Y97.645 E14.94353
G1 X88.451 Y97.213 E14.9942
G1 X87.669 Y96.497 E15.04522
G1 X87.201 Y95.747 E15.08771
G1 X86.963 Y94.855 E15.13212
G1 X86.963 Y68.078 E16.41999
G1 X87.029 Y67.604 E16.44303
G1 X87.425 Y66.723 E16.48947
G1 X87.775 Y66.883 F6000
G1 F900
G1 X87.798 Y66.833 E16.49212
G1 X88.442 Y66.141 E16.53758
G1 X89.005 Y65.78 E16.56976
G1 X89.675 Y65.566 E16.60356
G1 X97.927 Y65.555 E17.00046
G1 X98.454 Y65.685 E17.02658
G1 X98.919 Y65.905 E17.05135
G1 X99.713 Y66.613 E17.1025
G1 X100.117 Y67.248 E17.13868
G1 X100.333 Y68.037 E17.17805
G1 X100.333 Y94.773 E18.46397
G1 X100.275 Y95.179 E18.48366
G1 X99.885 Y96.033 E18.52883
G1 X99.24 Y96.724 E18.57429
G1 X98.677 Y97.086 E18.60647
G1 X98.008 Y97.299 E18.64026
G1 X89.901 Y97.325 E19.03017
G1 X89.495 Y97.267 E19.04989
G1 X88.641 Y96.876 E19.09506
G1 X87.951 Y96.232 E19.14047
G1 X87.565 Y95.617 E19.17538
G1 X87.349 Y94.828 E19.21473
G1 X87.349 Y68.092 E20.50064
G1 X87.407 Y67.687 E20.52034
G1 X87.75 Y66.937 E20.55997
G1 X88.098 Y67.1 F6000
G1 F900
G1 X88.133 Y67.026 E20.56392
G1 X88.704 Y66.426 E20.60376
G1 X89.188 Y66.12 E20.6313
G1 X89.76 Y65.943 E20.6601
G1 X97.859 Y65.935 E21.04965
G1 X98.308 Y66.042 E21.07182
G1 X98.728 Y66.241 E21.09421
G1 X99.435 Y66.881 E21.14005
G1 X99.754 Y67.381 E21.16857
G1 X99.948 Y68.065 E21.20275
G1 X99.948 Y94.759 E22.48664
G1 X99.898 Y95.093 E22.50292
G1 X99.549 Y95.839 E22.54253
G1 X98.978 Y96.44 E22.58237
G1 X98.494 Y96.745 E22.60991
G1 X97.922 Y96.922 E22.6387
G1 X89.915 Y96.939 E23.02382
G1 X89.58 Y96.89 E23.0401
G1 X88.834 Y96.541 E23.07971
G1 X88.234 Y95.97 E23.11955
G1 X87.928 Y95.485 E23.14716
G1 X87.735 Y94.801 E23.18133
G1 X87.735 Y68.107 E24.46523
G1 X87.784 Y67.772 E24.4815
G1 X88.073 Y67.155 E24.51428
G1 X88.419 Y67.321 F6000
G1 F900
G1 X88.466 Y67.223 E24.51951
G1 X88.964 Y66.711 E24.55383
G1 X89.326 Y66.481 E24.5745
G1 X89.846 Y66.32 E24.60066
G1 X97.795 Y66.316 E24.98297
G1 X98.162 Y66.4 E25.00111
G1 X98.536 Y66.577 E25.021
G1 X99.155 Y67.147 E25.06148
G1 X99.392 Y67.517 E25.08261
G1 X99.562 Y68.093 E25.11149
G1 X99.562 Y94.743 E26.39328
G1 X99.522 Y95.005 E26.40602
G1 X99.216 Y95.643 E26.44002
G1 X98.719 Y96.154 E26.47434
G1 X98.356 Y96.385 E26.49501
G1 X97.836 Y96.545 E26.52116
G1 X89.93 Y96.554 E26.90142
G1 X89.668 Y96.513 E26.91416
G1 X89.031 Y96.208 E26.94816
G1 X88.52 Y95.71 E26.98248
G1 X88.29 Y95.348 E27.00309
G1 X88.12 Y94.772 E27.03199
G1 X88.12 Y68.122 E28.31377
G1 X88.16 Y67.86 E28.32651
G1 X88.393 Y67.375 E28.3524
G1 X88.737 Y67.544 F6000
G1 F900
G1 X88.796 Y67.423 E28.35888
G1 X89.221 Y66.999 E28.38776
G1 X89.466 Y66.841 E28.40175
G1 X89.932 Y66.697 E28.42522
G1 X97.772 Y66.701 E28.80232
G1 X98.016 Y66.758 E28.81435
G1 X98.343 Y66.912 E28.83176
G1 X98.874 Y67.411 E28.86678
G1 X99.033 Y67.658 E28.88087
G1 X99.176 Y68.123 E28.90433
G1 X99.176 Y94.727 E30.18388
G1 X99.146 Y94.914 E30.19296
G1 X98.886 Y95.442 E30.22129
G1 X98.461 Y95.867 E30.25017
G1 X98.216 Y96.024 E30.26417
G1 X97.75 Y96.168 E30.28763
G1 X89.947 Y96.168 E30.66297
G1 X89.76 Y96.138 E30.67205
G1 X89.232 Y95.877 E30.70038
G1 X88.807 Y95.453 E30.72926
G1 X88.65 Y95.208 E30.74326
G1 X88.506 Y94.742 E30.76672
G1 X88.506 Y68.138 E32.04627
G1 X88.536 Y67.952 E32.05536
G1 X88.71 Y67.598 E32.07432
G1 X89.048 Y67.763 F6000
G1 F900
G1 X89.092 Y67.673 E32.07912
G1 X89.48 Y67.285 E32.10551
G1 X89.612 Y67.199 E32.11311
G1 X89.964 Y67.083 E32.13093
G1 X97.75 Y67.087 E32.50538
G1 X97.869 Y67.115 E32.51129
G1 X98.149 Y67.247 E32.52616
G1 X98.59 Y67.673 E32.55565
G1 X98.675 Y67.804 E32.56316
G1 X98.791 Y68.156 E32.58098
G1 X98.791 Y94.709 E33.85812
G1 X98.771 Y94.82 E33.86352
G1 X98.59 Y95.192 E33.88344
G1 X98.202 Y95.58 E33.90983
G1 X98.07 Y95.667 E33.91742
G1 X97.718 Y95.782 E33.93525
G1 X89.964 Y95.782 E34.30816
G1 X89.854 Y95.763 E34.31357
G1 X89.481 Y95.582 E34.33348
G1 X89.093 Y95.194 E34.35988
G1 X89.007 Y95.062 E34.36747
G1 X88.891 Y94.709 E34.38529
G1 X88.891 Y68.156 E35.66242
G1 X88.911 Y68.045 E35.66783
G1 X89.022 Y67.817 E35.68006
G1 X89.363 Y67.977 F6000
G1 F900
G1 X89.389 Y67.921 E35.68305
G1 X89.74 Y67.57 E35.70692
G1 X90 Y67.469 E35.72036
G1 X97.697 Y67.469 E36.09052
G1 X97.952 Y67.581 E36.10396
G1 X98.303 Y67.932 E36.12783
G1 X98.405 Y68.192 E36.14127
G1 X98.405 Y94.688 E37.41565
G1 X98.293 Y94.944 E37.42909
G1 X97.942 Y95.295 E37.45296
G1 X97.682 Y95.397 E37.46639
G1 X89.986 Y95.397 E37.83656
G1 X89.73 Y95.285 E37.85
G1 X89.379 Y94.934 E37.87387
G1 X89.277 Y94.674 E37.88731
G1 X89.277 Y68.177 E39.16169
G1 X89.337 Y68.032 E39.16926
G1 X89.687 Y68.177 F6000
G1 F900
G1 X89.972 Y67.884 E39.18893
G1 X90.043 Y67.854 E39.19262
G1 X97.639 Y67.854 E39.55797
G1 X97.71 Y67.884 E39.56166
G1 X97.99 Y68.164 E39.58071
G1 X98.02 Y68.235 E39.5844
G1 X98.02 Y94.631 E40.85397
G1 X97.99 Y94.702 E40.85766
G1 X97.71 Y94.982 E40.87671
G1 X97.639 Y95.011 E40.8804
G1 X90.043 Y95.011 E41.24575
G1 X89.972 Y94.982 E41.24944
G1 X89.692 Y94.702 E41.26849
G1 X89.663 Y94.631 E41.27218
G1 X89.664 Y68.232 E42.54187
G1 X90.048 Y68.353 F6000
G1 F900
G1 X90.161 Y68.24 E42.54955
G1 X97.521 Y68.24 E42.90353
G1 X97.634 Y68.353 E42.91121
G1 X97.634 Y94.513 E44.16941
G1 X97.521 Y94.625 E44.17709
G1 X90.161 Y94.625 E44.53107
G1 X90.048 Y94.513 E44.53875
G1 X90.048 Y68.413 E45.79406
G1 E43.39406 F1800
;WIPE_START
G1 F4800
G1 X90.161 Y68.24 E43.32047
G1 X97.521 Y68.24 E40.69857
G1 X97.634 Y68.353 E40.64167
G1 X97.634 Y75.56 E38.07406
;WIPE_END
G1 E37.79406 F1800
G92 E0
G1 X97.712 Y60.776 F6000
G1 E8 F1800
;TYPE:Support material
G1 F900
G1 X102.019 Y60.776 E8.20716
G1 X102.019 Y99.397 E10.06468
G1 X84.934 Y99.397 E10.88643
G1 X84.934 Y69.247 E12.33652
G1 X58.948 Y69.247 E13.58633
G1 X58.948 Y99.397 E15.03642
G1 X41.863 Y99.397 E15.85817
G1 X41.863 Y60.776 E17.7157
G1 X46.17 Y60.776 E17.92286
G1 X46.17 Y56.469 E18.13001
G1 X97.712 Y56.469 E20.60901
G1 X97.712 Y60.718 E20.81338
G1 X90.228 Y64.208 F6000
G1 F900
G1 X89.28 Y64.315 E20.85929
G1 X87.599 Y65.128 E20.9491
G1 X86.428 Y66.599 E21.03953
G1 X86.016 Y68.407 E21.12871
G1 X86.016 Y94.445 E22.38105
G1 X86.124 Y95.394 E22.42696
G1 X86.937 Y97.075 E22.51677
G1 X88.408 Y98.246 E22.6072
G1 X90.216 Y98.658 E22.69638
G1 X97.454 Y98.658 E23.04451
G1 X98.402 Y98.55 E23.09042
G1 X100.083 Y97.737 E23.18022
G1 X101.254 Y96.266 E23.27065
G1 X101.666 Y94.458 E23.35984
G1 X101.666 Y68.42 E24.61218
G1 X101.558 Y67.472 E24.65809
G1 X100.745 Y65.791 E24.74789
G1 X99.274 Y64.62 E24.83832
G1 X97.466 Y64.208 E24.92751
G1 X90.286 Y64.208 E25.27285
G1 E22.87285 F1800
;WIPE_START
G1 F4800
G1 X97.466 Y64.208 E20.3149
G1 X99.274 Y64.62 E19.65433
G1 X100.745 Y65.791 E18.98451
G1 X101.558 Y67.472 E18.31931
G1 X101.666 Y68.42 E17.97927
G1 X101.666 Y69.617 E17.55285
;WIPE_END
G1 E17.27285 F1800
G92 E0
G1 X101.248 Y99.223 F6000
G1 E8 F1800
G1 F900
G1 X101.248 Y96.831 E8.11507
G1 X100.477 Y97.8 E8.17464
G1 X100.477 Y99.05 E8.23475
G1 X99.706 Y99.05 E8.27184
G1 X99.706 Y98.305 E8.30765
G1 X98.934 Y98.678 E8.34885
G1 X98.934 Y99.05 E8.36672
G1 X98.163 Y99.05 E8.40382
G1 X98.163 Y98.926 E8.40974
G1 X97.392 Y99.005 E8.44703
G1 X97.392 Y99.05 E8.44919
G1 X96.621 Y99.05 E8.48628
G1 X96.621 Y99.005 E8.48844
G1 X95.849 Y99.005 E8.52553
G1 X95.849 Y99.05 E8.52769
G1 X95.078 Y99.05 E8.56478
G1 X95.078 Y99.005 E8.56694
G1 X94.307 Y99.005 E8.60403
G1 X94.307 Y99.05 E8.60619
G1 X93.536 Y99.05 E8.64328
G1 X93.536 Y99.005 E8.64544
G1 X92.765 Y99.005 E8.68253
G1 X92.765 Y99.05 E8.68469
G1 X91.993 Y99.05 E8.72178
G1 X91.993 Y99.005 E8.72394
G1 X91.222 Y99.005 E8.76103
G1 X91.222 Y99.05 E8.76319
G1 X90.451 Y99.05 E8.80028
G1 X90.451 Y99.005 E8.80244
G1 X90.177 Y99.005 E8.81562
G1 X89.68 Y98.891 E8.84014
G1 X89.68 Y99.05 E8.84775
G1 X88.908 Y99.05 E8.88484
G1 X88.908 Y98.716 E8.9009
G1 X88.254 Y98.566 E8.9332
G1 X88.137 Y98.474 E8.94036
G1 X88.137 Y99.05 E8.96806
G1 X87.366 Y99.05 E9.00516
G1 X87.366 Y97.86 E9.06238
G1 X86.659 Y97.297 E9.10584
G1 X86.595 Y97.164 E9.11293
G1 X86.595 Y99.05 E9.2036
G1 X85.823 Y99.05 E9.24069
G1 X85.823 Y56.816 E11.27199
G1 X86.595 Y56.816 E11.30908
G1 X86.595 Y65.833 E11.74278
G1 X87.366 Y64.864 E11.80235
G1 X87.366 Y56.816 E12.18943
G1 X88.137 Y56.816 E12.22653
G1 X88.137 Y64.483 E12.59528
G1 X88.908 Y64.11 E12.63648
G1 X88.908 Y56.816 E12.98729
G1 X89.68 Y56.816 E13.02438
G1 X89.68 Y63.921 E13.36611
G1 X90.209 Y63.861 E13.39172
G1 X90.451 Y63.861 E13.40337
G1 X90.451 Y56.816 E13.7422
G1 X91.222 Y56.816 E13.77929
G1 X91.222 Y63.861 E14.11812
G1 X91.993 Y63.861 E14.15522
G1 X91.993 Y56.816 E14.49405
G1 X92.765 Y56.816 E14.53114
G1 X92.765 Y63.861 E14.86998
G1 X93.536 Y63.861 E14.90707
G1 X93.536 Y56.816 E15.2459
G1 X94.307 Y56.816 E15.283
G1 X94.307 Y63.861 E15.62183
G1 X95.078 Y63.861 E15.65892
G1 X95.078 Y56.816 E15.99775
G1 X95.849 Y56.816 E16.03485
G1 X95.849 Y63.861 E16.37368
G1 X96.621 Y63.861 E16.41077
G1 X96.621 Y56.816 E16.74961
G1 X97.365 Y56.816 E16.78541
G1 X97.365 Y61.123 E16.99256
G1 X97.392 Y61.123 E16.99386
G1 X97.392 Y63.861 E17.12553
G1 X97.505 Y63.861 E17.13099
G1 X98.163 Y64.011 E17.16344
G1 X98.163 Y61.123 E17.30232
G1 X98.934 Y61.123 E17.33942
G1 X98.934 Y64.186 E17.48676
G1 X99.429 Y64.299 E17.51113
G1 X99.706 Y64.519 E17.52817
G1 X99.706 Y61.123 E17.69153
G1 X100.477 Y61.123 E17.72862
G1 X100.477 Y65.133 E17.92151
G1 X101.023 Y65.568 E17.95511
G1 X101.248 Y66.033 E17.97993
G1 X101.248 Y60.949 E18.22444
G1 E15.82444 F1800
;WIPE_START
G1 F4800
G1 X101.248 Y66.033 E14.0134
G1 X101.023 Y65.568 E13.82952
G1 X100.477 Y65.133 E13.58068
G1 X100.477 Y61.123 E12.15197
G1 X99.706 Y61.123 E11.87722
G1 X99.706 Y64.519 E10.66718
G1 X99.429 Y64.299 E10.541
G1 X99.328 Y64.276 E10.50444
;WIPE_END
G1 E10.22444 F1800
G92 E0
G1 X85.052 Y69.074 F6000
G1 E8 F1800
G1 F900
G1 X85.052 Y56.816 E8.58956
G1 X84.281 Y56.816 E8.62665
G1 X84.281 Y68.9 E9.20786
G1 X83.51 Y68.9 E9.24495
G1 X83.51 Y56.816 E9.82616
G1 X82.738 Y56.816 E9.86326
G1 X82.738 Y68.9 E10.44447
G1 X81.967 Y68.9 E10.48156
G1 X81.967 Y56.816 E11.06277
G1 X81.196 Y56.816 E11.09986
G1 X81.196 Y68.9 E11.68107
G1 X80.425 Y68.9 E11.71817
G1 X80.425 Y56.816 E12.29938
G1 X79.653 Y56.816 E12.33647
G1 X79.653 Y68.9 E12.91768
G1 X78.882 Y68.9 E12.95477
G1 X78.882 Y56.816 E13.53598
G1 X78.111 Y56.816 E13.57308
G1 X78.111 Y68.9 E14.15429
G1 X77.34 Y68.9 E14.19138
G1 X77.34 Y56.816 E14.77259
G1 X76.569 Y56.816 E14.80968
G1 X76.569 Y68.9 E15.39089
G1 X75.797 Y68.9 E15.42799
G1 X75.797 Y56.816 E16.0092
G1 X75.026 Y56.816 E16.04629
G1 X75.026 Y68.9 E16.6275
G1 X74.255 Y68.9 E16.66459
G1 X74.255 Y56.816 E17.2458
G1 X73.484 Y56.816 E17.2829
G1 X73.484 Y68.9 E17.8641
G1 X72.712 Y68.9 E17.9012
G1 X72.712 Y56.816 E18.48241
G1 X71.941 Y56.816 E18.5195
G1 X71.941 Y68.9 E19.10071
G1 X71.17 Y68.9 E19.13781
G1 X71.17 Y56.816 E19.71901
G1 X70.399 Y56.816 E19.75611
G1 X70.399 Y68.9 E20.33732
G1 X69.627 Y68.9 E20.37441
G1 X69.627 Y56.816 E20.95562
G1 X68.856 Y56.816 E20.99272
G1 X68.856 Y68.9 E21.57392
G1 X68.085 Y68.9 E21.61102
G1 X68.085 Y56.816 E22.19223
G1 X67.314 Y56.816 E22.22932
G1 X67.314 Y68.9 E22.81053
G1 X66.542 Y68.9 E22.84763
G1 X66.542 Y56.816 E23.42883
G1 X65.771 Y56.816 E23.46593
G1 X65.771 Y68.9 E24.04714
G1 X65 Y68.9 E24.08423
G1 X65 Y56.816 E24.66544
G1 X64.229 Y56.816 E24.70254
G1 X64.229 Y68.9 E25.28374
G1 X63.457 Y68.9 E25.32084
G1 X63.457 Y56.816 E25.90205
G1 X62.686 Y56.816 E25.93914
G1 X62.686 Y68.9 E26.52035
G1 X61.915 Y68.9 E26.55744
G1 X61.915 Y56.816 E27.13865
G1 X61.144 Y56.816 E27.17575
G1 X61.144 Y68.9 E27.75696
G1 X60.373 Y68.9 E27.79405
G1 X60.373 Y56.816 E28.37526
G1 X59.601 Y56.816 E28.41235
G1 X59.601 Y68.9 E28.99356
G1 X58.83 Y68.9 E29.03066
G1 X58.83 Y56.816 E29.61187
G1 X58.059 Y56.816 E29.64896
G1 X58.059 Y99.05 E31.68026
G1 X57.288 Y99.05 E31.71736
G1 X57.288 Y56.816 E33.74866
G1 X56.516 Y56.816 E33.78575
G1 X56.516 Y99.05 E35.81705
G1 X55.745 Y99.05 E35.85414
G1 X55.745 Y56.816 E37.88544
G1 X54.974 Y56.816 E37.92254
G1 X54.974 Y99.05 E39.95384
G1 X54.203 Y99.05 E39.99093
G1 X54.203 Y56.816 E42.02223
G1 X53.431 Y56.816 E42.05933
G1 X53.431 Y99.05 E44.09063
G1 X52.66 Y99.05 E44.12772
G1 X52.66 Y56.816 E46.15902
G1 X51.889 Y56.816 E46.19611
G1 X51.889 Y99.05 E48.22741
G1 X51.118 Y99.05 E48.26451
G1 X51.118 Y56.816 E50.29581
G1 X50.346 Y56.816 E50.3329
G1 X50.346 Y99.05 E52.3642
G1 X49.575 Y99.05 E52.4013
G1 X49.575 Y56.816 E54.4326
G1 X48.804 Y56.816 E54.46969
G1 X48.804 Y99.05 E56.50099
G1 X48.033 Y99.05 E56.53808
G1 X48.033 Y56.816 E58.56938
G1 X47.261 Y56.816 E58.60648
G1 X47.261 Y99.05 E60.63778
G1 X46.49 Y99.05 E60.67487
G1 X46.49 Y61.123 E62.49902
G1 X45.719 Y61.123 E62.53611
G1 X45.719 Y99.05 E64.36025
G1 X44.948 Y99.05 E64.39735
G1 X44.948 Y61.123 E66.22149
G1 X44.177 Y61.123 E66.25859
G1 X44.177 Y99.05 E68.08273
G1 X43.405 Y99.05 E68.11982
G1 X43.405 Y61.123 E69.94397
G1 X42.634 Y61.123 E69.98106
G1 X42.634 Y99.223 E71.81355
G1 E69.41355 F1800
;WIPE_START
G1 F4800
G1 X42.634 Y84.29 E64.09355
;WIPE_END
G1 E63.81355 F1800
G92 E0
G1 X95.791 Y92.783 F6000
G1 E8 F1800
G1 F900
G1 X91.891 Y92.783 E8.18758
G1 X91.891 Y82.697 E8.67267
G1 X95.791 Y82.697 E8.86024
G1 X95.791 Y92.725 E9.34255
G1 X95.078 Y92.609 F6000
G1 F900
G1 X95.078 Y83.044 E9.8026
G1 X94.307 Y83.044 E9.83969
G1 X94.307 Y92.436 E10.2914
G1 X93.536 Y92.436 E10.32849
G1 X93.536 Y83.044 E10.78019
G1 X92.765 Y83.044 E10.81729
G1 X92.765 Y92.609 E11.27734
G1 E8.87734 F1800
;WIPE_START
G1 F4800
G1 X92.765 Y83.044 E5.46976
G1 X93.536 Y83.044 E5.19501
G1 X93.536 Y87.641 E3.55734
;WIPE_END
G1 E3.27734 F1800
G92 E0
G1 X95.791 Y80.168 F6000
G1 E8 F1800
G1 F900
G1 X91.891 Y80.168 E8.18758
G1 X91.891 Y70.083 E8.67267
G1 X95.791 Y70.083 E8.86024
G1 X95.791 Y80.111 E9.34255
G1 X95.078 Y79.995 F6000
G1 F900
G1 X95.078 Y70.43 E9.8026
G1 X94.307 Y70.43 E9.83969
G1 X94.307 Y79.821 E10.2914
G1 X93.536 Y79.821 E10.32849
G1 X93.536 Y70.43 E10.78019
G1 X92.765 Y70.43 E10.81729
G1 X92.765 Y79.995 E11.27734
G1 E8.87734 F1800
;WIPE_START
G1 F4800
G1 X92.765 Y70.43 E5.46976
