; generated by PrusaSlicer 2.4.1+win64 on 2022-04-13 at 08:49:10 UTC

; 

; external perimeters extrusion width = 0.45mm
; perimeters extrusion width = 0.45mm
; infill extrusion width = 0.45mm
; solid infill extrusion width = 0.45mm
; top infill extrusion width = 0.40mm
; support material extrusion width = 0.35mm
; first layer extrusion width = 0.42mm

M107
;TYPE:Custom
M104 S200 ; set extruder temp
M140 S60 ; set bed temp
M190 S60 ; wait for bed temp
M109 S200 ; wait for extruder temp
G28 ; home all axes
G1 Z5 F3000 ; lift nozzle
;prime nozzle on the side of hotbed
G1 X5 Y10 F1500 ; move to prime
G1 Z0.2 F3000 ; get ready to prime
G92 E0 ; reset extrusion distance
G1 Y200 E15 F600 ; prime nozzle
G1 Y100 F5000 ; quick wipe
G92 E0
G21 ; set units to millimeters
G90 ; use absolute coordinates
M82 ; use absolute distances for extrusion
G92 E0
; Filament gcode
M107
;LAYER_CHANGE
;Z:0.3
;HEIGHT:0.3
G1 Z.3 F4800
G1 E-12 F1800
G92 E0
G1 X170.111 Y143.506 F4800
G1 E12 F1800
;TYPE:Skirt/Brim
;WIDTH:0.42
G1 F1200
G1 X170.939 Y142.577 E12.05519
G1 X171.838 Y142.033 E12.1018
G1 X172.513 Y141.817 E12.13323
G1 X181.268 Y141.813 E12.52158
G1 X181.854 Y141.984 E12.54863
G1 X182.389 Y142.237 E12.5749
G1 X183.394 Y143.107 E12.63388
G1 X183.976 Y144.054 E12.68314
G1 X184.234 Y145.112 E12.73145
G1 X184.234 Y171.852 E13.9175
G1 X184.159 Y172.413 E13.94259
G1 X183.689 Y173.494 E13.9949
G1 X182.861 Y174.423 E14.05009
G1 X181.962 Y174.967 E14.0967
G1 X181.288 Y175.183 E14.12808
G1 X172.953 Y175.234 E14.49781
G1 X172.388 Y175.159 E14.52309
G1 X171.306 Y174.689 E14.57541
G1 X170.377 Y173.861 E14.63061
G1 X169.82 Y172.939 E14.67838
G1 X169.566 Y171.888 E14.72634
G1 X169.566 Y145.148 E15.91238
G1 X169.641 Y144.587 E15.93747
G1 X170.087 Y143.561 E15.98712
G1 X170.412 Y143.704 F4800
G1 F1200
G1 X171.184 Y142.836 E16.03865
G1 X172.001 Y142.35 E16.08083
G1 X172.593 Y142.164 E16.10834
G1 X181.194 Y142.161 E16.48983
G1 X181.715 Y142.312 E16.51389
G1 X182.214 Y142.548 E16.5384
G1 X183.139 Y143.356 E16.59287
G1 X183.657 Y144.213 E16.6373
G1 X183.878 Y145.133 E16.67923
G1 X183.878 Y171.84 E17.86381
G1 X183.811 Y172.339 E17.88618
G1 X183.376 Y173.324 E17.9339
G1 X182.616 Y174.164 E17.98415
G1 X181.799 Y174.65 E18.02633
G1 X181.208 Y174.836 E18.05381
G1 X172.964 Y174.878 E18.41949
G1 X172.461 Y174.811 E18.44198
G1 X171.476 Y174.376 E18.48972
G1 X170.636 Y173.616 E18.53997
G1 X170.14 Y172.781 E18.58304
G1 X169.922 Y171.867 E18.62471
G1 X169.922 Y145.16 E19.8093
G1 X169.989 Y144.661 E19.83166
G1 X170.387 Y143.759 E19.87538
G1 X170.711 Y143.904 F4800
G1 F1200
G1 X170.736 Y143.849 E19.87806
G1 X171.427 Y143.098 E19.92334
G1 X172.162 Y142.668 E19.9611
G1 X172.671 Y142.512 E19.98473
G1 X181.12 Y142.51 E20.3595
G1 X181.576 Y142.64 E20.38053
G1 X182.039 Y142.859 E20.40324
G1 X182.882 Y143.603 E20.45313
G1 X183.337 Y144.371 E20.4927
G1 X183.523 Y145.153 E20.52836
G1 X183.523 Y171.827 E21.71148
G1 X183.462 Y172.264 E21.73107
G1 X183.064 Y173.151 E21.77416
G1 X182.373 Y173.902 E21.81945
G1 X181.638 Y174.332 E21.8572
G1 X181.129 Y174.488 E21.88082
G1 X172.975 Y174.523 E22.2425
G1 X172.536 Y174.462 E22.26218
G1 X171.649 Y174.064 E22.30528
G1 X170.898 Y173.373 E22.35056
G1 X170.461 Y172.626 E22.38896
G1 X170.277 Y171.847 E22.42444
G1 X170.277 Y145.173 E23.60757
G1 X170.338 Y144.736 E23.62715
G1 X170.687 Y143.959 E23.6649
G1 X171.009 Y144.107 F4800
G1 F1200
G1 X171.047 Y144.025 E23.66891
G1 X171.667 Y143.361 E23.70921
G1 X172.319 Y142.987 E23.74255
G1 X172.747 Y142.86 E23.76234
G1 X181.048 Y142.859 E24.13054
G1 X181.438 Y142.968 E24.1485
G1 X181.864 Y143.169 E24.16937
G1 X182.623 Y143.849 E24.21458
G1 X183.016 Y144.525 E24.24929
G1 X183.167 Y145.173 E24.27878
G1 X183.167 Y171.814 E25.46044
G1 X183.114 Y172.188 E25.47719
G1 X182.753 Y172.975 E25.51561
G1 X182.133 Y173.639 E25.55591
G1 X181.481 Y174.013 E25.58924
G1 X181.053 Y174.14 E25.60903
G1 X172.987 Y174.167 E25.9668
G1 X172.612 Y174.114 E25.9836
G1 X171.825 Y173.753 E26.02202
G1 X171.161 Y173.133 E26.06232
G1 X170.783 Y172.472 E26.09607
G1 X170.633 Y171.827 E26.12546
G1 X170.633 Y145.186 E27.30712
G1 X170.686 Y144.812 E27.32387
G1 X170.984 Y144.161 E27.35562
G1 X171.305 Y144.311 F4800
G1 F1200
G1 X171.356 Y144.203 E27.36094
G1 X171.905 Y143.627 E27.39624
G1 X172.473 Y143.308 E27.42514
G1 X172.82 Y143.209 E27.44114
G1 X180.978 Y143.208 E27.80297
G1 X181.301 Y143.297 E27.81783
G1 X181.687 Y143.479 E27.83678
G1 X182.362 Y144.092 E27.87721
G1 X182.694 Y144.677 E27.90705
G1 X182.812 Y145.193 E27.93051
G1 X182.812 Y171.801 E29.1107
G1 X182.766 Y172.109 E29.12454
G1 X182.444 Y172.797 E29.15823
G1 X181.895 Y173.373 E29.19353
G1 X181.327 Y173.692 E29.22244
G1 X180.98 Y173.791 E29.23843
G1 X173 Y173.812 E29.59238
G1 X172.691 Y173.766 E29.60625
G1 X172.003 Y173.444 E29.63994
G1 X171.427 Y172.895 E29.67524
G1 X171.106 Y172.322 E29.70437
G1 X170.988 Y171.807 E29.72778
G1 X170.988 Y145.199 E30.90798
G1 X171.034 Y144.891 E30.92182
G1 X171.279 Y144.366 E30.94753
G1 X171.598 Y144.518 F4800
G1 F1200
G1 X171.663 Y144.384 E30.95414
G1 X172.139 Y143.895 E30.98442
G1 X172.624 Y143.631 E31.00889
G1 X172.89 Y143.558 E31.02114
G1 X180.91 Y143.558 E31.37685
G1 X181.164 Y143.625 E31.38853
G1 X181.51 Y143.789 E31.4055
G1 X182.098 Y144.332 E31.44102
G1 X182.369 Y144.825 E31.46596
G1 X182.456 Y145.212 E31.48355
G1 X182.456 Y171.787 E32.66227
G1 X182.419 Y172.028 E32.67311
G1 X182.137 Y172.616 E32.70202
G1 X181.661 Y173.105 E32.73231
G1 X181.176 Y173.369 E32.75677
G1 X180.91 Y173.442 E32.76903
G1 X173.014 Y173.456 E33.11927
G1 X172.772 Y173.419 E33.13012
G1 X172.184 Y173.137 E33.15903
G1 X171.695 Y172.661 E33.18931
G1 X171.43 Y172.175 E33.21384
G1 X171.344 Y171.788 E33.23142
G1 X171.344 Y145.213 E34.41014
G1 X171.381 Y144.972 E34.42098
G1 X171.572 Y144.573 E34.44062
G1 X171.889 Y144.729 F4800
G1 F1200
G1 X171.968 Y144.569 E34.4485
G1 X172.37 Y144.167 E34.47375
G1 X172.769 Y143.956 E34.49376
G1 X172.956 Y143.908 E34.50231
G1 X180.845 Y143.908 E34.85222
G1 X181.029 Y143.955 E34.86064
G1 X181.332 Y144.098 E34.87552
G1 X181.832 Y144.569 E34.90599
G1 X182.043 Y144.968 E34.92602
G1 X182.1 Y145.23 E34.93792
G1 X182.1 Y171.772 E36.11516
G1 X182.072 Y171.944 E36.12288
G1 X181.832 Y172.431 E36.14698
G1 X181.43 Y172.833 E36.17222
G1 X181.031 Y173.044 E36.19223
G1 X180.844 Y173.092 E36.20079
G1 X173.028 Y173.1 E36.54745
G1 X172.856 Y173.072 E36.55518
G1 X172.369 Y172.832 E36.57928
G1 X171.967 Y172.43 E36.60452
G1 X171.757 Y172.032 E36.62447
G1 X171.7 Y171.77 E36.63638
G1 X171.7 Y145.228 E37.81362
G1 X171.728 Y145.056 E37.82134
G1 X171.863 Y144.782 E37.83489
G1 X172.175 Y144.934 F4800
G1 F1200
G1 X172.24 Y144.799 E37.84155
G1 X172.6 Y144.439 E37.86414
G1 X172.907 Y144.284 E37.87939
G1 X173.015 Y144.259 E37.88431
G1 X180.785 Y144.259 E38.22892
G1 X180.895 Y144.285 E38.23395
G1 X181.153 Y144.406 E38.24659
G1 X181.561 Y144.802 E38.27181
G1 X181.715 Y145.105 E38.2869
G1 X181.745 Y145.248 E38.29336
G1 X181.745 Y171.755 E39.46908
G1 X181.727 Y171.857 E39.47368
G1 X181.56 Y172.201 E39.49061
G1 X181.2 Y172.561 E39.5132
G1 X180.893 Y172.716 E39.52846
G1 X180.785 Y172.741 E39.53338
G1 X173.045 Y172.745 E39.87668
G1 X172.943 Y172.727 E39.88127
G1 X172.599 Y172.56 E39.89821
G1 X172.239 Y172.2 E39.92079
G1 X172.085 Y171.895 E39.93595
G1 X172.055 Y171.752 E39.94241
G1 X172.055 Y145.245 E41.11814
G1 X172.073 Y145.143 E41.12273
G1 X172.148 Y144.988 E41.13035
G1 X172.463 Y145.137 F4800
G1 F1200
G1 X172.514 Y145.028 E41.13568
G1 X172.828 Y144.714 E41.15538
G1 X173.064 Y144.611 E41.16681
G1 X180.736 Y144.611 E41.50706
G1 X180.972 Y144.714 E41.51849
G1 X181.286 Y145.028 E41.5382
G1 X181.383 Y145.234 E41.5483
G1 X181.389 Y171.736 E42.72375
G1 X181.286 Y171.972 E42.73518
G1 X180.972 Y172.286 E42.75489
G1 X180.766 Y172.383 E42.76499
G1 X173.064 Y172.389 E43.10658
G1 X172.828 Y172.286 E43.118
G1 X172.514 Y171.972 E43.13771
G1 X172.417 Y171.766 E43.14781
G1 X172.411 Y145.264 E44.32327
G1 X172.437 Y145.191 E44.32672
G1 X172.767 Y145.317 F4800
G1 F1200
G1 X172.794 Y145.252 E44.32986
G1 X173.052 Y144.994 E44.34606
G1 X173.117 Y144.967 E44.3492
G1 X180.683 Y144.967 E44.68476
G1 X180.748 Y144.994 E44.6879
G1 X181.006 Y145.252 E44.7041
G1 X181.033 Y145.317 E44.70724
G1 X181.033 Y171.683 E45.87667
G1 X181.006 Y171.748 E45.87981
G1 X180.748 Y172.006 E45.89601
G1 X180.683 Y172.033 E45.89915
G1 X173.117 Y172.033 E46.23471
G1 X173.052 Y172.006 E46.23785
G1 X172.794 Y171.748 E46.25405
G1 X172.767 Y171.683 E46.25719
G1 X172.767 Y145.377 E47.42396
G1 X173.122 Y145.426 F4800
G1 F1200
G1 X173.226 Y145.322 E47.43049
G1 X180.574 Y145.322 E47.75638
G1 X180.678 Y145.426 E47.76291
G1 X180.678 Y171.574 E48.92267
G1 X180.574 Y171.678 E48.9292
G1 X173.226 Y171.678 E49.25509
G1 X173.122 Y171.574 E49.26163
G1 X173.122 Y145.486 E50.41872
G1 E44.41872 F1800
;WIPE_START
G1 F3840
G1 X173.226 Y145.322 E44.33215
G1 X180.574 Y145.322 E41.0603
G1 X180.678 Y145.426 E40.99471
G1 X180.678 Y150.537 E38.71872
;WIPE_END
G1 E38.41872 F1800
G92 E0
G1 X183.207 Y135.214 F4800
G1 E12 F1800
;TYPE:Support material
G1 F1200
G1 X186.014 Y135.214 E12.12451
G1 X186.014 Y177.593 E14.00422
G1 X168.899 Y177.593 E14.76336
G1 X168.899 Y149.522 E16.00843
G1 X141.101 Y149.522 E17.24141
G1 X141.101 Y177.593 E18.48649
G1 X123.986 Y177.593 E19.24563
G1 X123.986 Y135.214 E21.12534
G1 X126.793 Y135.214 E21.24985
G1 X126.793 Y132.407 E21.37435
G1 X183.207 Y132.407 E23.8766
G1 X183.207 Y135.161 E23.99874
G1 X173.288 Y141.29 F4800
G1 F1200
G1 X172.343 Y141.397 E24.04093
G1 X170.667 Y142.208 E24.12348
G1 X169.501 Y143.673 E24.20658
G1 X169.09 Y145.476 E24.28859
G1 X169.09 Y171.512 E25.4434
G1 X169.197 Y172.457 E25.48558
G1 X170.008 Y174.133 E25.56814
G1 X171.473 Y175.299 E25.65123
G1 X173.276 Y175.71 E25.73325
G1 X180.512 Y175.71 E26.05418
G1 X181.457 Y175.603 E26.09636
G1 X183.133 Y174.792 E26.17892
G1 X184.299 Y173.327 E26.26201
G1 X184.71 Y171.524 E26.34403
G1 X184.71 Y145.488 E27.49883
G1 X184.603 Y144.543 E27.54101
G1 X183.792 Y142.867 E27.62357
G1 X182.327 Y141.701 E27.70666
G1 X180.524 Y141.29 E27.78868
G1 X173.341 Y141.29 E28.10724
G1 E22.10724 F1800
;WIPE_START
G1 F3840
G1 X180.524 Y141.29 E18.90893
G1 X182.327 Y141.701 E18.08549
G1 X183.792 Y142.867 E17.25126
G1 X184.603 Y144.543 E16.42242
G1 X184.606 Y144.577 E16.40724
;WIPE_END
G1 E16.10724 F1800
G92 E0
G1 X185.425 Y177.433 F4800
G1 E12 F1800
G1 F1200
G1 X185.425 Y135.534 E13.85842
G1 X185.03 Y135.534 E13.87594
G1 X185.03 Y177.273 E15.72726
G1 X184.635 Y177.273 E15.74479
G1 X184.635 Y173.294 E15.92129
G1 X184.595 Y173.469 E15.92926
G1 X184.24 Y173.915 E15.95456
G1 X184.24 Y177.273 E16.1035
G1 X183.845 Y177.273 E16.12103
G1 X183.845 Y174.412 E16.24795
G1 X183.45 Y174.908 E16.27609
G1 X183.45 Y177.273 E16.38099
G1 X183.054 Y177.273 E16.39851
G1 X183.054 Y175.186 E16.4911
G1 X182.659 Y175.377 E16.51057
G1 X182.659 Y177.273 E16.59467
G1 X182.264 Y177.273 E16.6122
G1 X182.264 Y175.568 E16.68783
G1 X181.869 Y175.759 E16.7073
G1 X181.869 Y177.273 E16.77446
G1 X181.474 Y177.273 E16.79198
G1 X181.474 Y175.923 E16.85187
G1 X181.079 Y175.968 E16.86951
G1 X181.079 Y177.273 E16.9274
G1 X180.684 Y177.273 E16.94493
G1 X180.684 Y176.013 E17.00083
G1 X180.288 Y176.03 E17.01838
G1 X180.288 Y177.273 E17.0735
G1 X179.893 Y177.273 E17.09103
G1 X179.893 Y176.03 E17.14616
G1 X179.498 Y176.03 E17.16369
G1 X179.498 Y177.273 E17.21881
G1 X179.103 Y177.273 E17.23634
G1 X179.103 Y176.03 E17.29147
G1 X178.708 Y176.03 E17.30899
G1 X178.708 Y177.273 E17.36412
G1 X178.313 Y177.273 E17.38165
G1 X178.313 Y176.03 E17.43678
G1 X177.918 Y176.03 E17.4543
G1 X177.918 Y177.273 E17.50943
G1 X177.523 Y177.273 E17.52696
G1 X177.523 Y176.03 E17.58209
G1 X177.127 Y176.03 E17.59961
G1 X177.127 Y177.273 E17.65474
G1 X176.732 Y177.273 E17.67227
G1 X176.732 Y176.03 E17.7274
G1 X176.337 Y176.03 E17.74492
G1 X176.337 Y177.273 E17.80005
G1 X175.942 Y177.273 E17.81758
G1 X175.942 Y176.03 E17.8727
G1 X175.547 Y176.03 E17.89023
G1 X175.547 Y177.273 E17.94536
G1 X175.152 Y177.273 E17.96288
G1 X175.152 Y176.03 E18.01801
G1 X174.757 Y176.03 E18.03554
G1 X174.757 Y177.273 E18.09067
G1 X174.361 Y177.273 E18.10819
G1 X174.361 Y176.03 E18.16332
G1 X173.966 Y176.03 E18.18085
G1 X173.966 Y177.273 E18.23598
G1 X173.571 Y177.273 E18.2535
G1 X173.571 Y176.03 E18.30863
G1 X173.176 Y176.015 E18.32617
G1 X173.176 Y177.273 E18.38195
G1 X172.781 Y177.273 E18.39947
G1 X172.781 Y175.925 E18.45925
G1 X172.386 Y175.835 E18.47722
G1 X172.386 Y177.273 E18.54099
G1 X171.991 Y177.273 E18.55851
G1 X171.991 Y175.745 E18.62628
G1 X171.596 Y175.655 E18.64425
G1 X171.596 Y177.273 E18.71601
G1 X171.2 Y177.273 E18.73353
G1 X171.2 Y175.491 E18.81258
G1 X170.805 Y175.176 E18.83498
G1 X170.805 Y177.273 E18.92797
G1 X170.41 Y177.273 E18.9455
G1 X170.41 Y174.862 E19.05244
G1 X170.015 Y174.547 E19.07484
G1 X170.015 Y177.273 E19.19573
G1 X169.62 Y177.273 E19.21326
G1 X169.62 Y174.066 E19.35551
G1 X169.225 Y173.249 E19.39577
G1 X169.225 Y177.433 E19.58137
G1 E13.58137 F1800
;WIPE_START
G1 F3840
G1 X169.225 Y173.249 E11.71802
G1 X169.62 Y174.066 E11.31384
G1 X169.62 Y177.273 E9.88563
G1 X170.015 Y177.273 E9.70967
G1 X170.015 Y174.547 E8.49594
G1 X170.41 Y174.862 E8.27106
G1 X170.41 Y175.737 E7.88137
;WIPE_END
G1 E7.58137 F1800
G92 E0
G1 X184.635 Y144.242 F4800
G1 E12 F1800
G1 F1200
G1 X184.635 Y135.534 E12.38625
G1 X184.24 Y135.534 E12.40378
G1 X184.24 Y143.058 E12.73748
G1 X184.049 Y142.662 E12.75695
G1 X183.845 Y142.5 E12.76851
G1 X183.845 Y135.534 E13.07749
G1 X183.45 Y135.534 E13.09501
G1 X183.45 Y142.186 E13.39004
G1 X183.054 Y141.871 E13.41244
G1 X183.054 Y135.534 E13.69351
G1 X182.887 Y135.534 E13.70093
G1 X182.887 Y132.727 E13.82544
G1 X182.659 Y132.727 E13.83555
G1 X182.659 Y141.557 E14.22718
G1 X182.469 Y141.405 E14.23798
G1 X182.264 Y141.358 E14.24729
G1 X182.264 Y132.727 E14.63013
G1 X181.869 Y132.727 E14.64766
G1 X181.869 Y141.268 E15.0265
G1 X181.474 Y141.178 E15.04448
G1 X181.474 Y132.727 E15.41933
G1 X181.079 Y132.727 E15.43686
G1 X181.079 Y141.088 E15.80772
G1 X180.684 Y140.998 E15.82569
G1 X180.684 Y132.727 E16.19256
G1 X180.288 Y132.727 E16.21008
G1 X180.288 Y140.97 E16.57569
G1 X179.893 Y140.97 E16.59322
G1 X179.893 Y132.727 E16.95883
G1 X179.498 Y132.727 E16.97636
G1 X179.498 Y140.97 E17.34197
G1 X179.103 Y140.97 E17.3595
G1 X179.103 Y132.727 E17.72511
G1 X178.708 Y132.727 E17.74263
G1 X178.708 Y140.97 E18.10825
G1 X178.313 Y140.97 E18.12577
G1 X178.313 Y132.727 E18.49138
G1 X177.918 Y132.727 E18.50891
G1 X177.918 Y140.97 E18.87452
G1 X177.523 Y140.97 E18.89205
G1 X177.523 Y132.727 E19.25766
G1 X177.127 Y132.727 E19.27519
G1 X177.127 Y140.97 E19.6408
G1 X176.732 Y140.97 E19.65832
G1 X176.732 Y132.727 E20.02393
G1 X176.337 Y132.727 E20.04146
G1 X176.337 Y140.97 E20.40707
G1 X175.942 Y140.97 E20.4246
G1 X175.942 Y132.727 E20.79021
G1 X175.547 Y132.727 E20.80774
G1 X175.547 Y140.97 E21.17335
G1 X175.152 Y140.97 E21.19087
G1 X175.152 Y132.727 E21.55649
G1 X174.757 Y132.727 E21.57401
G1 X174.757 Y140.97 E21.93962
G1 X174.361 Y140.97 E21.95715
G1 X174.361 Y132.727 E22.32276
G1 X173.966 Y132.727 E22.34029
G1 X173.966 Y140.97 E22.7059
G1 X173.571 Y140.97 E22.72343
G1 X173.571 Y132.727 E23.08904
G1 X173.176 Y132.727 E23.10656
G1 X173.176 Y140.981 E23.47265
G1 X172.781 Y141.026 E23.49029
G1 X172.781 Y132.727 E23.85836
G1 X172.386 Y132.727 E23.87589
G1 X172.386 Y141.07 E24.24596
G1 X172.253 Y141.086 E24.2519
G1 X171.991 Y141.212 E24.26481
G1 X171.991 Y132.727 E24.64117
G1 X171.596 Y132.727 E24.6587
G1 X171.596 Y141.403 E25.04354
G1 X171.2 Y141.594 E25.063
G1 X171.2 Y132.727 E25.45632
G1 X170.805 Y132.727 E25.47384
G1 X170.805 Y141.786 E25.87563
G1 X170.462 Y141.951 E25.89252
G1 X170.41 Y142.017 E25.89625
G1 X170.41 Y132.727 E26.3083
G1 X170.015 Y132.727 E26.32583
G1 X170.015 Y142.514 E26.75991
G1 X169.62 Y143.01 E26.78805
G1 X169.62 Y132.727 E27.24415
G1 X169.225 Y132.727 E27.26167
G1 X169.225 Y143.506 E27.73979
G1 X169.205 Y143.531 E27.7412
G1 X168.83 Y145.179 E27.81614
G1 X168.83 Y132.727 E28.36842
G1 X168.434 Y132.727 E28.38594
G1 X168.434 Y149.202 E29.11669
G1 X168.039 Y149.202 E29.13422
G1 X168.039 Y132.727 E29.86497
