; G-Code generated by Simplify3D(R) Version 4.1.2
; Mar 10, 2022 at 7:19:56 PM
; Settings Summary
;   processName,Process1
;   applyToModels,frodv6_b
;   profileName,Z9M4 (modified)
;   profileVersion,2021-11-11 15:34:39
;   baseProfile,Default
;   printMaterial,PLA
;   printQuality,Medium
;   printExtruders,All Extruders
;   extruderName,Extruder 1,Extruder 2,Extruder 3,Extruder 4
;   extruderToolheadNumber,0,1,2,3
;   extruderDiameter,0.4,0.4,0.4,0.4
;   extruderAutoWidth,0,0,0,0
;   extruderWidth,0.48,0.4,0.4,0.4
;   extrusionMultiplier,1,1.2,1,1
;   extruderUseRetract,1,1,1,1
;   extruderRetractionDistance,10,12,12,12
;   extruderExtraRestartDistance,0.15,0.15,0.15,0.15
;   extruderRetractionZLift,0,0,0,0
;   extruderRetractionSpeed,1800,2100,2100,2100
;   extruderUseCoasting,0,0,0,0
;   extruderCoastingDistance,0.2,0.2,0.2,0.2
;   extruderUseWipe,1,1,1,1
;   extruderWipeDistance,3,3,3,3
;   primaryExtruder,0
;   layerHeight,0.2
;   topSolidLayers,3
;   bottomSolidLayers,3
;   perimeterOutlines,3
;   printPerimetersInsideOut,1
;   startPointOption,2
;   startPointOriginX,150
;   startPointOriginY,150
;   sequentialIslands,0
;   spiralVaseMode,0
;   firstLayerHeightPercentage,150
;   firstLayerWidthPercentage,100
;   firstLayerUnderspeed,0.5
;   useRaft,0
;   raftExtruder,0
;   raftTopLayers,2
;   raftBaseLayers,2
;   raftOffset,3
;   raftSeparationDistance,0.14
;   raftTopInfill,100
;   aboveRaftSpeedMultiplier,0.3
;   useSkirt,0
;   skirtExtruder,0
;   skirtLayers,1
;   skirtOutlines,2
;   skirtOffset,4
;   usePrimePillar,0
;   primePillarExtruder,999
;   primePillarWidth,12
;   primePillarLocation,7
;   primePillarSpeedMultiplier,1
;   useOozeShield,0
;   oozeShieldExtruder,999
;   oozeShieldOffset,2
;   oozeShieldOutlines,1
;   oozeShieldSidewallShape,1
;   oozeShieldSidewallAngle,30
;   oozeShieldSpeedMultiplier,1
;   infillExtruder,0
;   internalInfillPattern,Rectilinear
;   externalInfillPattern,Rectilinear
;   infillPercentage,40
;   outlineOverlapPercentage,15
;   infillExtrusionWidthPercentage,100
;   minInfillLength,5
;   infillLayerInterval,1
;   internalInfillAngles,45,-45
;   overlapInternalInfillAngles,0
;   externalInfillAngles,45,-45
;   generateSupport,0
;   supportExtruder,0
;   supportInfillPercentage,30
;   supportExtraInflation,0
;   supportBaseLayers,0
;   denseSupportExtruder,0
;   denseSupportLayers,0
;   denseSupportInfillPercentage,70
;   supportLayerInterval,1
;   supportHorizontalPartOffset,0.3
;   supportUpperSeparationLayers,1
;   supportLowerSeparationLayers,1
;   supportType,0
;   supportGridSpacing,4
;   maxOverhangAngle,45
;   supportAngles,0
;   temperatureName,Nozzle,Bed
;   temperatureNumber,0,0
;   temperatureSetpointCount,1,1
;   temperatureSetpointLayers,1,1
;   temperatureSetpointTemperatures,200,60
;   temperatureStabilizeAtStartup,1,1
;   temperatureHeatedBed,0,1
;   fanLayers,1,2
;   fanSpeeds,0,100
;   blipFanToFullPower,0
;   adjustSpeedForCooling,1
;   minSpeedLayerTime,15
;   minCoolingSpeedSlowdown,20
;   increaseFanForCooling,0
;   minFanLayerTime,45
;   maxCoolingFanSpeed,100
;   increaseFanForBridging,1
;   bridgingFanSpeed,100
;   use5D,1
;   relativeEdistances,0
;   allowEaxisZeroing,1
;   independentExtruderAxes,0
;   includeM10123,0
;   stickySupport,1
;   applyToolheadOffsets,0
;   gcodeXoffset,0
;   gcodeYoffset,0
;   gcodeZoffset,0
;   overrideMachineDefinition,1
;   machineTypeOverride,0
;   strokeXoverride,300
;   strokeYoverride,300
;   strokeZoverride,385
;   originOffsetXoverride,0
;   originOffsetYoverride,0
;   originOffsetZoverride,0
;   homeXdirOverride,-1
;   homeYdirOverride,-1
;   homeZdirOverride,-1
;   flipXoverride,1
;   flipYoverride,-1
;   flipZoverride,1
;   toolheadOffsets,0,0|0,0|0,0|0,0|0,0|0,0
;   overrideFirmwareConfiguration,0
;   firmwareTypeOverride,RepRap (Marlin/Repetier/Sprinter)
;   GPXconfigOverride,r2
;   baudRateOverride,115200
;   overridePrinterModels,0
;   printerModelsOverride
;   startingGcode,G28 ; home all axes,M209 S1	;enable FW retraction,G1 Z5 F3000 ; lift,G1 X5 Y10 F1500 ; move to prime,G1 Z0.2 F3000 ; get ready to prime,G92 E0 ; reset extrusion distance,G1 Y200 E15 F600 ; prime nozzle,G1 Y100 F5000 ; quick wipe,G92 E0 ; reset extrusion distance
;   layerChangeGcode,
;   retractionGcode,
;   toolChangeGcode,
;   endingGcode,G28 XY,M106 S0 ; turn off FAN,M104 S0 ; turn off extruder,M140 S0 ; turn off bed,M84 ; disable motors
;   exportFileFormat,gcode
;   celebration,0
;   celebrationSong,Star Wars
;   postProcessing,
;   defaultSpeed,3000
;   outlineUnderspeed,0.5
;   solidInfillUnderspeed,0.8
;   supportUnderspeed,0.8
;   rapidXYspeed,6000
;   rapidZspeed,480
;   minBridgingArea,50
;   bridgingExtraInflation,0
;   bridgingExtrusionMultiplier,1
;   bridgingSpeedMultiplier,1
;   useFixedBridgingAngle,0
;   fixedBridgingAngle,0
;   applyBridgingToPerimeters,0
;   filamentDiameters,1.75|1.75|1.75|1.75|1.75|1.75
;   filamentPricesPerKg,46|46|46|46|46|46
;   filamentDensities,1.25|1.25|1.25|1.25|1.25|1.25
;   useMinPrintHeight,0
;   minPrintHeight,25
;   useMaxPrintHeight,0
;   maxPrintHeight,50
;   useDiaphragm,0
;   diaphragmLayerInterval,20
;   robustSlicing,1
;   mergeAllIntoSolid,0
;   onlyRetractWhenCrossingOutline,1
;   retractBetweenLayers,0
;   useRetractionMinTravel,1
;   retractionMinTravel,0.5
;   retractWhileWiping,0
;   onlyWipeOutlines,1
;   avoidCrossingOutline,1
;   maxMovementDetourFactor,8
;   toolChangeRetractionDistance,0
;   toolChangeExtraRestartDistance,-0.5
;   toolChangeRetractionSpeed,600
;   externalThinWallType,0
;   internalThinWallType,2
;   thinWallAllowedOverlapPercentage,10
;   singleExtrusionMinLength,1
;   singleExtrusionMinPrintingWidthPercentage,50
;   singleExtrusionMaxPrintingWidthPercentage,200
;   singleExtrusionEndpointExtension,0.2
;   horizontalSizeCompensation,0
G90
M82
M106 S0
M140 S60
M190 S60
M104 S200 T0
M109 S200 T0
G28 ; home all axes
M209 S1	;enable FW retraction
G1 Z5 F3000 ; lift
G1 X5 Y10 F1500 ; move to prime
G1 Z0.2 F3000 ; get ready to prime
G92 E0 ; reset extrusion distance
G1 Y200 E15 F600 ; prime nozzle
G1 Y100 F5000 ; quick wipe
G92 E0 ; reset extrusion distance
; process Process1
; layer 1, Z = 0.300
T0
G92 E0.0000
G1 E-10.0000 F1800
; feature inner perimeter
; tool H0.300 W0.480
G1 Z0.300 F480
G1 X130.302 Y136.577 F6000
G1 E0.1500 F1800
G92 E0.0000
G1 X130.302 Y150.055 E0.8070 F1125
G1 X129.881 Y149.601 E0.8440
G1 X129.819 Y149.512 E0.8505
G1 X129.770 Y149.416 E0.8570
G1 X129.734 Y149.314 E0.8635
G1 X129.712 Y149.209 E0.8699
G1 X129.702 Y149.059 E0.8789
G1 X129.702 Y137.544 E1.5683
G1 X129.713 Y137.387 E1.5777
G1 X129.737 Y137.276 E1.5845
G1 X129.777 Y137.169 E1.5913
G1 X129.831 Y137.070 E1.5981
G1 X129.899 Y136.979 E1.6049
G1 X130.302 Y136.577 E1.6389
G1 X139.302 Y136.701 F6000
G92 E0.0000
G1 X149.702 Y136.701 E0.6226 F1125
G1 X149.702 Y138.275 E0.7169
G1 X149.071 Y138.338 E0.7548
G1 X148.659 Y138.462 E0.7806
G1 X148.275 Y138.667 E0.8066
G1 X147.942 Y138.941 E0.8324
G1 X147.668 Y139.274 E0.8583
G1 X147.464 Y139.657 E0.8842
G1 X147.339 Y140.068 E0.9099
G1 X147.296 Y140.501 E0.9360
G1 X147.339 Y140.934 E0.9621
G1 X147.464 Y141.344 E0.9877
G1 X147.668 Y141.727 E1.0137
G1 X147.942 Y142.060 E1.0395
G1 X148.275 Y142.334 E1.0654
G1 X148.658 Y142.539 E1.0914
G1 X149.071 Y142.664 E1.1172
G1 X149.702 Y142.726 E1.1551
G1 X149.702 Y150.201 E1.6026
G1 X158.702 Y150.201 E2.1414
G1 X158.702 Y136.577 E2.9570
G1 X159.104 Y136.979 E2.9911
G1 X159.172 Y137.070 E2.9979
G1 X159.226 Y137.169 E3.0047
G1 X159.266 Y137.276 E3.0115
G1 X159.290 Y137.386 E3.0183
G1 X159.302 Y137.544 E3.0277
G1 X159.302 Y144.048 E3.4171
G1 X159.332 Y144.425 E3.4398
G1 X159.430 Y144.836 E3.4651
G1 X159.592 Y145.228 E3.4905
G1 X159.815 Y145.590 E3.5159
G1 X160.090 Y145.912 E3.5413
G1 X160.412 Y146.188 E3.5666
G1 X160.775 Y146.410 E3.5921
G1 X161.166 Y146.572 E3.6175
G1 X161.577 Y146.671 E3.6428
G1 X161.954 Y146.701 E3.6654
G1 X165.841 Y146.701 E3.8981
G1 X165.934 Y147.006 E3.9172
G1 X165.662 Y147.190 E3.9369
G1 X165.337 Y147.491 E3.9634
G1 X165.061 Y147.838 E3.9899
G1 X164.841 Y148.219 E4.0163
G1 X164.679 Y148.631 E4.0428
G1 X164.582 Y149.058 E4.0690
G1 X164.549 Y149.490 E4.0950
G1 X164.581 Y149.941 E4.1220
G1 X164.679 Y150.371 E4.1484
G1 X164.841 Y150.783 E4.1749
G1 X165.061 Y151.164 E4.2012
G1 X165.337 Y151.510 E4.2278
G1 X165.660 Y151.809 E4.2541
G1 X166.025 Y152.058 E4.2806
G1 X166.423 Y152.250 E4.3070
G1 X166.844 Y152.380 E4.3334
G1 X167.282 Y152.446 E4.3599
G1 X168.337 Y152.446 E4.4230
G1 X160.323 Y159.090 E5.0462
G1 X160.199 Y159.179 E5.0554
G1 X160.102 Y159.230 E5.0619
G1 X159.998 Y159.267 E5.0686
G1 X159.891 Y159.290 E5.0751
G1 X159.738 Y159.301 E5.0843
G1 X154.681 Y159.301 E5.3871
G1 X153.998 Y159.322 E5.4280
G1 X153.305 Y159.387 E5.4697
G1 X152.618 Y159.495 E5.5113
G1 X151.938 Y159.646 E5.5530
G1 X151.266 Y159.840 E5.5948
G1 X150.610 Y160.073 E5.6365
G1 X149.969 Y160.348 E5.6783
G1 X149.345 Y160.663 E5.7201
G1 X148.744 Y161.015 E5.7618
G1 X148.167 Y161.402 E5.8034
G1 X147.617 Y161.824 E5.8449
G1 X146.815 Y162.513 E5.9082
G1 X146.538 Y162.708 E5.9285
G1 X146.274 Y162.859 E5.9467
G1 X146.042 Y162.583 E5.9682
G1 X146.335 Y162.227 E5.9959
G1 X146.540 Y161.844 E6.0218
G1 X146.664 Y161.434 E6.0475
G1 X146.708 Y161.001 E6.0736
G1 X146.664 Y160.568 E6.0996
G1 X146.540 Y160.157 E6.1253
G1 X146.335 Y159.774 E6.1513
G1 X146.061 Y159.441 E6.1771
G1 X145.728 Y159.167 E6.2030
G1 X145.345 Y158.963 E6.2290
G1 X144.933 Y158.838 E6.2548
G1 X144.502 Y158.795 E6.2807
G1 X144.071 Y158.838 E6.3066
G1 X143.659 Y158.962 E6.3324
G1 X143.275 Y159.167 E6.3584
G1 X142.942 Y159.441 E6.3842
G1 X142.668 Y159.774 E6.4101
G1 X142.464 Y160.157 E6.4360
G1 X142.339 Y160.568 E6.4617
G1 X142.296 Y160.994 E6.4874
G1 X142.338 Y161.431 E6.5137
G1 X142.464 Y161.844 E6.5395
G1 X142.668 Y162.227 E6.5655
G1 X142.967 Y162.591 E6.5937
G1 X142.746 Y162.865 E6.6148
G1 X142.577 Y162.778 E6.6261
G1 X138.136 Y160.214 E6.9331
G1 X138.015 Y160.132 E6.9419
G1 X137.938 Y160.065 E6.9480
G1 X137.869 Y159.986 E6.9543
G1 X137.811 Y159.899 E6.9605
G1 X137.765 Y159.806 E6.9667
G1 X137.731 Y159.707 E6.9730
G1 X137.711 Y159.606 E6.9791
G1 X137.702 Y159.460 E6.9879
G1 X137.702 Y155.479 E7.2262
G1 X137.677 Y155.046 E7.2523
G1 X137.600 Y154.588 E7.2801
G1 X137.472 Y154.139 E7.3080
G1 X137.296 Y153.708 E7.3359
G1 X137.072 Y153.297 E7.3639
G1 X136.805 Y152.916 E7.3917
G1 X136.496 Y152.565 E7.4197
G1 X136.151 Y152.252 E7.4476
G1 X135.773 Y151.978 E7.4755
G1 X135.369 Y151.749 E7.5034
G1 X134.970 Y151.578 E7.5294
G1 X132.167 Y150.558 E7.7080
G1 X132.230 Y150.201 E7.7297
G1 X139.302 Y150.201 E8.1530
G1 X139.302 Y142.726 E8.6005
G1 X139.933 Y142.664 E8.6385
G1 X140.345 Y142.539 E8.6643
G1 X140.728 Y142.334 E8.6902
G1 X141.061 Y142.060 E8.7161
G1 X141.335 Y141.727 E8.7419
G1 X141.540 Y141.344 E8.7679
G1 X141.664 Y140.934 E8.7936
G1 X141.708 Y140.501 E8.8196
G1 X141.664 Y140.068 E8.8457
G1 X141.540 Y139.657 E8.8714
G1 X141.335 Y139.274 E8.8973
G1 X141.061 Y138.941 E8.9232
G1 X140.728 Y138.667 E8.9490
G1 X140.345 Y138.462 E8.9750
G1 X139.933 Y138.338 E9.0008
G1 X139.302 Y138.275 E9.0388
G1 X139.302 Y136.701 E9.1330
G1 X130.528 Y136.221 F6000
G92 E0.0000
G1 X158.476 Y136.221 E1.6732 F1125
G1 X158.685 Y136.236 E1.6857
G1 X158.861 Y136.274 E1.6966
G1 X159.033 Y136.338 E1.7075
G1 X159.193 Y136.426 E1.7184
G1 X159.338 Y136.535 E1.7293
G1 X159.468 Y136.664 E1.7403
G1 X159.577 Y136.810 E1.7512
G1 X159.664 Y136.970 E1.7621
G1 X159.728 Y137.141 E1.7730
G1 X159.767 Y137.318 E1.7839
G1 X159.782 Y137.527 E1.7964
G1 X159.782 Y144.029 E2.1857
G1 X159.807 Y144.349 E2.2049
G1 X159.888 Y144.687 E2.2257
G1 X160.022 Y145.009 E2.2466
G1 X160.204 Y145.307 E2.2675
G1 X160.430 Y145.572 E2.2884
G1 X160.695 Y145.798 E2.3092
G1 X160.993 Y145.981 E2.3301
G1 X161.315 Y146.114 E2.3510
G1 X161.653 Y146.195 E2.3718
G1 X161.973 Y146.221 E2.3911
G1 X167.483 Y146.221 E2.7209
G1 X167.838 Y146.239 E2.7422
G1 X168.166 Y146.290 E2.7621
G1 X168.490 Y146.374 E2.7821
G1 X168.803 Y146.491 E2.8021
G1 X169.103 Y146.639 E2.8222
G1 X169.386 Y146.817 E2.8422
G1 X169.650 Y147.023 E2.8622
G1 X169.891 Y147.255 E2.8822
G1 X170.107 Y147.510 E2.9023
G1 X170.297 Y147.786 E2.9223
G1 X170.457 Y148.080 E2.9423
G1 X170.586 Y148.388 E2.9623
G1 X170.683 Y148.708 E2.9824
G1 X170.748 Y149.037 E3.0024
G1 X170.778 Y149.370 E3.0224
G1 X170.774 Y149.704 E3.0424
G1 X170.737 Y150.036 E3.0625
G1 X170.665 Y150.363 E3.0825
G1 X170.561 Y150.681 E3.1025
G1 X170.425 Y150.987 E3.1225
G1 X170.258 Y151.277 E3.1426
G1 X170.063 Y151.548 E3.1626
G1 X169.842 Y151.797 E3.1825
G1 X169.581 Y152.038 E3.2038
G1 X160.617 Y159.470 E3.9009
G1 X160.452 Y159.588 E3.9131
G1 X160.297 Y159.670 E3.9236
G1 X160.129 Y159.730 E3.9342
G1 X159.958 Y159.766 E3.9447
G1 X159.755 Y159.781 E3.9569
G1 X154.688 Y159.781 E4.2602
G1 X154.028 Y159.802 E4.2998
G1 X153.364 Y159.864 E4.3397
G1 X152.708 Y159.967 E4.3795
G1 X152.057 Y160.111 E4.4194
G1 X151.413 Y160.297 E4.4594
G1 X150.785 Y160.521 E4.4994
G1 X150.172 Y160.784 E4.5393
G1 X149.575 Y161.085 E4.5794
G1 X148.999 Y161.422 E4.6193
G1 X148.447 Y161.793 E4.6591
G1 X147.920 Y162.197 E4.6989
G1 X147.110 Y162.893 E4.7628
G1 X146.795 Y163.113 E4.7858
G1 X146.460 Y163.305 E4.8089
G1 X146.106 Y163.468 E4.8323
G1 X145.741 Y163.597 E4.8555
G1 X145.363 Y163.692 E4.8788
G1 X144.980 Y163.753 E4.9020
G1 X144.593 Y163.779 E4.9252
G1 X144.203 Y163.769 E4.9486
G1 X143.819 Y163.725 E4.9717
G1 X143.437 Y163.645 E4.9951
G1 X143.067 Y163.532 E5.0182
G1 X142.710 Y163.386 E5.0414
G1 X142.347 Y163.199 E5.0658
G1 X137.882 Y160.621 E5.3744
G1 X137.722 Y160.514 E5.3860
G1 X137.598 Y160.405 E5.3959
G1 X137.488 Y160.279 E5.4059
G1 X137.395 Y160.140 E5.4159
G1 X137.321 Y159.990 E5.4259
G1 X137.267 Y159.831 E5.4360
G1 X137.235 Y159.669 E5.4458
G1 X137.222 Y159.477 E5.4574
G1 X137.222 Y155.493 E5.6959
G1 X137.200 Y155.099 E5.7195
G1 X137.131 Y154.693 E5.7441
G1 X137.018 Y154.296 E5.7689
G1 X136.862 Y153.914 E5.7936
G1 X136.663 Y153.551 E5.8184
G1 X136.427 Y153.213 E5.8430
G1 X136.153 Y152.903 E5.8678
G1 X135.848 Y152.625 E5.8925
G1 X135.513 Y152.383 E5.9173
G1 X135.156 Y152.180 E5.9419
G1 X134.793 Y152.024 E5.9655
G1 X130.087 Y150.311 E6.2653
G1 X129.905 Y150.231 E6.2772
G1 X129.758 Y150.140 E6.2876
G1 X129.624 Y150.030 E6.2979
G1 X129.507 Y149.903 E6.3083
G1 X129.407 Y149.761 E6.3187
G1 X129.328 Y149.606 E6.3291
G1 X129.270 Y149.443 E6.3395
G1 X129.235 Y149.274 E6.3498
G1 X129.222 Y149.076 E6.3617
G1 X129.222 Y137.527 E7.0531
G1 X129.237 Y137.318 E7.0657
G1 X129.275 Y137.141 E7.0765
G1 X129.339 Y136.970 E7.0874
G1 X129.427 Y136.810 E7.0984
G1 X129.536 Y136.664 E7.1093
G1 X129.665 Y136.535 E7.1202
G1 X129.811 Y136.426 E7.1311
G1 X129.971 Y136.338 E7.1420
G1 X130.142 Y136.274 E7.1530
G1 X130.319 Y136.236 E7.1638
G1 X130.528 Y136.221 E7.1763
; feature outer perimeter
G1 X130.510 Y135.741 F6000
G92 E0.0000
G1 X158.493 Y135.741 E1.6753 F750
G1 X158.753 Y135.759 E1.6909
G1 X158.997 Y135.813 E1.7058
G1 X159.233 Y135.900 E1.7209
G1 X159.453 Y136.021 E1.7359
G1 X159.654 Y136.171 E1.7509
G1 X159.832 Y136.349 E1.7660
G1 X159.982 Y136.549 E1.7810
G1 X160.102 Y136.770 E1.7960
G1 X160.190 Y137.005 E1.8111
G1 X160.243 Y137.249 E1.8260
G1 X160.262 Y137.509 E1.8416
G1 X160.262 Y144.010 E2.2308
G1 X160.283 Y144.274 E2.2467
G1 X160.346 Y144.538 E2.2629
G1 X160.451 Y144.791 E2.2793
G1 X160.594 Y145.024 E2.2957
G1 X160.771 Y145.231 E2.3120
G1 X160.978 Y145.409 E2.3283
G1 X161.212 Y145.552 E2.3447
G1 X161.464 Y145.656 E2.3611
G1 X161.728 Y145.720 E2.3774
G1 X161.992 Y145.741 E2.3932
G1 X167.495 Y145.741 E2.7227
G1 X167.887 Y145.761 E2.7461
G1 X168.264 Y145.819 E2.7690
G1 X168.635 Y145.916 E2.7919
G1 X168.994 Y146.050 E2.8149
G1 X169.338 Y146.220 E2.8378
G1 X169.663 Y146.424 E2.8608
G1 X169.965 Y146.660 E2.8838
G1 X170.241 Y146.926 E2.9067
G1 X170.489 Y147.219 E2.9297
G1 X170.706 Y147.535 E2.9527
G1 X170.890 Y147.872 E2.9756
G1 X171.038 Y148.225 E2.9986
G1 X171.150 Y148.592 E3.0215
G1 X171.224 Y148.968 E3.0445
G1 X171.258 Y149.350 E3.0675
G1 X171.254 Y149.734 E3.0904
G1 X171.211 Y150.115 E3.1134
G1 X171.129 Y150.490 E3.1363
