; G-Code generated by Simplify3D(R) Version 4.1.2
; Mar 10, 2022 at 7:20:43 PM
; Settings Summary
;   processName,Process1
;   applyToModels,FRODV6_A
;   profileName,Z9M4 (modified)
;   profileVersion,2021-11-11 15:34:39
;   baseProfile,Default
;   printMaterial,PLA
;   printQuality,Medium
;   printExtruders,All Extruders
;   extruderName,Extruder 1,Extruder 2,Extruder 3,Extruder 4
;   extruderToolheadNumber,0,1,2,3
;   extruderDiameter,0.4,0.4,0.4,0.4
;   extruderAutoWidth,0,0,0,0
;   extruderWidth,0.48,0.4,0.4,0.4
;   extrusionMultiplier,1,1.2,1,1
;   extruderUseRetract,1,1,1,1
;   extruderRetractionDistance,10,12,12,12
;   extruderExtraRestartDistance,0.15,0.15,0.15,0.15
;   extruderRetractionZLift,0,0,0,0
;   extruderRetractionSpeed,1800,2100,2100,2100
;   extruderUseCoasting,0,0,0,0
;   extruderCoastingDistance,0.2,0.2,0.2,0.2
;   extruderUseWipe,1,1,1,1
;   extruderWipeDistance,3,3,3,3
;   primaryExtruder,0
;   layerHeight,0.2
;   topSolidLayers,3
;   bottomSolidLayers,3
;   perimeterOutlines,3
;   printPerimetersInsideOut,1
;   startPointOption,2
;   startPointOriginX,150
;   startPointOriginY,150
;   sequentialIslands,0
;   spiralVaseMode,0
;   firstLayerHeightPercentage,150
;   firstLayerWidthPercentage,100
;   firstLayerUnderspeed,0.5
;   useRaft,0
;   raftExtruder,0
;   raftTopLayers,2
;   raftBaseLayers,2
;   raftOffset,3
;   raftSeparationDistance,0.14
;   raftTopInfill,100
;   aboveRaftSpeedMultiplier,0.3
;   useSkirt,0
;   skirtExtruder,0
;   skirtLayers,1
;   skirtOutlines,2
;   skirtOffset,4
;   usePrimePillar,0
;   primePillarExtruder,999
;   primePillarWidth,12
;   primePillarLocation,7
;   primePillarSpeedMultiplier,1
;   useOozeShield,0
;   oozeShieldExtruder,999
;   oozeShieldOffset,2
;   oozeShieldOutlines,1
;   oozeShieldSidewallShape,1
;   oozeShieldSidewallAngle,30
;   oozeShieldSpeedMultiplier,1
;   infillExtruder,0
;   internalInfillPattern,Rectilinear
;   externalInfillPattern,Rectilinear
;   infillPercentage,40
;   outlineOverlapPercentage,15
;   infillExtrusionWidthPercentage,100
;   minInfillLength,5
;   infillLayerInterval,1
;   internalInfillAngles,45,-45
;   overlapInternalInfillAngles,0
;   externalInfillAngles,45,-45
;   generateSupport,0
;   supportExtruder,0
;   supportInfillPercentage,30
;   supportExtraInflation,0
;   supportBaseLayers,0
;   denseSupportExtruder,0
;   denseSupportLayers,0
;   denseSupportInfillPercentage,70
;   supportLayerInterval,1
;   supportHorizontalPartOffset,0.3
;   supportUpperSeparationLayers,1
;   supportLowerSeparationLayers,1
;   supportType,0
;   supportGridSpacing,4
;   maxOverhangAngle,45
;   supportAngles,0
;   temperatureName,Nozzle,Bed
;   temperatureNumber,0,0
;   temperatureSetpointCount,1,1
;   temperatureSetpointLayers,1,1
;   temperatureSetpointTemperatures,200,60
;   temperatureStabilizeAtStartup,1,1
;   temperatureHeatedBed,0,1
;   fanLayers,1,2
;   fanSpeeds,0,100
;   blipFanToFullPower,0
;   adjustSpeedForCooling,1
;   minSpeedLayerTime,15
;   minCoolingSpeedSlowdown,20
;   increaseFanForCooling,0
;   minFanLayerTime,45
;   maxCoolingFanSpeed,100
;   increaseFanForBridging,1
;   bridgingFanSpeed,100
;   use5D,1
;   relativeEdistances,0
;   allowEaxisZeroing,1
;   independentExtruderAxes,0
;   includeM10123,0
;   stickySupport,1
;   applyToolheadOffsets,0
;   gcodeXoffset,0
;   gcodeYoffset,0
;   gcodeZoffset,0
;   overrideMachineDefinition,1
;   machineTypeOverride,0
;   strokeXoverride,300
;   strokeYoverride,300
;   strokeZoverride,385
;   originOffsetXoverride,0
;   originOffsetYoverride,0
;   originOffsetZoverride,0
;   homeXdirOverride,-1
;   homeYdirOverride,-1
;   homeZdirOverride,-1
;   flipXoverride,1
;   flipYoverride,-1
;   flipZoverride,1
;   toolheadOffsets,0,0|0,0|0,0|0,0|0,0|0,0
;   overrideFirmwareConfiguration,0
;   firmwareTypeOverride,RepRap (Marlin/Repetier/Sprinter)
;   GPXconfigOverride,r2
;   baudRateOverride,115200
;   overridePrinterModels,0
;   printerModelsOverride
;   startingGcode,G28 ; home all axes,M209 S1	;enable FW retraction,G1 Z5 F3000 ; lift,G1 X5 Y10 F1500 ; move to prime,G1 Z0.2 F3000 ; get ready to prime,G92 E0 ; reset extrusion distance,G1 Y200 E15 F600 ; prime nozzle,G1 Y100 F5000 ; quick wipe,G92 E0 ; reset extrusion distance
;   layerChangeGcode,
;   retractionGcode,
;   toolChangeGcode,
;   endingGcode,G28 XY,M106 S0 ; turn off FAN,M104 S0 ; turn off extruder,M140 S0 ; turn off bed,M84 ; disable motors
;   exportFileFormat,gcode
;   celebration,0
;   celebrationSong,Star Wars
;   postProcessing,
;   defaultSpeed,3000
;   outlineUnderspeed,0.5
;   solidInfillUnderspeed,0.8
;   supportUnderspeed,0.8
;   rapidXYspeed,6000
;   rapidZspeed,480
;   minBridgingArea,50
;   bridgingExtraInflation,0
;   bridgingExtrusionMultiplier,1
;   bridgingSpeedMultiplier,1
;   useFixedBridgingAngle,0
;   fixedBridgingAngle,0
;   applyBridgingToPerimeters,0
;   filamentDiameters,1.75|1.75|1.75|1.75|1.75|1.75
;   filamentPricesPerKg,46|46|46|46|46|46
;   filamentDensities,1.25|1.25|1.25|1.25|1.25|1.25
;   useMinPrintHeight,0
;   minPrintHeight,25
;   useMaxPrintHeight,0
;   maxPrintHeight,50
;   useDiaphragm,0
;   diaphragmLayerInterval,20
;   robustSlicing,1
;   mergeAllIntoSolid,0
;   onlyRetractWhenCrossingOutline,1
;   retractBetweenLayers,0
;   useRetractionMinTravel,1
;   retractionMinTravel,0.5
;   retractWhileWiping,0
;   onlyWipeOutlines,1
;   avoidCrossingOutline,1
;   maxMovementDetourFactor,8
;   toolChangeRetractionDistance,0
;   toolChangeExtraRestartDistance,-0.5
;   toolChangeRetractionSpeed,600
;   externalThinWallType,0
;   internalThinWallType,2
;   thinWallAllowedOverlapPercentage,10
;   singleExtrusionMinLength,1
;   singleExtrusionMinPrintingWidthPercentage,50
;   singleExtrusionMaxPrintingWidthPercentage,200
;   singleExtrusionEndpointExtension,0.2
;   horizontalSizeCompensation,0
G90
M82
M106 S0
M140 S60
M190 S60
M104 S200 T0
M109 S200 T0
G28 ; home all axes
M209 S1	;enable FW retraction
G1 Z5 F3000 ; lift
G1 X5 Y10 F1500 ; move to prime
G1 Z0.2 F3000 ; get ready to prime
G92 E0 ; reset extrusion distance
G1 Y200 E15 F600 ; prime nozzle
G1 Y100 F5000 ; quick wipe
G92 E0 ; reset extrusion distance
; process Process1
; layer 1, Z = 0.300
T0
G92 E0.0000
G1 E-10.0000 F1800
; feature inner perimeter
; tool H0.300 W0.480
G1 Z0.300 F480
G1 X135.436 Y136.937 F6000
G1 E0.1500 F1800
G92 E0.0000
G1 X135.514 Y136.868 E0.0062 F1125
G1 X135.602 Y136.810 E0.0125
G1 X135.695 Y136.764 E0.0187
G1 X135.794 Y136.730 E0.0250
G1 X135.895 Y136.710 E0.0312
G1 X136.040 Y136.701 E0.0398
G1 X143.591 Y136.701 E0.4920
G1 X143.670 Y137.033 E0.5124
G1 X143.149 Y137.295 E0.5473
G1 X142.789 Y137.531 E0.5731
G1 X142.460 Y137.808 E0.5988
G1 X142.164 Y138.122 E0.6246
G1 X141.907 Y138.466 E0.6504
G1 X141.692 Y138.840 E0.6762
G1 X141.521 Y139.234 E0.7019
G1 X141.398 Y139.647 E0.7277
G1 X141.323 Y140.069 E0.7534
G1 X141.298 Y140.501 E0.7793
G1 X141.323 Y140.932 E0.8051
G1 X141.398 Y141.354 E0.8308
G1 X141.521 Y141.767 E0.8566
G1 X141.692 Y142.162 E0.8823
G1 X141.907 Y142.536 E0.9082
G1 X142.164 Y142.880 E0.9339
G1 X142.460 Y143.194 E0.9597
G1 X142.789 Y143.470 E0.9855
G1 X143.149 Y143.707 E1.0112
G1 X143.534 Y143.900 E1.0370
G1 X143.938 Y144.047 E1.0628
G1 X144.357 Y144.147 E1.0886
G1 X144.784 Y144.197 E1.1143
G1 X145.216 Y144.197 E1.1401
G1 X145.643 Y144.147 E1.1659
G1 X146.062 Y144.047 E1.1917
G1 X146.466 Y143.900 E1.2174
G1 X146.851 Y143.707 E1.2432
G1 X147.211 Y143.470 E1.2690
G1 X147.540 Y143.194 E1.2947
G1 X147.850 Y142.866 E1.3217
G1 X148.050 Y143.041 E1.3377
G1 X148.399 Y143.274 E1.3628
G1 X148.774 Y143.459 E1.3878
G1 X149.172 Y143.594 E1.4130
G1 X149.582 Y143.676 E1.4380
G1 X150.000 Y143.703 E1.4631
G1 X150.418 Y143.676 E1.4882
G1 X150.828 Y143.594 E1.5132
G1 X151.226 Y143.459 E1.5384
G1 X151.601 Y143.274 E1.5634
G1 X151.950 Y143.041 E1.5885
G1 X152.150 Y142.866 E1.6045
G1 X152.460 Y143.194 E1.6315
G1 X152.789 Y143.470 E1.6572
G1 X153.149 Y143.707 E1.6830
G1 X153.534 Y143.900 E1.7088
G1 X153.938 Y144.047 E1.7345
G1 X154.357 Y144.147 E1.7604
G1 X154.784 Y144.197 E1.7861
G1 X155.216 Y144.197 E1.8119
G1 X155.643 Y144.147 E1.8376
G1 X156.062 Y144.047 E1.8634
G1 X156.466 Y143.900 E1.8892
G1 X156.851 Y143.707 E1.9150
G1 X157.211 Y143.470 E1.9408
G1 X157.540 Y143.194 E1.9665
G1 X157.836 Y142.880 E1.9923
G1 X158.093 Y142.535 E2.0180
G1 X158.308 Y142.162 E2.0439
G1 X158.479 Y141.767 E2.0696
G1 X158.599 Y141.367 E2.0946
G1 X158.677 Y140.935 E2.1209
G1 X158.702 Y140.501 E2.1469
G1 X158.677 Y140.069 E2.1728
G1 X158.602 Y139.647 E2.1985
G1 X158.479 Y139.234 E2.2243
G1 X158.308 Y138.840 E2.2500
G1 X158.093 Y138.466 E2.2758
G1 X157.836 Y138.122 E2.3016
G1 X157.540 Y137.808 E2.3274
G1 X157.211 Y137.532 E2.3531
G1 X156.851 Y137.295 E2.3789
G1 X156.330 Y137.033 E2.4138
G1 X156.409 Y136.701 E2.4343
G1 X163.960 Y136.701 E2.8864
G1 X164.105 Y136.710 E2.8950
G1 X164.206 Y136.730 E2.9012
G1 X164.305 Y136.764 E2.9075
G1 X164.399 Y136.810 E2.9137
G1 X164.485 Y136.868 E2.9200
G1 X164.564 Y136.937 E2.9262
G1 X164.632 Y137.015 E2.9324
G1 X164.691 Y137.102 E2.9387
G1 X164.737 Y137.195 E2.9449
G1 X164.770 Y137.295 E2.9512
G1 X164.790 Y137.396 E2.9574
G1 X164.800 Y137.540 E2.9660
G1 X164.800 Y149.063 E3.6559
G1 X164.792 Y149.198 E3.6640
G1 X164.774 Y149.293 E3.6698
G1 X164.745 Y149.386 E3.6756
G1 X164.704 Y149.475 E3.6814
G1 X164.653 Y149.558 E3.6873
G1 X164.593 Y149.634 E3.6931
G1 X164.523 Y149.702 E3.6989
G1 X164.446 Y149.762 E3.7048
G1 X164.363 Y149.811 E3.7106
G1 X164.239 Y149.865 E3.7187
G1 X159.535 Y151.577 E4.0184
G1 X159.168 Y151.733 E4.0422
G1 X158.794 Y151.937 E4.0677
G1 X158.442 Y152.180 E4.0933
G1 X158.117 Y152.457 E4.1189
G1 X157.821 Y152.766 E4.1445
G1 X157.558 Y153.103 E4.1701
G1 X157.331 Y153.466 E4.1958
G1 X157.142 Y153.850 E4.2214
G1 X156.994 Y154.245 E4.2466
G1 X156.883 Y154.673 E4.2731
G1 X156.820 Y155.090 E4.2983
G1 X156.800 Y155.483 E4.3219
G1 X156.800 Y159.461 E4.5600
G1 X156.790 Y159.606 E4.5688
G1 X156.770 Y159.707 E4.5749
G1 X156.737 Y159.806 E4.5812
G1 X156.691 Y159.900 E4.5874
G1 X156.633 Y159.986 E4.5937
G1 X156.564 Y160.065 E4.5999
G1 X156.487 Y160.132 E4.6060
G1 X156.365 Y160.214 E4.6148
G1 X153.656 Y161.778 E4.8021
G1 X153.702 Y161.001 E4.8486
G1 X153.677 Y160.569 E4.8745
G1 X153.602 Y160.147 E4.9002
G1 X153.479 Y159.734 E4.9260
G1 X153.308 Y159.340 E4.9517
G1 X153.093 Y158.966 E4.9775
G1 X152.783 Y158.551 E5.0085
G1 X154.050 Y158.551 E5.0844
G1 X154.050 Y154.451 E5.3298
G1 X142.050 Y154.451 E6.0482
G1 X142.050 Y151.466 E6.2270
G1 X137.015 Y156.501 E6.6532
G1 X139.815 Y159.301 E6.8903
G1 X136.040 Y159.301 E7.1163
G1 X135.895 Y159.291 E7.1250
G1 X135.794 Y159.271 E7.1312
G1 X135.695 Y159.237 E7.1375
G1 X135.602 Y159.191 E7.1437
G1 X135.514 Y159.133 E7.1500
G1 X135.436 Y159.065 E7.1562
G1 X135.367 Y158.986 E7.1624
G1 X135.309 Y158.899 E7.1687
G1 X135.263 Y158.806 E7.1749
G1 X135.230 Y158.707 E7.1812
G1 X135.210 Y158.606 E7.1874
G1 X135.200 Y158.461 E7.1960
G1 X135.200 Y137.540 E8.4485
G1 X135.210 Y137.396 E8.4572
G1 X135.230 Y137.295 E8.4633
G1 X135.263 Y137.195 E8.4696
G1 X135.309 Y137.102 E8.4758
G1 X135.368 Y137.015 E8.4821
G1 X135.436 Y136.937 E8.4884
G1 X146.330 Y137.033 F6000
G92 E0.0000
G1 X146.409 Y136.701 E0.0205 F1125
G1 X153.591 Y136.701 E0.4505
G1 X153.670 Y137.033 E0.4709
G1 X153.149 Y137.295 E0.5058
G1 X152.789 Y137.531 E0.5316
G1 X152.460 Y137.808 E0.5574
G1 X152.150 Y138.136 E0.5844
G1 X151.950 Y137.960 E0.6003
G1 X151.601 Y137.727 E0.6255
G1 X151.226 Y137.542 E0.6505
G1 X150.828 Y137.407 E0.6756
G1 X150.418 Y137.326 E0.7007
G1 X150.006 Y137.299 E0.7254
G1 X149.589 Y137.325 E0.7504
G1 X149.173 Y137.407 E0.7758
G1 X148.774 Y137.542 E0.8010
G1 X148.399 Y137.727 E0.8260
G1 X148.050 Y137.960 E0.8512
G1 X147.850 Y138.136 E0.8671
G1 X147.540 Y137.808 E0.8941
G1 X147.211 Y137.532 E0.9199
G1 X146.851 Y137.295 E0.9457
G1 X146.330 Y137.033 E0.9806
G1 X146.375 Y138.131 F6000
G1 X146.636 Y138.303
G1 X146.880 Y138.507
G1 X147.100 Y138.740
G1 X147.295 Y139.004
G1 X147.449 Y139.271
G1 X147.575 Y139.563
G1 X147.667 Y139.869
G1 X147.722 Y140.181
G1 X147.740 Y140.501
G1 X147.722 Y140.820
G1 X147.667 Y141.133
G1 X147.575 Y141.438
G1 X147.449 Y141.730
G1 X147.289 Y142.007
G1 X147.099 Y142.262
G1 X146.880 Y142.494
G1 X146.636 Y142.699
G1 X146.565 Y142.746
G1 X147.087 Y155.411
G1 X153.090 Y155.411
G1 X153.090 Y157.591
G1 X147.177 Y157.591
G1 X147.217 Y158.551
G92 E0.0000
G1 X146.907 Y158.966 E0.0310 F1125
G1 X146.692 Y159.340 E0.0568
G1 X146.521 Y159.734 E0.0826
G1 X146.398 Y160.147 E0.1084
G1 X146.323 Y160.569 E0.1340
G1 X146.283 Y161.253 E0.1750
G1 X145.849 Y160.931 E0.2074
G1 X145.329 Y160.598 E0.2443
G1 X144.787 Y160.299 E0.2814
G1 X144.228 Y160.037 E0.3184
G1 X143.643 Y159.811 E0.3559
G1 X142.772 Y159.555 E0.4103
G1 X142.050 Y159.408 E0.4544
G1 X142.050 Y158.551 E0.5057
G1 X147.217 Y158.551 E0.8150
G1 X147.532 Y158.931 F6000
G92 E0.0000
G1 X147.309 Y159.230 E0.0224 F1125
G1 X147.121 Y159.556 E0.0449
G1 X146.973 Y159.899 E0.0672
G1 X146.866 Y160.258 E0.0897
G1 X146.801 Y160.625 E0.1120
G1 X146.779 Y161.001 E0.1345
G1 X146.801 Y161.376 E0.1571
G1 X146.866 Y161.743 E0.1794
G1 X146.960 Y162.059 E0.1991
G1 X146.675 Y162.232 E0.2191
G1 X146.488 Y162.051 E0.2346
G1 X146.044 Y161.673 E0.2696
G1 X145.576 Y161.326 E0.3044
G1 X145.084 Y161.010 E0.3395
G1 X144.570 Y160.727 E0.3746
G1 X144.040 Y160.479 E0.4096
G1 X143.488 Y160.266 E0.4450
G1 X142.656 Y160.021 E0.4970
G1 X142.073 Y159.902 E0.5326
G1 X141.570 Y159.843 E0.5629
G1 X141.570 Y158.071 E0.6690
G1 X148.489 Y158.071 E1.0832
G1 X147.790 Y158.658 E1.1379
G1 X147.532 Y158.931 E1.1604
G1 X148.481 Y158.726 F6000
G1 X148.630 Y158.628
G1 X148.915 Y158.485
G1 X149.214 Y158.376
G1 X149.524 Y158.302
G1 X149.840 Y158.265
G1 X150.160 Y158.265
G1 X150.453 Y158.299
G1 X151.511 Y158.071
G92 E0.0000
G1 X153.570 Y158.071 E0.1233 F1125
G1 X153.570 Y154.931 E0.3113
G1 X141.570 Y154.931 E1.0297
G1 X141.570 Y152.625 E1.1678
G1 X137.694 Y156.501 E1.4959
G1 X140.974 Y159.781 E1.7736
G1 X136.024 Y159.781 E2.0700
G1 X135.832 Y159.768 E2.0815
G1 X135.669 Y159.736 E2.0914
G1 X135.511 Y159.682 E2.1015
G1 X135.361 Y159.608 E2.1115
G1 X135.222 Y159.515 E2.1215
G1 X135.096 Y159.405 E2.1315
G1 X134.986 Y159.279 E2.1415
G1 X134.893 Y159.140 E2.1515
G1 X134.819 Y158.990 E2.1615
G1 X134.765 Y158.831 E2.1716
G1 X134.733 Y158.669 E2.1815
G1 X134.720 Y158.477 E2.1930
G1 X134.720 Y137.525 E3.4474
G1 X134.733 Y137.333 E3.4589
G1 X134.765 Y137.170 E3.4688
G1 X134.819 Y137.011 E3.4789
G1 X134.893 Y136.862 E3.4888
G1 X134.986 Y136.722 E3.4989
G1 X135.096 Y136.597 E3.5089
G1 X135.222 Y136.487 E3.5189
G1 X135.361 Y136.394 E3.5289
G1 X135.510 Y136.320 E3.5389
G1 X135.670 Y136.266 E3.5489
G1 X135.832 Y136.234 E3.5589
G1 X136.024 Y136.221 E3.5704
G1 X163.976 Y136.221 E5.2438
G1 X164.168 Y136.234 E5.2553
G1 X164.330 Y136.266 E5.2652
G1 X164.489 Y136.320 E5.2753
G1 X164.639 Y136.394 E5.2853
G1 X164.778 Y136.487 E5.2953
G1 X164.904 Y136.597 E5.3053
G1 X165.014 Y136.722 E5.3153
G1 X165.107 Y136.862 E5.3254
G1 X165.181 Y137.011 E5.3353
G1 X165.235 Y137.170 E5.3454
G1 X165.267 Y137.333 E5.3553
G1 X165.280 Y137.525 E5.3668
G1 X165.280 Y149.078 E6.0585
G1 X165.269 Y149.257 E6.0692
G1 X165.241 Y149.410 E6.0785
G1 X165.194 Y149.559 E6.0879
G1 X165.129 Y149.701 E6.0972
G1 X165.047 Y149.834 E6.1066
G1 X164.950 Y149.956 E6.1159
G1 X164.839 Y150.065 E6.1253
G1 X164.715 Y150.161 E6.1346
G1 X164.581 Y150.239 E6.1439
G1 X164.417 Y150.311 E6.1546
G1 X159.710 Y152.024 E6.4545
G1 X159.377 Y152.165 E6.4762
G1 X159.047 Y152.346 E6.4987
G1 X158.735 Y152.561 E6.5214
G1 X158.447 Y152.807 E6.5441
G1 X158.185 Y153.080 E6.5667
G1 X157.952 Y153.379 E6.5894
G1 X157.751 Y153.700 E6.6121
G1 X157.583 Y154.040 E6.6348
G1 X157.453 Y154.390 E6.6571
G1 X157.354 Y154.770 E6.6806
G1 X157.298 Y155.138 E6.7029
G1 X157.280 Y155.495 E6.7243
G1 X157.280 Y159.477 E6.9627
G1 X157.267 Y159.669 E6.9743
G1 X157.235 Y159.832 E6.9842
G1 X157.181 Y159.990 E6.9942
G1 X157.107 Y160.140 E7.0042
G1 X157.014 Y160.279 E7.0142
G1 X156.904 Y160.405 E7.0242
G1 X156.780 Y160.514 E7.0341
G1 X156.619 Y160.621 E7.0457
G1 X153.116 Y162.644 E7.2879
