;FLAVOR:Marlin
;pattern type is Square
;colors = 3
;line width = 0.40 mm
;start_x = 135 mm
;start_y = 170 mm
;tower length = 30mm
;flow length = 50 mm/min
;print speed = 3000 mm/min
;speed on first layer = 1800 mm/min
;retraction length = 10.00 mm
;retraction speed = 1500 mm/min
;recover length = 0.02 mm
;recover speed = 1200 mm/min
;flowfactor = 22.97
;Retract the previous extruder only
;POSTPROCESSED
;TIME:1140
;Filament used: 0.572727m, 0.269376m, 0.119056m
;Layer height: 0.2
;Layer height=0.20
;MINX:138.533
;MINY:142.2
;MINZ:0.3
;MAXX:158.133
;MAXY:161.8
;MAXZ:14.9
;Generated with Cura_SteamEngine 4.7.0
T0
M140 S60
M105
M190 S60
M104 S195
;removed by script M104 T1 S195
;removed by script M104 T2 S195
M105
M109 S195
M105
;removed by script M109 T1 S195
M105
;removed by script M109 T2 S195
M82 ;absolute extrusion mode
G28
G1 Z15 F300
M107
;Prime the extruder
G92 E0
G1 F200 E3
G92 E0
T3
G1 X5 Y10 F1500 ; move to prime
G1 Z0.2 F3000 ; get ready to prime
G92 E0 ; reset extrusion distance
G1 Y250 E15 F600 ; prime nozzle
G1 Y100 F5000 ; quick wipe
T0

G92 E0
;Extruder 1 start code

G92 E0
G1 F1500 E-10
;LAYER_COUNT:74
;LAYER:0
M107
;MESH:3c_test_1.stl
G0 F3600 X148.811 Y142.612 Z0.3
;TYPE:WALL-INNER
G1 F1500 E0
G1 F1800 X149.278 Y142.647 E0.02336
G1 X149.743 Y142.706 E0.04675
G1 X150.211 Y142.789 E0.07046
G1 X150.684 Y142.898 E0.09468
G1 X151.141 Y143.028 E0.11838
G1 X151.567 Y143.174 E0.14085
G1 X152.036 Y143.361 E0.16604
G1 X152.454 Y143.552 E0.18897
G1 X152.873 Y143.77 E0.21253
G1 X153.298 Y144.018 E0.23708
G1 X153.675 Y144.265 E0.25957
G1 X154.059 Y144.545 E0.28328
G1 X154.43 Y144.846 E0.30711
G1 X154.795 Y145.174 E0.33159
G1 X155.11 Y145.488 E0.35378
G1 X155.435 Y145.843 E0.3778
G1 X155.737 Y146.211 E0.40155
G1 X156.026 Y146.599 E0.42568
G1 X156.288 Y146.993 E0.44929
G1 X156.52 Y147.384 E0.47197
G1 X156.756 Y147.83 E0.49715
G1 X156.948 Y148.24 E0.51973
G1 X157.122 Y148.671 E0.54292
G1 X157.285 Y149.138 E0.5676
G1 X157.415 Y149.583 E0.59073
G1 X157.528 Y150.053 E0.61484
G1 X157.612 Y150.509 E0.63798
G1 X157.674 Y150.968 E0.66108
G1 X157.715 Y151.459 E0.68567
G1 X157.733 Y152.008 E0.71307
G1 X157.721 Y152.481 E0.73668
G1 X157.687 Y152.944 E0.75984
G1 X157.629 Y153.404 E0.78297
G1 X157.546 Y153.871 E0.80663
G1 X157.431 Y154.362 E0.83179
G1 X157.31 Y154.792 E0.85408
G1 X157.153 Y155.251 E0.87828
G1 X156.982 Y155.684 E0.90151
G1 X156.772 Y156.142 E0.92664
G1 X156.567 Y156.538 E0.94889
G1 X156.327 Y156.947 E0.97255
G1 X156.054 Y157.36 E0.99725
G1 X155.779 Y157.738 E1.02057
G1 X155.478 Y158.109 E1.0444
G1 X155.168 Y158.452 E1.06747
G1 X154.812 Y158.811 E1.09269
G1 X154.482 Y159.11 E1.11491
G1 X154.106 Y159.419 E1.13919
G1 X153.721 Y159.702 E1.16303
G1 X153.33 Y159.961 E1.18643
G1 X152.915 Y160.207 E1.2105
G1 X152.503 Y160.423 E1.2337
G1 X152.073 Y160.622 E1.25734
G1 X151.616 Y160.806 E1.28192
G1 X151.174 Y160.96 E1.30527
G1 X150.72 Y161.091 E1.32885
G1 X150.262 Y161.198 E1.35231
G1 X149.78 Y161.286 E1.37676
G1 X149.313 Y161.347 E1.40025
G1 X148.846 Y161.384 E1.42363
G1 X148.365 Y161.399 E1.44763
G1 X147.889 Y161.389 E1.47139
G1 X147.375 Y161.351 E1.4971
G1 X146.875 Y161.286 E1.52226
G1 X146.416 Y161.201 E1.54554
G1 X145.935 Y161.089 E1.57018
G1 X145.488 Y160.959 E1.59341
G1 X145.048 Y160.806 E1.61665
G1 X144.55 Y160.604 E1.64346
G1 X143.999 Y160.341 E1.67392
G1 X143.397 Y160 E1.70844
G1 X142.999 Y159.74 E1.73216
G1 X142.62 Y159.464 E1.75555
G1 X142.255 Y159.169 E1.77896
G1 X141.894 Y158.846 E1.80313
G1 X141.567 Y158.522 E1.82609
G1 X141.235 Y158.16 E1.8506
G1 X140.937 Y157.799 E1.87395
G1 X140.656 Y157.421 E1.89745
G1 X140.387 Y157.017 E1.92167
G1 X140.137 Y156.599 E1.94597
G1 X139.923 Y156.196 E1.96873
G1 X139.72 Y155.759 E1.99277
G1 X139.545 Y155.331 E2.01584
G1 X139.387 Y154.874 E2.03996
G1 X139.249 Y154.405 E2.06435
G1 X139.141 Y153.952 E2.08759
G1 X139.052 Y153.474 E2.11185
G1 X138.992 Y153.026 E2.1344
G1 X138.952 Y152.542 E2.15863
G1 X138.936 Y152.065 E2.18244
G1 X138.945 Y151.518 E2.20973
G1 X138.978 Y151.069 E2.23219
G1 X139.041 Y150.58 E2.25679
G1 X139.12 Y150.132 E2.27948
G1 X139.234 Y149.641 E2.30463
G1 X139.355 Y149.214 E2.32677
G1 X139.511 Y148.757 E2.35087
G1 X139.69 Y148.306 E2.37507
G1 X139.882 Y147.884 E2.3982
G1 X140.106 Y147.455 E2.42235
G1 X140.345 Y147.046 E2.44598
G1 X140.61 Y146.641 E2.47013
G1 X140.872 Y146.283 E2.49226
G1 X141.184 Y145.898 E2.51698
G1 X141.498 Y145.549 E2.54041
G1 X141.835 Y145.21 E2.56425
G1 X142.186 Y144.891 E2.58792
G1 X142.536 Y144.602 E2.61056
G1 X142.933 Y144.307 E2.63524
G1 X143.317 Y144.052 E2.65824
G1 X143.717 Y143.814 E2.68146
G1 X144.163 Y143.578 E2.70663
G1 X144.573 Y143.386 E2.72922
G1 X145.009 Y143.21 E2.75268
G1 X145.472 Y143.049 E2.77713
G1 X145.921 Y142.917 E2.80048
G1 X146.384 Y142.806 E2.82423
G1 X146.853 Y142.72 E2.84802
G1 X147.324 Y142.656 E2.87174
G1 X147.858 Y142.613 E2.89846
G1 X148.333 Y142.6 E2.92217
G1 X148.811 Y142.612 E2.94603
G0 F3600 X148.807 Y142.711
G0 X151.898 Y148.802
G0 X152.908 Y150.91
G0 X152.811 Y150.932
G1 F1800 X152.588 Y150.246 E2.98201
G1 X152.263 Y149.605 E3.01787
G1 X151.842 Y149.022 E3.05375
G1 X151.334 Y148.511 E3.08969
G1 X150.753 Y148.086 E3.12561
G1 X150.115 Y147.758 E3.1614
G1 X149.5 Y147.55 E3.19379
G1 X148.724 Y147.415 E3.23308
G1 X148.002 Y147.41 E3.26911
G1 X147.29 Y147.518 E3.30503
G1 X146.609 Y147.734 E3.34068
G1 X146.048 Y148.006 E3.37178
G1 X145.38 Y148.471 E3.41239
G1 X144.905 Y148.932 E3.44541
G1 X144.436 Y149.556 E3.48436
G1 X144.102 Y150.196 E3.52037
G1 X143.872 Y150.877 E3.55623
G1 X143.753 Y151.581 E3.59185
G1 X143.736 Y152.176 E3.62155
G1 X143.798 Y152.771 E3.6514
G1 X143.954 Y153.417 E3.68455
G1 X144.228 Y154.081 E3.72039
G1 X144.603 Y154.696 E3.75632
G1 X145.07 Y155.243 E3.79221
G1 X145.614 Y155.713 E3.82807
G1 X146.227 Y156.091 E3.864
G1 X146.89 Y156.369 E3.89987
G1 X147.588 Y156.54 E3.93572
G1 X148.305 Y156.601 E3.97162
G1 X149.023 Y156.55 E4.00754
G1 X149.724 Y156.386 E4.04345
G1 X150.392 Y156.116 E4.0794
G1 X151.007 Y155.744 E4.11526
G1 X151.548 Y155.291 E4.15046
G1 X151.785 Y155.04 E4.16768
G1 X152.232 Y154.444 E4.20485
G1 X152.565 Y153.804 E4.24084
G1 X152.795 Y153.123 E4.27671
G1 X152.915 Y152.414 E4.31258
G1 X152.924 Y151.693 E4.34855
G1 X152.811 Y150.932 E4.38694
G0 F3600 X152.42 Y151.024
;TYPE:WALL-OUTER
G1 F1800 X152.217 Y150.399 E4.41972
G1 X151.92 Y149.814 E4.45245
G1 X151.536 Y149.281 E4.48523
G1 X151.073 Y148.815 E4.518
G1 X150.542 Y148.427 E4.55081
G1 X149.959 Y148.127 E4.58352
G1 X149.401 Y147.939 E4.6129
G1 X148.688 Y147.815 E4.649
G1 X148.031 Y147.81 E4.68178
G1 X147.381 Y147.909 E4.71459
G1 X146.757 Y148.107 E4.74725
G1 X146.251 Y148.352 E4.77529
G1 X145.635 Y148.781 E4.81275
G1 X145.206 Y149.197 E4.84256
G1 X144.775 Y149.77 E4.87833
G1 X144.471 Y150.353 E4.91113
G1 X144.261 Y150.975 E4.94389
G1 X144.152 Y151.62 E4.97652
G1 X144.137 Y152.161 E5.00352
G1 X144.193 Y152.703 E5.03071
G1 X144.336 Y153.293 E5.06099
G1 X144.586 Y153.9 E5.09374
G1 X144.928 Y154.461 E5.12652
G1 X145.354 Y154.96 E5.15926
G1 X145.851 Y155.389 E5.19201
G1 X146.41 Y155.734 E5.22478
G1 X147.016 Y155.988 E5.25757
G1 X147.653 Y156.144 E5.29029
G1 X148.308 Y156.2 E5.32308
G1 X148.963 Y156.153 E5.35585
G1 X149.603 Y156.004 E5.38863
G1 X150.212 Y155.757 E5.42142
G1 X150.774 Y155.418 E5.45416
G1 X151.273 Y154.999 E5.48667
G1 X151.479 Y154.782 E5.5016
G1 X151.892 Y154.23 E5.53599
G1 X152.196 Y153.647 E5.56879
G1 X152.406 Y153.025 E5.60155
G1 X152.515 Y152.378 E5.63428
G1 X152.524 Y151.72 E5.66711
G1 X152.42 Y151.024 E5.70222
G0 F3600 X152.359 Y150.834
G0 X152.834 Y150.681
G0 X153.277 Y159.877
G0 X153.542 Y160.3
G1 F1800 X153.111 Y160.556 E5.72723
G1 X152.678 Y160.783 E5.75162
G1 X152.228 Y160.991 E5.77635
G1 X151.759 Y161.18 E5.80158
G1 X151.301 Y161.339 E5.82577
G1 X150.825 Y161.477 E5.85049
G1 X150.334 Y161.592 E5.87565
G1 X149.845 Y161.681 E5.90045
G1 X149.357 Y161.745 E5.925
G1 X148.87 Y161.784 E5.94938
G1 X148.369 Y161.799 E5.97438
G1 X147.871 Y161.789 E5.99923
G1 X147.326 Y161.749 E6.0265
G1 X146.822 Y161.682 E6.05186
G1 X146.325 Y161.591 E6.07707
G1 X145.844 Y161.479 E6.10171
G1 X145.366 Y161.34 E6.12655
G1 X144.898 Y161.178 E6.15125
G1 X144.399 Y160.975 E6.17813
G1 X143.814 Y160.696 E6.21047
G1 X143.192 Y160.343 E6.24615
G1 X142.781 Y160.075 E6.27063
G1 X142.374 Y159.779 E6.29573
G1 X141.989 Y159.468 E6.32042
G1 X141.627 Y159.144 E6.34466
G1 X141.273 Y158.794 E6.3695
G1 X140.934 Y158.423 E6.39457
G1 X140.618 Y158.041 E6.4193
G1 X140.328 Y157.651 E6.44355
G1 X140.054 Y157.239 E6.46824
G1 X139.794 Y156.805 E6.49348
G1 X139.561 Y156.367 E6.51823
G1 X139.357 Y155.928 E6.54238
G1 X139.168 Y155.464 E6.56737
G1 X139.004 Y154.992 E6.5923
G1 X138.865 Y154.518 E6.61695
G1 X138.752 Y154.045 E6.64121
G1 X138.659 Y153.548 E6.66644
G1 X138.593 Y153.059 E6.69105
G1 X138.553 Y152.575 E6.71528
G1 X138.536 Y152.079 E6.74004
G1 X138.545 Y151.499 E6.76898
G1 X138.581 Y151.018 E6.79305
G1 X138.644 Y150.529 E6.81764
G1 X138.73 Y150.042 E6.84232
G1 X138.844 Y149.551 E6.86746
G1 X138.976 Y149.085 E6.89163
G1 X139.135 Y148.618 E6.91624
G1 X139.318 Y148.158 E6.94094
G1 X139.527 Y147.699 E6.9661
G1 X139.751 Y147.27 E6.99025
G1 X140.005 Y146.834 E7.01542
G1 X140.275 Y146.422 E7.04
G1 X140.561 Y146.031 E7.06416
G1 X140.873 Y145.646 E7.08889
G1 X141.209 Y145.272 E7.11397
G1 X141.551 Y144.928 E7.13817
G1 X141.924 Y144.588 E7.16335
G1 X142.297 Y144.281 E7.18745
G1 X142.694 Y143.986 E7.21213
G1 X143.113 Y143.708 E7.23721
G1 X143.53 Y143.46 E7.26142
G1 X143.976 Y143.224 E7.28659
G1 X144.423 Y143.015 E7.31121
G1 X144.872 Y142.834 E7.33536
G1 X145.348 Y142.668 E7.36052
G1 X145.812 Y142.532 E7.38464
G1 X146.297 Y142.416 E7.40952
G1 X146.789 Y142.325 E7.43448
G1 X147.292 Y142.257 E7.4598
G1 X147.834 Y142.213 E7.48693
G1 X148.333 Y142.2 E7.51184
G1 X148.831 Y142.212 E7.53669
G1 X149.318 Y142.249 E7.56105
G1 X149.804 Y142.31 E7.58549
G1 X150.293 Y142.397 E7.61027
G1 X150.782 Y142.51 E7.63531
G1 X151.25 Y142.643 E7.65958
G1 X151.715 Y142.802 E7.6841
G1 X152.184 Y142.989 E7.70929
G1 X152.634 Y143.194 E7.73396
G1 X153.063 Y143.418 E7.75811
G1 X153.499 Y143.672 E7.78328
G1 X153.903 Y143.937 E7.80739
G1 X154.311 Y144.234 E7.83256
G1 X154.687 Y144.539 E7.85672
G1 X155.062 Y144.876 E7.88187
G1 X155.405 Y145.218 E7.90604
G1 X155.738 Y145.582 E7.93065
G1 X156.058 Y145.972 E7.95582
G1 X156.353 Y146.369 E7.98049
G1 X156.621 Y146.771 E8.0046
G1 X156.874 Y147.197 E8.02932
G1 X157.11 Y147.643 E8.05449
G1 X157.319 Y148.09 E8.07911
G1 X157.5 Y148.539 E8.10326
G1 X157.663 Y149.006 E8.12794
G1 X157.804 Y149.489 E8.15304
G1 X157.917 Y149.959 E8.17716
G1 X158.008 Y150.455 E8.20232
G1 X158.073 Y150.935 E8.22648
G1 X158.114 Y151.426 E8.25106
G1 X158.133 Y152.008 E8.28011
G1 X158.121 Y152.501 E8.30472
G1 X158.085 Y152.984 E8.32888
G1 X158.023 Y153.474 E8.35352
G1 X157.936 Y153.962 E8.37825
G1 X157.821 Y154.455 E8.40351
G1 X157.689 Y154.921 E8.42767
G1 X157.529 Y155.39 E8.45239
G1 X157.346 Y155.851 E8.47714
G1 X157.136 Y156.309 E8.50228
G1 X156.912 Y156.741 E8.52655
G1 X156.661 Y157.168 E8.55127
G1 X156.388 Y157.581 E8.57597
G1 X156.09 Y157.99 E8.60121
G1 X155.785 Y158.366 E8.62537
G1 X155.452 Y158.734 E8.65013
G1 X155.096 Y159.093 E8.67535
G1 X154.736 Y159.419 E8.69958
G1 X154.354 Y159.733 E8.72425
G1 X153.948 Y160.032 E8.74941
G1 X153.542 Y160.3 E8.77368
G0 F3600 X153.37 Y160.402
G0 X153.131 Y159.626
;TYPE:SKIN
G1 F1800 X152.724 Y159.868 E8.7973
G1 X152.339 Y160.069 E8.81897
G1 X151.927 Y160.26 E8.84162
G1 X151.474 Y160.442 E8.86598
G1 X151.055 Y160.588 E8.88812
G1 X150.622 Y160.713 E8.9106
G1 X150.192 Y160.814 E8.93264
G1 X149.71 Y160.902 E8.95708
G1 X149.27 Y160.959 E8.97922
G1 X148.834 Y160.994 E9.00104
G1 X148.361 Y161.009 E9.02465
G1 X147.897 Y160.999 E9.0478
G1 X147.42 Y160.965 E9.07166
G1 X146.946 Y160.902 E9.09552
G1 X146.487 Y160.817 E9.11881
G1 X146.026 Y160.71 E9.14242
G1 X145.605 Y160.587 E9.1643
G1 X145.185 Y160.441 E9.18648
G1 X144.702 Y160.245 E9.21249
G1 X144.189 Y160 E9.24085
G1 X143.596 Y159.664 E9.27486
G1 X143.243 Y159.435 E9.29585
G1 X142.856 Y159.152 E9.31977
G1 X142.508 Y158.871 E9.34208
G1 X142.162 Y158.562 E9.36523
G1 X141.842 Y158.245 E9.3877
G1 X141.522 Y157.896 E9.41132
G1 X141.244 Y157.559 E9.43312
G1 X140.975 Y157.197 E9.45562
G1 X140.722 Y156.816 E9.47844
G1 X140.472 Y156.398 E9.50273
G1 X140.261 Y156.001 E9.52516
G1 X140.081 Y155.611 E9.54659
G1 X139.91 Y155.192 E9.56917
G1 X139.755 Y154.747 E9.59268
G1 X139.627 Y154.308 E9.6155
G1 X139.521 Y153.862 E9.63837
G1 X139.436 Y153.402 E9.6617
G1 X139.378 Y152.974 E9.68325
G1 X139.342 Y152.528 E9.70558
G1 X139.326 Y152.071 E9.72839
G1 X139.335 Y151.524 E9.75568
G1 X139.364 Y151.119 E9.77594
G1 X139.425 Y150.648 E9.79963
G1 X139.5 Y150.22 E9.82131
G1 X139.612 Y149.738 E9.846
G1 X139.724 Y149.34 E9.86663
G1 X139.874 Y148.901 E9.88977
G1 X140.045 Y148.468 E9.913
G1 X140.232 Y148.056 E9.93557
G1 X140.443 Y147.652 E9.95831
G1 X140.677 Y147.251 E9.98147
G1 X140.936 Y146.855 E10.00508
G1 X141.175 Y146.529 E10.02525
G1 X141.481 Y146.152 E10.04947
G1 X141.782 Y145.817 E10.07194
G1 X142.098 Y145.499 E10.09431
G1 X142.449 Y145.18 E10.11797
G1 X142.768 Y144.916 E10.13863
G1 X143.157 Y144.627 E10.16281
G1 X143.525 Y144.382 E10.18486
G1 X143.9 Y144.159 E10.20663
G1 X144.338 Y143.927 E10.23136
G1 X144.739 Y143.739 E10.25345
G1 X145.146 Y143.575 E10.27534
G1 X145.592 Y143.42 E10.2989
G1 X146.021 Y143.294 E10.32121
G1 X146.461 Y143.189 E10.34378
G1 X146.923 Y143.104 E10.36721
G1 X147.373 Y143.042 E10.38987
G1 X147.868 Y143.003 E10.41465
G1 X148.333 Y142.99 E10.43785
G1 X148.801 Y143.002 E10.46121
G1 X149.239 Y143.035 E10.48313
G1 X149.675 Y143.09 E10.50505
G1 X150.131 Y143.171 E10.52816
G1 X150.587 Y143.276 E10.5515
G1 X151.02 Y143.399 E10.57396
G1 X151.431 Y143.539 E10.59562
G1 X151.883 Y143.72 E10.61991
G1 X152.292 Y143.907 E10.64235
G1 X152.668 Y144.102 E10.66348
G1 X153.101 Y144.355 E10.6885
G1 X153.445 Y144.581 E10.70903
G1 X153.821 Y144.855 E10.73224
G1 X154.176 Y145.143 E10.75505
G1 X154.527 Y145.458 E10.77858
G1 X154.828 Y145.758 E10.79978
G1 X155.133 Y146.091 E10.82231
G1 X155.453 Y146.48 E10.84744
G1 X155.694 Y146.804 E10.86759
G1 X155.958 Y147.201 E10.89137
G1 X156.175 Y147.567 E10.9126
G1 X156.407 Y148.005 E10.93733
G1 X156.595 Y148.406 E10.95942
G1 X156.754 Y148.8 E10.98062
G1 X156.914 Y149.257 E11.00478
G1 X157.038 Y149.683 E11.02691
G1 X157.144 Y150.123 E11.04949
G1 X157.227 Y150.571 E11.07222
G1 X157.286 Y151.001 E11.09388
G1 X157.325 Y151.472 E11.11746
G1 X157.343 Y151.998 E11.14371
G1 X157.331 Y152.462 E11.16687
G1 X157.3 Y152.905 E11.18903
G1 X157.245 Y153.336 E11.2107
G1 X157.166 Y153.782 E11.2333
G1 X157.055 Y154.257 E11.25764
G1 X156.937 Y154.677 E11.2794
G1 X156.79 Y155.108 E11.30212
G1 X156.627 Y155.522 E11.32432
G1 X156.425 Y155.963 E11.34852
G1 X156.217 Y156.366 E11.37114
G1 X155.996 Y156.741 E11.39286
G1 X155.738 Y157.13 E11.41615
G1 X155.463 Y157.508 E11.43947
G1 X155.184 Y157.853 E11.46161
G1 X154.885 Y158.183 E11.48382
G1 X154.535 Y158.536 E11.50862
G1 X154.234 Y158.808 E11.52886
G1 X153.859 Y159.116 E11.55307
G1 X153.498 Y159.382 E11.57544
G1 X153.131 Y159.626 E11.59743
G0 F3600 X150.567 Y156.465
G1 F1800 X151.235 Y156.062 E11.63635
G1 X151.816 Y155.576 E11.67414
G1 X152.084 Y155.292 E11.69363
G1 X152.563 Y154.653 E11.73347
G1 X152.925 Y153.958 E11.77256
G1 X153.175 Y153.218 E11.81153
G1 X153.305 Y152.449 E11.85044
G1 X153.314 Y151.666 E11.88951
G1 X153.192 Y150.842 E11.93107
G1 X152.949 Y150.096 E11.97021
G1 X152.597 Y149.402 E12.00903
G1 X152.14 Y148.769 E12.04798
G1 X151.589 Y148.214 E12.087
G1 X150.958 Y147.753 E12.12599
G1 X150.267 Y147.398 E12.16474
G1 X149.596 Y147.171 E12.20008
G1 X148.759 Y147.025 E12.24247
G1 X147.974 Y147.02 E12.28164
G1 X147.201 Y147.137 E12.32064
G1 X146.464 Y147.371 E12.35922
G1 X145.851 Y147.669 E12.39322
G1 X145.131 Y148.169 E12.43696
G1 X144.612 Y148.673 E12.47305
G1 X144.105 Y149.347 E12.51513
G1 X143.742 Y150.042 E12.55425
G1 X143.492 Y150.781 E12.59317
G1 X143.363 Y151.542 E12.63168
G1 X143.346 Y152.191 E12.66407
G1 X143.412 Y152.837 E12.69646
G1 X143.582 Y153.538 E12.73245
G1 X143.879 Y154.258 E12.77131
