;FLAVOR:Marlin
;TIME:2408
;Filament used: 1.81668m, 0m, 0m, 0m
;Layer height: 0.2
;MINX:142
;MINY:142
;MINZ:0.3
;MAXX:168
;MAXY:168
;MAXZ:20.1
;Generated with Cura_SteamEngine 4.12.1
T0
M140 S60
M105
M190 S60
M104 S195
M105
M109 S195
M82 ;absolute extrusion mode
G28
G1 Z15 F300
M107
;Prime the extruder
G92 E0
G1 F200 E3
G92 E0
G1 X5 Y10 F1500 ; move to prime
G1 Z0.2 F3000 ; get ready to prime
G92 E0 ; reset extrusion distance
G1 Y250 E15 F600 ; prime nozzle
G1 Y100 F5000 ; quick wipe

G92 E0
;start gcode of Extruder 1 
M163 S0 P100
M163 S1 P0
M163 S2 P0
M163 S3 P0
G92 E0
G1 F1800 E-10
;LAYER_COUNT:100
;LAYER:0
M107
G1 F600 Z1.3
G0 F2400 X142.946 Y142.813 Z1.3
;TYPE:SKIRT
G1 F600 Z0.3
G1 F1800 E0
G1 F1200 X143.329 Y142.508 E0.02198
G1 X143.757 Y142.27 E0.04397
G1 X144.217 Y142.104 E0.06593
G1 X145 Y142 E0.1014
G1 X165 Y142 E0.99942
G1 X165.488 Y142.04 E1.02141
G1 X165.963 Y142.159 E1.04339
G1 X166.412 Y142.353 E1.06536
G1 X166.824 Y142.618 E1.08735
G1 X167.187 Y142.946 E1.10932
G1 X167.492 Y143.329 E1.1313
G1 X167.73 Y143.757 E1.15329
G1 X167.896 Y144.217 E1.17525
G1 X168 Y145 E1.21072
G1 X168 Y165 E2.10874
G1 X167.96 Y165.488 E2.13073
G1 X167.841 Y165.963 E2.15271
G1 X167.647 Y166.412 E2.17467
G1 X167.382 Y166.824 E2.19667
G1 X167.054 Y167.187 E2.21864
G1 X166.671 Y167.492 E2.24062
G1 X166.243 Y167.73 E2.26261
G1 X165.783 Y167.896 E2.28457
G1 X165 Y168 E2.32004
G1 X145 Y168 E3.21806
G1 X144.512 Y167.96 E3.24004
G1 X144.037 Y167.841 E3.26203
G1 X143.588 Y167.647 E3.28399
G1 X143.176 Y167.382 E3.30599
G1 X142.813 Y167.054 E3.32796
G1 X142.508 Y166.671 E3.34994
G1 X142.27 Y166.243 E3.37193
G1 X142.104 Y165.783 E3.39389
G1 X142 Y165 E3.42935
G1 X142 Y145 E4.32738
G1 X142.04 Y144.512 E4.34936
G1 X142.159 Y144.037 E4.37135
G1 X142.353 Y143.588 E4.39331
G1 X142.618 Y143.176 E4.41531
G1 X142.946 Y142.813 E4.43727
G0 F2400 X143.338 Y143
G1 F1200 X143.713 Y142.741 E4.45774
G1 X144.127 Y142.551 E4.47819
G1 X144.568 Y142.436 E4.49866
G1 X145 Y142.4 E4.51812
G1 X165 Y142.4 E5.41614
G1 X165.454 Y142.44 E5.43661
G1 X165.894 Y142.558 E5.45706
G1 X166.306 Y142.752 E5.47751
G1 X166.679 Y143.015 E5.498
G1 X167 Y143.338 E5.51845
G1 X167.259 Y143.713 E5.53891
G1 X167.449 Y144.127 E5.55937
G1 X167.564 Y144.568 E5.57983
G1 X167.6 Y145 E5.59929
G1 X167.6 Y165 E6.49732
G1 X167.56 Y165.454 E6.51778
G1 X167.442 Y165.894 E6.53824
G1 X167.248 Y166.306 E6.55868
G1 X166.985 Y166.679 E6.57918
G1 X166.662 Y167 E6.59962
G1 X166.287 Y167.259 E6.62009
G1 X165.873 Y167.449 E6.64054
G1 X165.432 Y167.564 E6.661
G1 X165 Y167.6 E6.68047
G1 X145 Y167.6 E7.57849
G1 X144.546 Y167.56 E7.59896
G1 X144.106 Y167.442 E7.61941
G1 X143.694 Y167.248 E7.63986
G1 X143.321 Y166.985 E7.66035
G1 X143 Y166.662 E7.6808
G1 X142.741 Y166.287 E7.70126
G1 X142.551 Y165.873 E7.72172
G1 X142.436 Y165.432 E7.74218
G1 X142.4 Y165 E7.76164
G1 X142.4 Y145 E8.65967
G1 X142.44 Y144.546 E8.68013
G1 X142.558 Y144.106 E8.70059
G1 X142.752 Y143.694 E8.72103
G1 X143.015 Y143.321 E8.74153
G1 X143.338 Y143 E8.76197
G0 F2400 X143.41 Y143.48
G1 F1200 X143.727 Y143.206 E8.78079
G1 X144.09 Y142.997 E8.7996
G1 X144.487 Y142.861 E8.81844
G1 X145 Y142.8 E8.84163
G1 X165 Y142.8 E9.73966
G1 X165.417 Y142.84 E9.75847
G1 X165.819 Y142.958 E9.77728
G1 X166.191 Y143.151 E9.7961
G1 X166.52 Y143.41 E9.8149
G1 X166.794 Y143.727 E9.83371
G1 X167.003 Y144.09 E9.85252
G1 X167.139 Y144.487 E9.87136
G1 X167.2 Y145 E9.89456
G1 X167.2 Y165 E10.79258
G1 X167.16 Y165.417 E10.81139
G1 X167.042 Y165.819 E10.8302
G1 X166.849 Y166.191 E10.84902
G1 X166.59 Y166.52 E10.86782
G1 X166.273 Y166.794 E10.88664
G1 X165.91 Y167.003 E10.90544
G1 X165.513 Y167.139 E10.92429
G1 X165 Y167.2 E10.94748
G1 X145 Y167.2 E11.84551
G1 X144.583 Y167.16 E11.86432
G1 X144.181 Y167.042 E11.88313
G1 X143.809 Y166.849 E11.90195
G1 X143.48 Y166.59 E11.92075
G1 X143.206 Y166.273 E11.93956
G1 X142.997 Y165.91 E11.95837
G1 X142.861 Y165.513 E11.97721
G1 X142.8 Y165 E12.00041
G1 X142.8 Y145 E12.89843
G1 X142.84 Y144.583 E12.91724
G1 X142.958 Y144.181 E12.93605
G1 X143.151 Y143.809 E12.95487
G1 X143.41 Y143.48 E12.97367
G0 F2400 X143.803 Y143.655
G1 F1200 X144.112 Y143.435 E12.9907
G1 X144.459 Y143.283 E13.00771
G1 X145 Y143.2 E13.03229
G1 X165 Y143.2 E13.93031
G1 X165.377 Y143.24 E13.94733
G1 X165.737 Y143.358 E13.96435
G1 X166.064 Y143.548 E13.98133
G1 X166.345 Y143.803 E13.99836
G1 X166.565 Y144.112 E14.0154
G1 X166.717 Y144.459 E14.03241
G1 X166.8 Y145 E14.05698
G1 X166.8 Y165 E14.95501
G1 X166.76 Y165.377 E14.97203
G1 X166.642 Y165.737 E14.98904
G1 X166.452 Y166.064 E15.00602
G1 X166.197 Y166.345 E15.02306
G1 X165.888 Y166.565 E15.04009
G1 X165.541 Y166.717 E15.0571
G1 X165 Y166.8 E15.08168
G1 X145 Y166.8 E15.9797
G1 X144.623 Y166.76 E15.99672
G1 X144.263 Y166.642 E16.01373
G1 X143.936 Y166.452 E16.03071
G1 X143.655 Y166.197 E16.04775
G1 X143.435 Y165.888 E16.06478
G1 X143.283 Y165.541 E16.08179
G1 X143.2 Y165 E16.10637
G1 X143.2 Y145 E17.00439
G1 X143.24 Y144.623 E17.02142
G1 X143.358 Y144.263 E17.03843
G1 X143.548 Y143.936 E17.05541
G1 X143.803 Y143.655 E17.07245
G0 F2400 X143.945 Y144.079
G1 F1200 X144.193 Y143.856 E17.08742
G1 X144.487 Y143.697 E17.10243
G1 X145 Y143.6 E17.12587
G1 X165 Y143.6 E18.02389
G1 X165.332 Y143.64 E18.03891
G1 X165.644 Y143.757 E18.05387
G1 X165.921 Y143.945 E18.0689
G1 X166.144 Y144.193 E18.08388
G1 X166.303 Y144.487 E18.09889
G1 X166.4 Y145 E18.12233
G1 X166.4 Y165 E19.02035
G1 X166.36 Y165.332 E19.03537
G1 X166.243 Y165.644 E19.05033
G1 X166.055 Y165.921 E19.06536
G1 X165.807 Y166.144 E19.08034
G1 X165.513 Y166.303 E19.09534
G1 X165 Y166.4 E19.11879
G1 X145 Y166.4 E20.01681
G1 X144.668 Y166.36 E20.03183
G1 X144.356 Y166.243 E20.04679
G1 X144.079 Y166.055 E20.06182
G1 X143.856 Y165.807 E20.07679
G1 X143.697 Y165.513 E20.0918
G1 X143.6 Y165 E20.11524
G1 X143.6 Y145 E21.01327
G1 X143.64 Y144.668 E21.02828
G1 X143.757 Y144.356 E21.04324
G1 X143.945 Y144.079 E21.05828
G0 F2400 X144.339 Y144.249
G1 F1200 X144.575 Y144.095 E21.07093
G1 X145 Y144 E21.09048
G1 X165 Y144 E21.98851
G1 X165.279 Y144.04 E22.00116
G1 X165.536 Y144.156 E22.01382
G1 X165.751 Y144.339 E22.0265
G1 X165.905 Y144.575 E22.03915
G1 X166 Y145 E22.05871
G1 X166 Y165 E22.95673
G1 X165.96 Y165.279 E22.96939
G1 X165.844 Y165.536 E22.98205
G1 X165.661 Y165.751 E22.99472
G1 X165.425 Y165.905 E23.00738
G1 X165 Y166 E23.02693
G1 X145 Y166 E23.92496
G1 X144.721 Y165.96 E23.93761
G1 X144.464 Y165.844 E23.95027
G1 X144.249 Y165.661 E23.96295
G1 X144.095 Y165.425 E23.9756
G1 X144 Y165 E23.99516
G1 X144 Y145 E24.89318
G1 X144.04 Y144.721 E24.90584
G1 X144.156 Y144.464 E24.9185
G1 X144.339 Y144.249 E24.93117
G0 F2400 X144.553 Y144.599
G1 F1200 X144.726 Y144.466 E24.94097
G1 X145 Y144.4 E24.95363
G1 X165 Y144.4 E25.85165
G1 X165.215 Y144.44 E25.86147
G1 X165.401 Y144.553 E25.87124
G1 X165.534 Y144.726 E25.88104
G1 X165.6 Y145 E25.89369
G1 X165.6 Y165 E26.79172
G1 X165.56 Y165.215 E26.80154
G1 X165.447 Y165.401 E26.81131
G1 X165.274 Y165.534 E26.82111
G1 X165 Y165.6 E26.83376
G1 X145 Y165.6 E27.73179
G1 X144.785 Y165.56 E27.74161
G1 X144.599 Y165.447 E27.75138
G1 X144.466 Y165.274 E27.76118
G1 X144.4 Y165 E27.77383
G1 X144.4 Y145 E28.67185
G1 X144.44 Y144.785 E28.68167
G1 X144.553 Y144.599 E28.69145
G0 F2400 X144.839 Y144.881
G1 F1200 X145 Y144.8 E28.69954
G1 X165 Y144.8 E29.59756
G1 X165.119 Y144.839 E29.60318
G1 X165.2 Y145 E29.61128
G1 X165.2 Y165 E30.5093
G1 X165.161 Y165.119 E30.51492
G1 X165 Y165.2 E30.52302
G1 X145 Y165.2 E31.42104
G1 X144.881 Y165.161 E31.42666
G1 X144.8 Y165 E31.43475
G1 X144.8 Y145 E32.33278
G1 X144.839 Y144.881 E32.3384
G1 F1800 E22.3384
G1 F600 Z1.3
;MESH:Size_Test.stl
G0 F2400 X164.8 Y164.8 Z1.3
;TYPE:WALL-OUTER
G1 F600 Z0.3
G1 F1800 E32.3384
G1 F1200 X145.2 Y164.8 E33.21846
G1 X145.2 Y145.2 E34.09853
G1 X164.8 Y145.2 E34.97859
G1 X164.8 Y164.8 E35.85865
G0 F2400 X164.6 Y164.8
G0 X164.4 Y164.4
;TYPE:WALL-INNER
G1 F1200 X145.6 Y164.4 E36.7028
G1 X145.6 Y145.6 E37.54694
G1 X164.4 Y145.6 E38.39108
G1 X164.4 Y164.4 E39.23522
G0 F2400 X164 Y164
G1 F1200 X146 Y164 E40.04344
G1 X146 Y146 E40.85167
G1 X164 Y146 E41.65989
G1 X164 Y164 E42.46811
G0 F2400 X163.61 Y163.61
;TYPE:SKIN
G1 F1200 X146.39 Y163.61 E43.24131
G1 X146.39 Y146.39 E44.0145
G1 X163.61 Y146.39 E44.7877
G1 X163.61 Y163.61 E45.5609
G0 F2400 X163.429 Y147.024
G1 F1200 X162.975 Y146.57 E45.58973
G0 F2400 X162.409 Y146.57
G1 F1200 X163.429 Y147.59 E45.6545
G0 F2400 X163.429 Y148.155
G1 F1200 X161.844 Y146.57 E45.75515
G0 F2400 X161.278 Y146.57
G1 F1200 X163.429 Y148.721 E45.89174
G0 F2400 X163.429 Y149.287
G1 F1200 X160.712 Y146.57 E46.06426
G0 F2400 X160.146 Y146.57
G1 F1200 X163.429 Y149.852 E46.2727
G0 F2400 X163.429 Y150.418
G1 F1200 X159.581 Y146.57 E46.51705
G0 F2400 X159.015 Y146.57
G1 F1200 X163.429 Y150.984 E46.79734
G0 F2400 X163.429 Y151.549
G1 F1200 X158.449 Y146.57 E47.11354
G0 F2400 X157.884 Y146.57
G1 F1200 X163.429 Y152.115 E47.46564
G0 F2400 X163.429 Y152.681
G1 F1200 X157.318 Y146.57 E47.85369
G0 F2400 X156.752 Y146.57
G1 F1200 X163.429 Y153.247 E48.27768
G0 F2400 X163.429 Y153.812
G1 F1200 X156.187 Y146.57 E48.73755
G0 F2400 X155.621 Y146.57
G1 F1200 X163.429 Y154.378 E49.23335
G0 F2400 X163.429 Y154.944
G1 F1200 X155.055 Y146.57 E49.7651
G0 F2400 X154.49 Y146.57
G1 F1200 X163.429 Y155.509 E50.33273
G0 F2400 X163.429 Y156.075
G1 F1200 X153.924 Y146.57 E50.93629
G0 F2400 X153.358 Y146.57
G1 F1200 X163.429 Y156.641 E51.5758
G0 F2400 X163.429 Y157.206
G1 F1200 X152.793 Y146.57 E52.25118
G0 F2400 X152.227 Y146.57
G1 F1200 X163.429 Y157.772 E52.96251
G0 F2400 X163.429 Y158.338
G1 F1200 X151.661 Y146.57 E53.70978
G0 F2400 X151.095 Y146.57
G1 F1200 X163.429 Y158.903 E54.49295
G0 F2400 X163.429 Y159.469
G1 F1200 X150.53 Y146.57 E55.31204
G0 F2400 X149.964 Y146.57
G1 F1200 X163.429 Y160.035 E56.16706
G0 F2400 X163.429 Y160.6
G1 F1200 X149.398 Y146.57 E57.058
G0 F2400 X148.833 Y146.57
G1 F1200 X163.429 Y161.166 E57.98484
G0 F2400 X163.429 Y161.732
G1 F1200 X148.267 Y146.57 E58.94762
G0 F2400 X147.701 Y146.57
G1 F1200 X163.429 Y162.297 E59.94632
G0 F2400 X163.429 Y162.863
G1 F1200 X147.136 Y146.57 E60.98092
G0 F2400 X146.569 Y146.569
G1 F1200 X163.429 Y163.429 E62.05153
G0 F2400 X162.863 Y163.429
G1 F1200 X146.569 Y147.135 E63.0862
G0 F2400 X146.569 Y147.701
G1 F1200 X162.297 Y163.429 E64.08492
G0 F2400 X161.732 Y163.429
G1 F1200 X146.569 Y148.266 E65.04777
G0 F2400 X146.569 Y148.832
G1 F1200 X161.166 Y163.429 E65.97468
G0 F2400 X160.6 Y163.429
G1 F1200 X146.569 Y149.398 E66.86564
G0 F2400 X146.569 Y149.963
G1 F1200 X160.035 Y163.429 E67.72073
G0 F2400 X159.469 Y163.429
G1 F1200 X146.569 Y150.529 E68.53988
G0 F2400 X146.569 Y151.095
G1 F1200 X158.903 Y163.429 E69.32309
G0 F2400 X158.338 Y163.429
G1 F1200 X146.569 Y151.66 E70.07042
G0 F2400 X146.569 Y152.226
G1 F1200 X157.772 Y163.429 E70.78181
G0 F2400 X157.206 Y163.429
G1 F1200 X146.569 Y152.792 E71.45726
G0 F2400 X146.569 Y153.358
G1 F1200 X156.641 Y163.429 E72.09679
G0 F2400 X156.075 Y163.429
G1 F1200 X146.569 Y153.923 E72.70042
G0 F2400 X146.569 Y154.489
G1 F1200 X155.509 Y163.429 E73.26811
G0 F2400 X154.944 Y163.429
G1 F1200 X146.569 Y155.055 E73.79989
G0 F2400 X146.569 Y155.62
G1 F1200 X154.378 Y163.429 E74.29576
G0 F2400 X153.812 Y163.429
G1 F1200 X146.569 Y156.186 E74.75569
G0 F2400 X146.569 Y156.752
G1 F1200 X153.247 Y163.429 E75.17971
G0 F2400 X152.681 Y163.429
G1 F1200 X146.569 Y157.317 E75.56782
G0 F2400 X146.569 Y157.883
G1 F1200 X152.115 Y163.429 E75.91999
G0 F2400 X151.549 Y163.429
G1 F1200 X146.569 Y158.449 E76.23622
G0 F2400 X146.569 Y159.014
G1 F1200 X150.984 Y163.429 E76.51658
G0 F2400 X150.418 Y163.429
G1 F1200 X146.569 Y159.58 E76.76099
G0 F2400 X146.569 Y160.146
G1 F1200 X149.852 Y163.429 E76.96946
G0 F2400 X149.287 Y163.429
G1 F1200 X146.569 Y160.711 E77.14205
G0 F2400 X146.569 Y161.277
G1 F1200 X148.721 Y163.429 E77.2787
G0 F2400 X148.155 Y163.429
G1 F1200 X146.569 Y161.843 E77.37941
G0 F2400 X146.569 Y162.408
G1 F1200 X147.59 Y163.429 E77.44425
G0 F2400 X147.024 Y163.429
G1 F1200 X146.569 Y162.974 E77.47314
;MESH:NONMESH
G0 F600 X146.569 Y162.974 Z0.5
G0 F2400 X164 Y164
;TIME_ELAPSED:98.145870
;LAYER:1
M106 S255
;TYPE:WALL-INNER
;MESH:Size_Test.stl
G1 F1800 X146 Y164 E78.01195
G1 X146 Y146 E78.55077
G1 X164 Y146 E79.08958
G1 X164 Y164 E79.62839
G0 F3600 X164.4 Y164.4
G1 F1800 X145.6 Y164.4 E80.19116
G1 X145.6 Y145.6 E80.75392
G1 X164.4 Y145.6 E81.31668
G1 X164.4 Y164.4 E81.87944
G0 F3600 X164.8 Y164.8
;TYPE:WALL-OUTER
G1 F1200 X145.2 Y164.8 E82.46615
G1 X145.2 Y145.2 E83.05286
G1 X164.8 Y145.2 E83.63957
G1 X164.8 Y164.8 E84.22628
G0 F3600 X164.6 Y164.8
G0 X164.33 Y164.33
G0 X163.61 Y163.61
;TYPE:SKIN
G1 F1200 X146.39 Y163.61 E84.74174
G1 X146.39 Y146.39 E85.25721
G1 X163.61 Y146.39 E85.77267
G1 X163.61 Y163.61 E86.28814
G0 F3600 X162.971 Y163.429
G1 F1200 X163.429 Y162.971 E86.30753
G0 F3600 X163.429 Y162.405
G1 F1200 X162.405 Y163.429 E86.35088
G0 F3600 X161.839 Y163.429
G1 F1200 X163.429 Y161.839 E86.41819
G0 F3600 X163.429 Y161.274
G1 F1200 X161.274 Y163.429 E86.50941
G0 F3600 X160.708 Y163.429
G1 F1200 X163.429 Y160.708 E86.6246
G0 F3600 X163.429 Y160.142
G1 F1200 X160.142 Y163.429 E86.76375
G0 F3600 X159.577 Y163.429
G1 F1200 X163.429 Y159.577 E86.92682
G0 F3600 X163.429 Y159.011
G1 F1200 X159.011 Y163.429 E87.11385
G0 F3600 X158.445 Y163.429
G1 F1200 X163.429 Y158.445 E87.32484
G0 F3600 X163.429 Y157.879
G1 F1200 X157.879 Y163.429 E87.55979
G0 F3600 X157.314 Y163.429
G1 F1200 X163.429 Y157.314 E87.81865
G0 F3600 X163.429 Y156.748
G1 F1200 X156.748 Y163.429 E88.10148
G0 F3600 X156.182 Y163.429
G1 F1200 X163.429 Y156.182 E88.40827
G0 F3600 X163.429 Y155.617
G1 F1200 X155.617 Y163.429 E88.73898
G0 F3600 X155.051 Y163.429
G1 F1200 X163.429 Y155.051 E89.09365
G0 F3600 X163.429 Y154.485
G1 F1200 X154.485 Y163.429 E89.47227
G0 F3600 X153.92 Y163.429
G1 F1200 X163.429 Y153.92 E89.87482
G0 F3600 X163.429 Y153.354
G1 F1200 X153.354 Y163.429 E90.30133
G0 F3600 X152.788 Y163.429
G1 F1200 X163.429 Y152.788 E90.7518
G0 F3600 X163.429 Y152.223
G1 F1200 X152.223 Y163.429 E91.22618
G0 F3600 X151.657 Y163.429
G1 F1200 X163.429 Y151.657 E91.72453
G0 F3600 X163.429 Y151.091
G1 F1200 X151.091 Y163.429 E92.24684
G0 F3600 X150.526 Y163.429
G1 F1200 X163.429 Y150.526 E92.79306
G0 F3600 X163.429 Y149.96
G1 F1200 X149.96 Y163.429 E93.36325
G0 F3600 X149.394 Y163.429
G1 F1200 X163.429 Y149.394 E93.9574
G0 F3600 X163.429 Y148.829
G1 F1200 X148.829 Y163.429 E94.57546
G0 F3600 X148.263 Y163.429
G1 F1200 X163.429 Y148.263 E95.21749
G0 F3600 X163.429 Y147.697
G1 F1200 X147.697 Y163.429 E95.88347
G0 F3600 X147.131 Y163.429
G1 F1200 X163.429 Y147.131 E96.57342
G0 F3600 X163.425 Y146.569
G1 F1200 X146.57 Y163.425 E97.28697
G0 F3600 X146.57 Y162.859
G1 F1200 X162.86 Y146.569 E97.97658
G0 F3600 X162.294 Y146.569
G1 F1200 X146.57 Y162.293 E98.64223
G0 F3600 X146.57 Y161.728
G1 F1200 X161.728 Y146.569 E99.28393
G0 F3600 X161.163 Y146.569
G1 F1200 X146.57 Y161.162 E99.9017
G0 F3600 X146.57 Y160.596
G1 F1200 X160.597 Y146.569 E100.49551
G0 F3600 X160.031 Y146.569
G1 F1200 X146.57 Y160.03 E101.06536
G0 F3600 X146.57 Y159.465
G1 F1200 X159.466 Y146.569 E101.61129
G0 F3600 X158.9 Y146.569
G1 F1200 X146.57 Y158.899 E102.13326
G0 F3600 X146.57 Y158.333
G1 F1200 X158.334 Y146.569 E102.63127
G0 F3600 X157.768 Y146.569
G1 F1200 X146.57 Y157.768 E103.10534
G0 F3600 X146.57 Y157.202
G1 F1200 X157.203 Y146.569 E103.55546
G0 F3600 X156.637 Y146.569
G1 F1200 X146.57 Y156.636 E103.98163
G0 F3600 X146.57 Y156.071
G1 F1200 X156.071 Y146.569 E104.38386
G0 F3600 X155.506 Y146.569
G1 F1200 X146.57 Y155.505 E104.76215
G0 F3600 X146.57 Y154.939
G1 F1200 X154.94 Y146.569 E105.11648
G0 F3600 X154.374 Y146.569
G1 F1200 X146.57 Y154.374 E105.44687
G0 F3600 X146.57 Y153.808
G1 F1200 X153.809 Y146.569 E105.75332
G0 F3600 X153.243 Y146.569
G1 F1200 X146.57 Y153.242 E106.03581
G0 F3600 X146.57 Y152.677
G1 F1200 X152.677 Y146.569 E106.29436
G0 F3600 X152.112 Y146.569
G1 F1200 X146.57 Y152.111 E106.52897
G0 F3600 X146.57 Y151.545
G1 F1200 X151.546 Y146.569 E106.73962
G0 F3600 X150.98 Y146.569
G1 F1200 X146.57 Y150.98 E106.92633
