; G-Code generated by Simplify3D(R) Version 4.0.0
; Oct 11, 2019 at 6:04:18 PM
; Settings Summary
;   processName,Process1
;   applyToModels,Size_Test
;   profileName,Z6
;   profileVersion,2019-10-11 12:28:38
;   baseProfile,Default (modified)
;   printMaterial,PLA
;   printQuality,Medium
;   printExtruders,
;   extruderName,Primary Extruder
;   extruderToolheadNumber,0
;   extruderDiameter,0.4
;   extruderAutoWidth,1
;   extruderWidth,0.48
;   extrusionMultiplier,1
;   extruderUseRetract,1
;   extruderRetractionDistance,5
;   extruderExtraRestartDistance,0
;   extruderRetractionZLift,1
;   extruderRetractionSpeed,1800
;   extruderUseCoasting,1
;   extruderCoastingDistance,0.2
;   extruderUseWipe,1
;   extruderWipeDistance,5
;   primaryExtruder,0
;   layerHeight,0.2
;   topSolidLayers,5
;   bottomSolidLayers,4
;   perimeterOutlines,3
;   printPerimetersInsideOut,1
;   startPointOption,3
;   startPointOriginX,110
;   startPointOriginY,110
;   sequentialIslands,0
;   spiralVaseMode,0
;   firstLayerHeightPercentage,95
;   firstLayerWidthPercentage,105
;   firstLayerUnderspeed,0.4
;   useRaft,0
;   raftExtruder,0
;   raftTopLayers,3
;   raftBaseLayers,2
;   raftOffset,3
;   raftSeparationDistance,0.14
;   raftTopInfill,100
;   aboveRaftSpeedMultiplier,0.3
;   useSkirt,0
;   skirtExtruder,999
;   skirtLayers,2
;   skirtOutlines,2
;   skirtOffset,4
;   usePrimePillar,0
;   primePillarExtruder,999
;   primePillarWidth,12
;   primePillarLocation,7
;   primePillarSpeedMultiplier,1
;   useOozeShield,0
;   oozeShieldExtruder,999
;   oozeShieldOffset,2
;   oozeShieldOutlines,1
;   oozeShieldSidewallShape,1
;   oozeShieldSidewallAngle,30
;   oozeShieldSpeedMultiplier,1
;   infillExtruder,0
;   internalInfillPattern,Rectilinear
;   externalInfillPattern,Rectilinear
;   infillPercentage,30
;   outlineOverlapPercentage,15
;   infillExtrusionWidthPercentage,100
;   minInfillLength,5
;   infillLayerInterval,1
;   internalInfillAngles,45,-45
;   overlapInternalInfillAngles,0
;   externalInfillAngles,45,-45
;   generateSupport,1
;   supportExtruder,0
;   supportInfillPercentage,40
;   supportExtraInflation,0
;   supportBaseLayers,2
;   denseSupportExtruder,0
;   denseSupportLayers,2
;   denseSupportInfillPercentage,70
;   supportLayerInterval,1
;   supportHorizontalPartOffset,0.3
;   supportUpperSeparationLayers,1
;   supportLowerSeparationLayers,1
;   supportType,1
;   supportGridSpacing,4
;   maxOverhangAngle,45
;   supportAngles,45
;   temperatureName,Primary Extruder,bed
;   temperatureNumber,0,0
;   temperatureSetpointCount,1,1
;   temperatureSetpointLayers,1,1
;   temperatureSetpointTemperatures,205,60
;   temperatureStabilizeAtStartup,1,1
;   temperatureHeatedBed,0,1
;   temperatureRelayBetweenLayers,0,0
;   temperatureRelayBetweenLoops,0,0
;   fanLayers,1,2
;   fanSpeeds,0,100
;   blipFanToFullPower,0
;   adjustSpeedForCooling,1
;   minSpeedLayerTime,15
;   minCoolingSpeedSlowdown,25
;   increaseFanForCooling,0
;   minFanLayerTime,45
;   maxCoolingFanSpeed,100
;   increaseFanForBridging,0
;   bridgingFanSpeed,100
;   use5D,1
;   relativeEdistances,0
;   allowEaxisZeroing,1
;   independentExtruderAxes,0
;   includeM10123,0
;   stickySupport,1
;   applyToolheadOffsets,0
;   gcodeXoffset,0
;   gcodeYoffset,0
;   gcodeZoffset,0
;   overrideMachineDefinition,1
;   machineTypeOverride,0
;   strokeXoverride,150
;   strokeYoverride,150
;   strokeZoverride,150
;   originOffsetXoverride,0
;   originOffsetYoverride,0
;   originOffsetZoverride,0
;   homeXdirOverride,-1
;   homeYdirOverride,-1
;   homeZdirOverride,-1
;   flipXoverride,1
;   flipYoverride,-1
;   flipZoverride,1
;   toolheadOffsets,0,0|0,0|0,0|0,0|0,0|0,0
;   overrideFirmwareConfiguration,0
;   firmwareTypeOverride,RepRap (Marlin/Repetier/Sprinter)
;   GPXconfigOverride,r2
;   baudRateOverride,115200
;   overridePrinterModels,0
;   printerModelsOverride
;   startingGcode,G28 ; home all axes,,G1 Z5 F3000 ; lift,,G1 X5 Y10 F1500 ; move to prime,,G1 Z0.2 F3000 ; get ready to prime,,G92 E0 ; reset extrusion distance,,G1 Y80 E10 F600 ; prime nozzle,,G1 Y100 F5000 ; quick wipe
;   layerChangeGcode,
;   retractionGcode,
;   toolChangeGcode,
;   endingGcode,G28 X0 ; home x axis,,M106 S0 ; turn off cooling fan,,M104 S0 ; turn off extruder,,M140 S0 ; turn off bed,,M84 ; disable motors
;   exportFileFormat,gcode
;   celebration,0
;   celebrationSong,Random Song
;   postProcessing,
;   defaultSpeed,3600
;   outlineUnderspeed,0.5
;   solidInfillUnderspeed,0.8
;   supportUnderspeed,0.8
;   rapidXYspeed,4800
;   rapidZspeed,1000
;   minBridgingArea,50
;   bridgingExtraInflation,0
;   bridgingExtrusionMultiplier,1
;   bridgingSpeedMultiplier,1
;   useFixedBridgingAngle,0
;   fixedBridgingAngle,0
;   applyBridgingToPerimeters,0
;   filamentDiameters,1.75|1.75|1.75|1.75|1.75|1.75
;   filamentPricesPerKg,46|46|46|46|46|46
;   filamentDensities,1.25|1.25|1.25|1.25|1.25|1.25
;   useMinPrintHeight,0
;   minPrintHeight,0
;   useMaxPrintHeight,0
;   maxPrintHeight,1
;   useDiaphragm,0
;   diaphragmLayerInterval,20
;   robustSlicing,1
;   mergeAllIntoSolid,0
;   onlyRetractWhenCrossingOutline,1
;   retractBetweenLayers,1
;   useRetractionMinTravel,0
;   retractionMinTravel,3
;   retractWhileWiping,0
;   onlyWipeOutlines,1
;   avoidCrossingOutline,0
;   maxMovementDetourFactor,3
;   toolChangeRetractionDistance,12
;   toolChangeExtraRestartDistance,-0.5
;   toolChangeRetractionSpeed,600
;   externalThinWallType,0
;   internalThinWallType,2
;   thinWallAllowedOverlapPercentage,10
;   singleExtrusionMinLength,1
;   singleExtrusionMinPrintingWidthPercentage,50
;   singleExtrusionMaxPrintingWidthPercentage,200
;   singleExtrusionEndpointExtension,0.2
;   horizontalSizeCompensation,0
G90
M82
M106 S0
M140 S60
M190 S60
M104 S205 T0
M109 S205 T0
G28 ; home all axes
G1 Z5 F3000 ; lift
G1 X5 Y10 F1500 ; move to prime
G1 Z0.2 F3000 ; get ready to prime
G92 E0 ; reset extrusion distance
G1 Y80 E10 F600 ; prime nozzle
G1 Y100 F5000 ; quick wipe
G92 E0
G1 E-5.0000 F1800
G1 Z1.190 F1000
; process Process1
; layer 1, Z = 0.190
T0
; tool H0.200 W0.504
; inner perimeter
G1 X83.740 Y83.740 F4800
G1 Z0.190 F1000
G1 E0.0000 F540
G92 E0
G1 X66.260 Y83.740 E0.7325 F1080
G1 X66.260 Y66.260 E1.4651
G1 X83.740 Y66.260 E2.1976
G1 X83.740 Y83.540 E2.9218
G1 X83.740 Y83.740 F1080
G1 X84.244 Y84.244 F4800
G92 E0
G1 X65.756 Y84.244 E0.7748 F1080
G1 X65.756 Y65.756 E1.5496
G1 X84.244 Y65.756 E2.3244
G1 X84.244 Y84.044 E3.0908
G1 X84.244 Y84.244 F1080
; outer perimeter
G1 X84.748 Y84.748 F4800
G92 E0
G1 X65.252 Y84.748 E0.8170 F720
G1 X65.252 Y65.252 E1.6341
G1 X84.748 Y65.252 E2.4511
G1 X84.748 Y84.548 E3.2598
G1 X84.748 Y84.748 F720
G1 X79.748 Y84.748 F3600
; solid layer
G1 X66.918 Y83.312 F4800
G92 E0
G1 X66.688 Y83.082 E0.0136 F1152
G1 X66.688 Y82.369 E0.0435
G1 X67.631 Y83.312 E0.0993
G1 X68.344 Y83.312 E0.1292
G1 X66.688 Y81.656 E0.2273
G1 X66.688 Y80.944 E0.2572
G1 X69.056 Y83.312 E0.3975
G1 X69.769 Y83.312 E0.4274
G1 X66.688 Y80.231 E0.6100
G1 X66.688 Y79.518 E0.6398
G1 X70.482 Y83.312 E0.8647
G1 X71.195 Y83.312 E0.8945
G1 X66.688 Y78.805 E1.1616
G1 X66.688 Y78.093 E1.1915
G1 X71.907 Y83.312 E1.5008
G1 X72.620 Y83.312 E1.5307
G1 X66.688 Y77.380 E1.8822
G1 X66.688 Y76.667 E1.9121
G1 X73.333 Y83.312 E2.3059
G1 X74.046 Y83.312 E2.3357
G1 X66.688 Y75.954 E2.7718
G1 X66.688 Y75.242 E2.8017
G1 X74.758 Y83.312 E3.2799
G1 X75.471 Y83.312 E3.3098
G1 X66.688 Y74.529 E3.8303
G1 X66.688 Y73.816 E3.8602
G1 X76.184 Y83.312 E4.4230
G1 X76.897 Y83.312 E4.4528
G1 X66.688 Y73.103 E5.0579
G1 X66.688 Y72.390 E5.0877
G1 X77.610 Y83.312 E5.7350
G1 X78.322 Y83.312 E5.7649
G1 X66.688 Y71.678 E6.4544
G1 X66.688 Y70.965 E6.4842
G1 X79.035 Y83.312 E7.2160
G1 X79.748 Y83.312 E7.2458
G1 X66.688 Y70.252 E8.0198
G1 X66.688 Y69.539 E8.0497
G1 X80.461 Y83.312 E8.8659
G1 X81.173 Y83.312 E8.8958
G1 X66.688 Y68.827 E9.7543
G1 X66.688 Y68.114 E9.7841
G1 X81.886 Y83.312 E10.6848
G1 X82.599 Y83.312 E10.7147
G1 X66.688 Y67.401 E11.6577
G1 X66.688 Y66.688 E11.6875
G1 X83.312 Y83.312 E12.6727
G1 X83.312 Y82.599 E12.7026
G1 X67.401 Y66.688 E13.6456
G1 X68.114 Y66.688 E13.6754
G1 X83.312 Y81.886 E14.5762
G1 X83.312 Y81.173 E14.6060
G1 X68.827 Y66.688 E15.4645
G1 X69.539 Y66.688 E15.4944
G1 X83.312 Y80.461 E16.3106
G1 X83.312 Y79.748 E16.3405
G1 X70.252 Y66.688 E17.1144
G1 X70.965 Y66.688 E17.1443
G1 X83.312 Y79.035 E17.8761
G1 X83.312 Y78.322 E17.9059
G1 X71.678 Y66.688 E18.5954
G1 X72.391 Y66.688 E18.6253
G1 X83.312 Y77.609 E19.2725
G1 X83.312 Y76.897 E19.3024
G1 X73.103 Y66.688 E19.9074
G1 X73.816 Y66.688 E19.9373
G1 X83.312 Y76.184 E20.5001
G1 X83.312 Y75.471 E20.5299
G1 X74.529 Y66.688 E21.0505
G1 X75.242 Y66.688 E21.0803
G1 X83.312 Y74.758 E21.5586
G1 X83.312 Y74.046 E21.5885
G1 X75.954 Y66.688 E22.0245
G1 X76.667 Y66.688 E22.0544
G1 X83.312 Y73.333 E22.4482
G1 X83.312 Y72.620 E22.4781
G1 X77.380 Y66.688 E22.8296
G1 X78.093 Y66.688 E22.8595
G1 X83.312 Y71.907 E23.1688
G1 X83.312 Y71.195 E23.1987
G1 X78.805 Y66.688 E23.4657
G1 X79.518 Y66.688 E23.4956
G1 X83.312 Y70.482 E23.7204
G1 X83.312 Y69.769 E23.7503
G1 X80.231 Y66.688 E23.9329
G1 X80.944 Y66.688 E23.9628
G1 X83.312 Y69.056 E24.1031
G1 X83.312 Y68.344 E24.1330
G1 X81.656 Y66.688 E24.2311
G1 X82.369 Y66.688 E24.2609
G1 X83.312 Y67.631 E24.3168
G1 X83.312 Y66.918 E24.3466
G1 X83.223 Y66.830 E24.3519
G1 X83.082 Y66.688 F1152
G92 E0
G1 E-5.0000 F1800
G1 Z1.390 F1000
; layer 2, Z = 0.390
M106 S255
; tool H0.200 W0.480
; inner perimeter
G1 X83.800 Y83.800 F4800
G1 Z0.390 F1000
G1 E0.0000 F1800
G92 E0
G1 X66.200 Y83.800 E0.7025 F2700
G1 X66.200 Y66.200 E1.4049
G1 X83.800 Y66.200 E2.1074
G1 X83.800 Y83.600 E2.8018
G1 X83.800 Y83.800 F2700
G1 X84.280 Y84.280 F4800
G92 E0
G1 X65.720 Y84.280 E0.7408 F2700
G1 X65.720 Y65.720 E1.4815
G1 X84.280 Y65.720 E2.2223
G1 X84.280 Y84.080 E2.9551
G1 X84.280 Y84.280 F2700
; outer perimeter
G1 X84.760 Y84.760 F4800
G92 E0
G1 X65.240 Y84.760 E0.7791 F1800
G1 X65.240 Y65.240 E1.5582
G1 X84.760 Y65.240 E2.3373
G1 X84.760 Y84.560 E3.1084
G1 X84.760 Y84.760 F1800
G1 X79.760 Y84.760 F3600
; solid layer
G1 X83.392 Y82.900 F4800
G92 E0
G1 X82.900 Y83.392 E0.0278 F2880
G1 X82.221 Y83.392 E0.0549
G1 X83.392 Y82.221 E0.1210
G1 X83.392 Y81.542 E0.1481
G1 X81.542 Y83.392 E0.2525
G1 X80.863 Y83.392 E0.2796
G1 X83.392 Y80.863 E0.4223
G1 X83.392 Y80.184 E0.4494
G1 X80.184 Y83.392 E0.6304
G1 X79.506 Y83.392 E0.6575
G1 X83.392 Y79.506 E0.8769
G1 X83.392 Y78.827 E0.9040
G1 X78.827 Y83.392 E1.1617
G1 X78.148 Y83.392 E1.1888
G1 X83.392 Y78.148 E1.4848
G1 X83.392 Y77.469 E1.5119
G1 X77.469 Y83.392 E1.8462
G1 X76.790 Y83.392 E1.8733
G1 X83.392 Y76.790 E2.2459
G1 X83.392 Y76.112 E2.2730
G1 X76.112 Y83.392 E2.6839
G1 X75.433 Y83.392 E2.7110
G1 X83.392 Y75.433 E3.1603
G1 X83.392 Y74.754 E3.1874
G1 X74.754 Y83.392 E3.6749
G1 X74.075 Y83.392 E3.7020
G1 X83.392 Y74.075 E4.2279
G1 X83.392 Y73.396 E4.2550
G1 X73.396 Y83.392 E4.8192
G1 X72.717 Y83.392 E4.8463
G1 X83.392 Y72.717 E5.4488
G1 X83.392 Y72.039 E5.4759
G1 X72.039 Y83.392 E6.1167
G1 X71.360 Y83.392 E6.1438
G1 X83.392 Y71.360 E6.8230
G1 X83.392 Y70.681 E6.8501
G1 X70.681 Y83.392 E7.5675
G1 X70.002 Y83.392 E7.5946
G1 X83.392 Y70.002 E8.3504
G1 X83.392 Y69.323 E8.3775
G1 X69.323 Y83.392 E9.1716
G1 X68.645 Y83.392 E9.1987
G1 X83.392 Y68.645 E10.0311
G1 X83.392 Y67.966 E10.0582
G1 X67.966 Y83.392 E10.9289
G1 X67.287 Y83.392 E10.9560
G1 X83.392 Y67.287 E11.8651
G1 X83.392 Y66.608 E11.8922
G1 X66.608 Y83.392 E12.8395
G1 X66.608 Y82.713 E12.8666
G1 X82.713 Y66.608 E13.7757
G1 X82.034 Y66.608 E13.8028
G1 X66.608 Y82.034 E14.6735
G1 X66.608 Y81.356 E14.7006
G1 X81.356 Y66.608 E15.5330
G1 X80.677 Y66.608 E15.5601
G1 X66.608 Y80.677 E16.3542
G1 X66.608 Y79.998 E16.3813
G1 X79.998 Y66.608 E17.1371
G1 X79.319 Y66.608 E17.1642
G1 X66.608 Y79.319 E17.8816
G1 X66.608 Y78.640 E17.9087
G1 X78.640 Y66.608 E18.5879
G1 X77.961 Y66.608 E18.6150
G1 X66.608 Y77.961 E19.2558
G1 X66.608 Y77.283 E19.2829
G1 X77.283 Y66.608 E19.8854
G1 X76.604 Y66.608 E19.9125
G1 X66.608 Y76.604 E20.4767
G1 X66.608 Y75.925 E20.5038
G1 X75.925 Y66.608 E21.0297
G1 X75.246 Y66.608 E21.0568
G1 X66.608 Y75.246 E21.5444
G1 X66.608 Y74.567 E21.5715
G1 X74.567 Y66.608 E22.0207
G1 X73.889 Y66.608 E22.0478
G1 X66.608 Y73.889 E22.4588
G1 X66.608 Y73.210 E22.4859
G1 X73.210 Y66.608 E22.8585
G1 X72.531 Y66.608 E22.8856
G1 X66.608 Y72.531 E23.2199
G1 X66.608 Y71.852 E23.2470
G1 X71.852 Y66.608 E23.5430
G1 X71.173 Y66.608 E23.5701
G1 X66.608 Y71.173 E23.8278
G1 X66.608 Y70.494 E23.8549
G1 X70.494 Y66.608 E24.0742
G1 X69.816 Y66.608 E24.1013
G1 X66.608 Y69.816 E24.2824
G1 X66.608 Y69.137 E24.3095
G1 X69.137 Y66.608 E24.4522
G1 X68.458 Y66.608 E24.4793
G1 X66.608 Y68.458 E24.5837
G1 X66.608 Y67.779 E24.6108
G1 X67.779 Y66.608 E24.6769
G1 X67.100 Y66.608 E24.7040
G1 X66.749 Y66.959 E24.7238
G1 X66.608 Y67.100 F2880
G92 E0
G1 E-5.0000 F1800
G1 Z1.590 F1000
; layer 3, Z = 0.590
; inner perimeter
G1 X83.800 Y83.800 F4800
G1 Z0.590 F1000
G1 E0.0000 F1800
G92 E0
G1 X66.200 Y83.800 E0.7025 F2700
G1 X66.200 Y66.200 E1.4049
G1 X83.800 Y66.200 E2.1074
G1 X83.800 Y83.600 E2.8018
G1 X83.800 Y83.800 F2700
G1 X84.280 Y84.280 F4800
G92 E0
G1 X65.720 Y84.280 E0.7408 F2700
G1 X65.720 Y65.720 E1.4815
G1 X84.280 Y65.720 E2.2223
G1 X84.280 Y84.080 E2.9551
G1 X84.280 Y84.280 F2700
; outer perimeter
G1 X84.760 Y84.760 F4800
G92 E0
G1 X65.240 Y84.760 E0.7791 F1800
G1 X65.240 Y65.240 E1.5582
G1 X84.760 Y65.240 E2.3373
G1 X84.760 Y84.560 E3.1084
G1 X84.760 Y84.760 F1800
G1 X79.760 Y84.760 F3600
; solid layer
G1 X67.100 Y83.392 F4800
G92 E0
G1 X66.608 Y82.900 E0.0278 F2880
G1 X66.608 Y82.221 E0.0549
G1 X67.779 Y83.392 E0.1210
G1 X68.458 Y83.392 E0.1481
G1 X66.608 Y81.542 E0.2525
G1 X66.608 Y80.863 E0.2796
G1 X69.137 Y83.392 E0.4223
G1 X69.816 Y83.392 E0.4494
G1 X66.608 Y80.184 E0.6305
G1 X66.608 Y79.506 E0.6576
G1 X70.494 Y83.392 E0.8769
G1 X71.173 Y83.392 E0.9040
G1 X66.608 Y78.827 E1.1617
G1 X66.608 Y78.148 E1.1888
G1 X71.852 Y83.392 E1.4848
G1 X72.531 Y83.392 E1.5119
G1 X66.608 Y77.469 E1.8462
G1 X66.608 Y76.790 E1.8733
G1 X73.210 Y83.392 E2.2459
G1 X73.888 Y83.392 E2.2730
G1 X66.608 Y76.112 E2.6839
G1 X66.608 Y75.433 E2.7110
G1 X74.567 Y83.392 E3.1603
G1 X75.246 Y83.392 E3.1874
G1 X66.608 Y74.754 E3.6750
G1 X66.608 Y74.075 E3.7021
G1 X75.925 Y83.392 E4.2279
G1 X76.604 Y83.392 E4.2550
G1 X66.608 Y73.396 E4.8192
G1 X66.608 Y72.717 E4.8463
G1 X77.283 Y83.392 E5.4489
G1 X77.961 Y83.392 E5.4759
G1 X66.608 Y72.039 E6.1168
G1 X66.608 Y71.360 E6.1439
G1 X78.640 Y83.392 E6.8230
G1 X79.319 Y83.392 E6.8501
G1 X66.608 Y70.681 E7.5676
G1 X66.608 Y70.002 E7.5947
G1 X79.998 Y83.392 E8.3505
G1 X80.677 Y83.392 E8.3776
G1 X66.608 Y69.323 E9.1717
G1 X66.608 Y68.644 E9.1988
G1 X81.356 Y83.392 E10.0312
G1 X82.034 Y83.392 E10.0583
G1 X66.608 Y67.966 E10.9290
G1 X66.608 Y67.287 E10.9561
G1 X82.713 Y83.392 E11.8651
G1 X83.392 Y83.392 E11.8922
G1 X66.608 Y66.608 E12.8396
G1 X67.287 Y66.608 E12.8667
G1 X83.392 Y82.713 E13.7757
G1 X83.392 Y82.034 E13.8028
G1 X67.966 Y66.608 E14.6735
G1 X68.644 Y66.608 E14.7006
G1 X83.392 Y81.356 E15.5331
G1 X83.392 Y80.677 E15.5601
G1 X69.323 Y66.608 E16.3542
G1 X70.002 Y66.608 E16.3813
G1 X83.392 Y79.998 E17.1371
G1 X83.392 Y79.319 E17.1642
G1 X70.681 Y66.608 E17.8817
G1 X71.360 Y66.608 E17.9088
G1 X83.392 Y78.640 E18.5879
G1 X83.392 Y77.961 E18.6150
G1 X72.039 Y66.608 E19.2559
G1 X72.717 Y66.608 E19.2829
G1 X83.392 Y77.283 E19.8855
G1 X83.392 Y76.604 E19.9126
G1 X73.396 Y66.608 E20.4768
G1 X74.075 Y66.608 E20.5039
G1 X83.392 Y75.925 E21.0297
G1 X83.392 Y75.246 E21.0568
G1 X74.754 Y66.608 E21.5444
G1 X75.433 Y66.608 E21.5715
G1 X83.392 Y74.567 E22.0208
G1 X83.392 Y73.888 E22.0479
G1 X76.112 Y66.608 E22.4588
G1 X76.790 Y66.608 E22.4859
G1 X83.392 Y73.210 E22.8585
G1 X83.392 Y72.531 E22.8856
G1 X77.469 Y66.608 E23.2199
G1 X78.148 Y66.608 E23.2470
G1 X83.392 Y71.852 E23.5430
G1 X83.392 Y71.173 E23.5701
G1 X78.827 Y66.608 E23.8278
G1 X79.506 Y66.608 E23.8549
G1 X83.392 Y70.494 E24.0742
G1 X83.392 Y69.816 E24.1013
G1 X80.184 Y66.608 E24.2824
G1 X80.863 Y66.608 E24.3095
G1 X83.392 Y69.137 E24.4522
