; G-Code generated by Simplify3D(R) Version 4.0.0
; Jun 3, 2018 at 4:17:35 PM
; Settings Summary
;   processName,Process1
;   applyToModels,TempCalFelixAtomicPLA
;   profileName,P802 (modified)
;   profileVersion,2018-06-02 16:02:04
;   baseProfile,Default (modified)
;   printMaterial,PLA
;   printQuality,Medium
;   printExtruders,
;   extruderName,Primary Extruder
;   extruderToolheadNumber,0
;   extruderDiameter,0.4
;   extruderAutoWidth,0
;   extruderWidth,0.45
;   extrusionMultiplier,0.9
;   extruderUseRetract,1
;   extruderRetractionDistance,8
;   extruderExtraRestartDistance,0.1
;   extruderRetractionZLift,0
;   extruderRetractionSpeed,1800
;   extruderUseCoasting,0
;   extruderCoastingDistance,0.1
;   extruderUseWipe,1
;   extruderWipeDistance,1.5
;   primaryExtruder,0
;   layerHeight,0.2
;   topSolidLayers,0
;   bottomSolidLayers,3
;   perimeterOutlines,3
;   printPerimetersInsideOut,1
;   startPointOption,2
;   startPointOriginX,100
;   startPointOriginY,200
;   sequentialIslands,0
;   spiralVaseMode,0
;   firstLayerHeightPercentage,100
;   firstLayerWidthPercentage,100
;   firstLayerUnderspeed,0.8
;   useRaft,0
;   raftExtruder,0
;   raftTopLayers,3
;   raftBaseLayers,2
;   raftOffset,3
;   raftSeparationDistance,0.14
;   raftTopInfill,100
;   aboveRaftSpeedMultiplier,0.3
;   useSkirt,0
;   skirtExtruder,0
;   skirtLayers,1
;   skirtOutlines,5
;   skirtOffset,1
;   usePrimePillar,0
;   primePillarExtruder,999
;   primePillarWidth,12
;   primePillarLocation,7
;   primePillarSpeedMultiplier,1
;   useOozeShield,0
;   oozeShieldExtruder,999
;   oozeShieldOffset,2
;   oozeShieldOutlines,1
;   oozeShieldSidewallShape,1
;   oozeShieldSidewallAngle,30
;   oozeShieldSpeedMultiplier,1
;   infillExtruder,0
;   internalInfillPattern,Fast Honeycomb
;   externalInfillPattern,Concentric
;   infillPercentage,0
;   outlineOverlapPercentage,15
;   infillExtrusionWidthPercentage,90
;   minInfillLength,5
;   infillLayerInterval,1
;   internalInfillAngles,0
;   overlapInternalInfillAngles,0
;   externalInfillAngles,45,-45
;   generateSupport,0
;   supportExtruder,0
;   supportInfillPercentage,30
;   supportExtraInflation,0
;   supportBaseLayers,0
;   denseSupportExtruder,0
;   denseSupportLayers,0
;   denseSupportInfillPercentage,70
;   supportLayerInterval,1
;   supportHorizontalPartOffset,0.3
;   supportUpperSeparationLayers,1
;   supportLowerSeparationLayers,1
;   supportType,0
;   supportGridSpacing,4
;   maxOverhangAngle,45
;   supportAngles,0
;   temperatureName,Primary Extruder,bed
;   temperatureNumber,0,0
;   temperatureSetpointCount,10,1
;   temperatureSetpointLayers,1,50,100,150,200,250,300,350,400,450,1
;   temperatureSetpointTemperatures,230,226,222,218,214,210,206,202,198,194,60
;   temperatureStabilizeAtStartup,1,1
;   temperatureHeatedBed,0,1
;   temperatureRelayBetweenLayers,0,0
;   temperatureRelayBetweenLoops,0,0
;   fanLayers,1,2,3
;   fanSpeeds,0,50,100
;   blipFanToFullPower,0
;   adjustSpeedForCooling,0
;   minSpeedLayerTime,15
;   minCoolingSpeedSlowdown,40
;   increaseFanForCooling,0
;   minFanLayerTime,45
;   maxCoolingFanSpeed,100
;   increaseFanForBridging,0
;   bridgingFanSpeed,100
;   use5D,1
;   relativeEdistances,0
;   allowEaxisZeroing,1
;   independentExtruderAxes,0
;   includeM10123,0
;   stickySupport,1
;   applyToolheadOffsets,0
;   gcodeXoffset,0
;   gcodeYoffset,0
;   gcodeZoffset,0
;   overrideMachineDefinition,1
;   machineTypeOverride,0
;   strokeXoverride,220
;   strokeYoverride,220
;   strokeZoverride,250
;   originOffsetXoverride,0
;   originOffsetYoverride,0
;   originOffsetZoverride,0
;   homeXdirOverride,-1
;   homeYdirOverride,-1
;   homeZdirOverride,-1
;   flipXoverride,1
;   flipYoverride,-1
;   flipZoverride,1
;   toolheadOffsets,0,0|0,0|0,0|0,0|0,0|0,0
;   overrideFirmwareConfiguration,0
;   firmwareTypeOverride,RepRap (Marlin/Repetier/Sprinter)
;   GPXconfigOverride,r2
;   baudRateOverride,115200
;   overridePrinterModels,0
;   printerModelsOverride
;   startingGcode,G28 ; home all axes
;   layerChangeGcode,
;   retractionGcode,
;   toolChangeGcode,
;   endingGcode,M104 S0 ; turn off extruder,M140 S0 ; turn off bed,G28 X0 Y0,M84 ; disable motors
;   exportFileFormat,gcode
;   celebration,0
;   celebrationSong,Random Song
;   postProcessing,
;   defaultSpeed,2400
;   outlineUnderspeed,1
;   solidInfillUnderspeed,0.6
;   supportUnderspeed,1
;   rapidXYspeed,3000
;   rapidZspeed,1000
;   minBridgingArea,50
;   bridgingExtraInflation,0
;   bridgingExtrusionMultiplier,1
;   bridgingSpeedMultiplier,1
;   useFixedBridgingAngle,0
;   fixedBridgingAngle,0
;   applyBridgingToPerimeters,0
;   filamentDiameters,1.75|1.75|1.75|1.75|1.75|1.75
;   filamentPricesPerKg,46|46|46|46|46|46
;   filamentDensities,1.25|1.25|1.25|1.25|1.25|1.25
;   useMinPrintHeight,0
;   minPrintHeight,0
;   useMaxPrintHeight,0
;   maxPrintHeight,3
;   useDiaphragm,0
;   diaphragmLayerInterval,20
;   robustSlicing,1
;   mergeAllIntoSolid,0
;   onlyRetractWhenCrossingOutline,1
;   retractBetweenLayers,0
;   useRetractionMinTravel,1
;   retractionMinTravel,20
;   retractWhileWiping,0
;   onlyWipeOutlines,1
;   avoidCrossingOutline,0
;   maxMovementDetourFactor,3
;   toolChangeRetractionDistance,6
;   toolChangeExtraRestartDistance,-0.5
;   toolChangeRetractionSpeed,600
;   externalThinWallType,0
;   internalThinWallType,2
;   thinWallAllowedOverlapPercentage,10
;   singleExtrusionMinLength,1
;   singleExtrusionMinPrintingWidthPercentage,50
;   singleExtrusionMaxPrintingWidthPercentage,200
;   singleExtrusionEndpointExtension,0.2
;   horizontalSizeCompensation,0
G90
M82
M106 S0
M140 S60
M190 S60
M104 S230 T0
M109 S230 T0
G28 ; home all axes
G92 E0
G1 E-8.0000 F1800
G1 Z0.200 F1000
; process Process1
; layer 1, Z = 0.200
T0
; tool H0.200 W0.450
; inner perimeter
G1 X101.728 Y100.875 F3000
G1 E0.1000 F540
G92 E0
G1 X102.676 Y100.875 E0.0319 F1920
G1 X102.676 Y101.375 E0.0488
G1 X117.125 Y101.375 E0.5353
G1 X117.125 Y119.125 E1.1331
G1 X101.375 Y119.125 E1.6635
G1 X101.376 Y101.375 E2.2612
G1 X101.728 Y101.375 E2.2731
G1 X101.728 Y100.875 E2.2899
G1 X101.278 Y100.925 F3000
G92 E0
G1 X101.278 Y100.425 E0.0168 F1920
G1 X103.126 Y100.425 E0.0791
G1 X103.126 Y100.925 E0.0959
G1 X119.575 Y100.925 E0.6498
G1 X119.575 Y102.075 E0.6886
G1 X117.575 Y102.075 E0.7559
G1 X117.575 Y118.425 E1.3065
G1 X119.575 Y118.425 E1.3739
G1 X119.575 Y119.575 E1.4126
G1 X100.925 Y119.575 E2.0407
G1 X100.926 Y100.925 E2.6687
G1 X101.278 Y100.925 E2.6806
; outer perimeter
G1 X100.828 Y100.475 F3000
G92 E0
G1 X100.828 Y99.975 E0.0168 F1920
G1 X103.576 Y99.975 E0.1094
G1 X103.576 Y100.475 E0.1262
G1 X105.538 Y100.475 E0.1923
G1 X105.538 Y99.975 E0.2091
G1 X106.458 Y99.975 E0.2401
G1 X106.458 Y100.475 E0.2569
G1 X109.427 Y100.475 E0.3569
G1 X109.427 Y99.975 E0.3738
G1 X110.116 Y99.975 E0.3970
G1 X110.116 Y100.475 E0.4138
G1 X120.025 Y100.475 E0.7475
G1 X120.025 Y102.525 E0.8165
G1 X118.025 Y102.525 E0.8839
G1 X118.025 Y117.975 E1.4042
G1 X120.025 Y117.975 E1.4715
G1 X120.025 Y120.025 E1.5406
G1 X100.475 Y120.025 E2.1989
G1 X100.476 Y100.475 E2.8573
G1 X100.828 Y100.475 E2.8691
G1 X100.828 Y99.975 F2400
G1 X101.828 Y99.975 F2400
; gap fill
G1 X117.512 Y101.602 F3000
G92 E0
G1 X117.598 Y101.688 E0.0041 F1152
G1 X118.234 Y101.688 E0.0255
G1 X117.858 Y101.312 E0.0434
G1 X118.495 Y101.312 E0.0649
G1 X118.871 Y101.688 E0.0828
G1 X119.188 Y101.688 E0.0935
G1 X119.188 Y101.369 E0.1042
G1 X119.131 Y101.312 E0.1069
G1 X118.812 Y118.812 F3000
G92 E0
G1 X119.188 Y119.188 E0.0179 F1152
G1 X118.552 Y119.188 E0.0393
G1 X118.176 Y118.812 E0.0572
G1 X117.539 Y118.812 E0.0787
G1 X117.915 Y119.188 E0.0966
; solid layer
G1 X116.743 Y118.743 F3000
G92 E0
G1 X101.758 Y118.743 E0.5046 F1152
G1 X101.759 Y101.757 E1.0766
G1 X102.110 Y101.757 E1.0885
G1 X102.110 Y101.257 E1.1053
G1 X102.293 Y101.257 E1.1115
G1 X102.293 Y101.757 E1.1283
G1 X116.743 Y101.757 E1.6149
G1 X116.743 Y118.743 E2.1869
G1 X116.293 Y118.293 F3000
G92 E0
G1 X102.208 Y118.293 E0.4743 F1152
G1 X102.209 Y102.207 E1.0160
G1 X116.293 Y102.207 E1.4903
G1 X116.293 Y118.293 E2.0320
G1 X115.842 Y117.842 F3000
G92 E0
G1 X102.658 Y117.843 E0.4440 F1152
G1 X102.659 Y102.657 E0.9554
G1 X115.843 Y102.657 E1.3994
G1 X115.843 Y117.843 E1.9107
G1 X115.393 Y117.393 F3000
G92 E0
G1 X103.108 Y117.392 E0.4137 F1152
G1 X103.109 Y103.108 E0.8948
G1 X115.392 Y103.108 E1.3084
G1 X115.392 Y117.392 E1.7895
G1 X114.942 Y116.942 F3000
G92 E0
G1 X103.558 Y116.942 E0.3834 F1152
G1 X103.559 Y103.558 E0.8341
G1 X114.942 Y103.558 E1.2175
G1 X114.942 Y116.942 E1.6683
G1 X114.493 Y116.493 F3000
G92 E0
G1 X104.008 Y116.493 E0.3531 F1152
G1 X104.009 Y104.007 E0.7735
G1 X114.493 Y104.007 E1.1266
G1 X114.493 Y116.493 E1.5470
G1 X114.043 Y116.043 F3000
G92 E0
G1 X104.458 Y116.043 E0.3228 F1152
G1 X104.459 Y104.457 E0.7129
G1 X114.043 Y104.457 E1.0357
G1 X114.043 Y116.043 E1.4258
G1 X113.592 Y115.592 F3000
G92 E0
G1 X104.908 Y115.593 E0.2925 F1152
G1 X104.908 Y104.907 E0.6523
G1 X113.593 Y104.907 E0.9447
G1 X113.593 Y115.593 E1.3046
G1 X113.143 Y115.143 F3000
G92 E0
G1 X105.358 Y115.142 E0.2622 F1152
G1 X105.358 Y105.358 E0.5917
G1 X113.142 Y105.358 E0.8538
G1 X113.142 Y115.142 E1.1833
G1 X112.692 Y114.692 F3000
G92 E0
G1 X105.808 Y114.692 E0.2318 F1152
G1 X105.808 Y105.808 E0.5311
G1 X112.692 Y105.808 E0.7629
G1 X112.692 Y114.692 E1.0621
G1 X112.243 Y114.243 F3000
G92 E0
G1 X106.258 Y114.243 E0.2015 F1152
G1 X106.258 Y106.257 E0.4704
G1 X112.243 Y106.257 E0.6720
G1 X112.243 Y114.243 E0.9409
G1 X111.793 Y113.793 F3000
G92 E0
G1 X106.708 Y113.793 E0.1712 F1152
G1 X106.708 Y106.707 E0.4098
G1 X111.793 Y106.707 E0.5810
G1 X111.793 Y113.793 E0.8196
G1 X111.342 Y113.342 F3000
G92 E0
G1 X107.158 Y113.343 E0.1409 F1152
G1 X107.158 Y107.157 E0.3492
G1 X111.343 Y107.157 E0.4901
G1 X111.343 Y113.343 E0.6984
G1 X110.893 Y112.893 F3000
G92 E0
G1 X107.608 Y112.892 E0.1106 F1152
G1 X107.608 Y107.608 E0.2886
G1 X110.892 Y107.608 E0.3992
G1 X110.892 Y112.892 E0.5772
G1 X110.442 Y112.442 F3000
G92 E0
G1 X108.058 Y112.442 E0.0803 F1152
G1 X108.058 Y108.058 E0.2280
G1 X110.442 Y108.058 E0.3083
G1 X110.442 Y112.442 E0.4559
G1 X109.993 Y111.993 F3000
G92 E0
G1 X108.508 Y111.993 E0.0500 F1152
G1 X108.508 Y108.507 E0.1674
G1 X109.993 Y108.507 E0.2173
G1 X109.993 Y111.993 E0.3347
G1 X109.543 Y111.543 F3000
G92 E0
G1 X108.958 Y111.543 E0.0197 F1152
G1 X108.958 Y108.957 E0.1067
G1 X109.543 Y108.957 E0.1264
G1 X109.543 Y111.543 E0.2135
; layer 2, Z = 0.400
M106 S127
; inner perimeter
G1 X117.125 Y119.125 F3000
G1 Z0.400 F1000
G92 E0
G1 X101.375 Y119.125 E0.5304 F2400
G1 X101.375 Y101.375 E1.1281
G1 X101.728 Y101.375 E1.1400
G1 X101.728 Y100.875 E1.1569
G1 X102.676 Y100.875 E1.1888
G1 X102.676 Y101.375 E1.2056
G1 X117.125 Y101.375 E1.6922
G1 X117.125 Y119.125 E2.2900
G1 X117.575 Y118.425 F3000
G92 E0
G1 X119.575 Y118.425 E0.0674 F2400
G1 X119.575 Y119.575 E0.1061
G1 X100.925 Y119.575 E0.7341
G1 X100.925 Y100.925 E1.3622
G1 X101.278 Y100.925 E1.3741
G1 X101.278 Y100.425 E1.3909
G1 X103.126 Y100.425 E1.4531
G1 X103.126 Y100.925 E1.4700
G1 X105.550 Y100.925 E1.5516
G1 X105.550 Y100.425 E1.5685
G1 X106.437 Y100.425 E1.5983
G1 X106.437 Y100.925 E1.6151
G1 X109.500 Y100.925 E1.7183
G1 X109.500 Y100.425 E1.7352
G1 X110.044 Y100.425 E1.7535
G1 X110.044 Y100.925 E1.7703
G1 X119.575 Y100.925 E2.0913
G1 X119.575 Y102.075 E2.1300
G1 X117.575 Y102.075 E2.1974
G1 X117.575 Y118.425 E2.7480
; outer perimeter
G1 X118.025 Y117.975 F3000
G92 E0
G1 X120.025 Y117.975 E0.0674 F2400
G1 X120.025 Y120.025 E0.1364
G1 X100.475 Y120.025 E0.7948
G1 X100.475 Y100.475 E1.4531
G1 X100.828 Y100.475 E1.4650
G1 X100.828 Y99.975 E1.4818
G1 X103.576 Y99.975 E1.5744
G1 X103.576 Y100.475 E1.5912
G1 X105.100 Y100.475 E1.6425
G1 X105.100 Y99.975 E1.6594
G1 X106.887 Y99.975 E1.7195
G1 X106.887 Y100.475 E1.7364
G1 X109.050 Y100.475 E1.8093
G1 X109.050 Y99.975 E1.8261
G1 X110.494 Y99.975 E1.8747
G1 X110.494 Y100.475 E1.8915
G1 X120.025 Y100.475 E2.2125
G1 X120.025 Y102.525 E2.2815
G1 X118.025 Y102.525 E2.3489
G1 X118.025 Y117.975 E2.8692
G1 X119.525 Y117.975 F2400
; gap fill
G1 X119.007 Y118.812 F3000
G92 E0
G1 X118.631 Y119.188 E0.0179 F1440
G1 X117.995 Y119.188 E0.0393
G1 X118.371 Y118.812 E0.0572
G1 X117.734 Y118.812 E0.0787
G1 X117.512 Y119.034 E0.0893
G1 X117.676 Y101.688 F3000
G92 E0
G1 X118.052 Y101.312 E0.0179 F1440
G1 X118.688 Y101.312 E0.0393
G1 X118.312 Y101.688 E0.0572
G1 X118.948 Y101.688 E0.0787
G1 X119.188 Y101.448 E0.0901
; solid layer
G1 X116.743 Y101.757 F3000
G92 E0
G1 X116.743 Y118.743 E0.5720 F1440
G1 X101.757 Y118.743 E1.0766
G1 X101.757 Y101.757 E1.6486
G1 X102.110 Y101.757 E1.6605
G1 X102.110 Y101.257 E1.6773
G1 X102.293 Y101.257 E1.6835
G1 X102.293 Y101.757 E1.7003
G1 X116.743 Y101.757 E2.1869
G1 X116.293 Y102.207 F3000
G92 E0
G1 X116.293 Y118.293 E0.5417 F1440
G1 X102.207 Y118.293 E1.0160
G1 X102.207 Y102.207 E1.5577
G1 X116.293 Y102.207 E2.0320
G1 X115.842 Y102.658 F3000
G92 E0
G1 X115.843 Y117.843 E0.5114 F1440
G1 X102.657 Y117.843 E0.9554
G1 X102.657 Y102.657 E1.4668
G1 X115.843 Y102.657 E1.9108
G1 X115.393 Y103.107 F3000
G92 E0
G1 X115.392 Y117.392 E0.4811 F1440
G1 X103.108 Y117.392 E0.8948
G1 X103.108 Y103.108 E1.3758
G1 X115.392 Y103.108 E1.7895
G1 X114.942 Y103.558 F3000
G92 E0
G1 X114.942 Y116.942 E0.4508 F1440
G1 X103.558 Y116.942 E0.8342
G1 X103.558 Y103.558 E1.2849
G1 X114.942 Y103.558 E1.6683
G1 X114.493 Y104.007 F3000
G92 E0
G1 X114.493 Y116.493 E0.4204 F1440
G1 X104.007 Y116.493 E0.7735
G1 X104.007 Y104.007 E1.1940
G1 X114.493 Y104.007 E1.5471
G1 X114.043 Y104.457 F3000
G92 E0
G1 X114.043 Y116.043 E0.3901 F1440
G1 X104.457 Y116.043 E0.7129
G1 X104.457 Y104.457 E1.1031
G1 X114.043 Y104.457 E1.4258
G1 X113.592 Y104.908 F3000
G92 E0
G1 X113.593 Y115.593 E0.3598 F1440
G1 X104.907 Y115.593 E0.6523
G1 X104.907 Y104.907 E1.0121
G1 X113.593 Y104.907 E1.3046
G1 X113.143 Y105.357 F3000
G92 E0
G1 X113.142 Y115.142 E0.3295 F1440
G1 X105.358 Y115.142 E0.5917
G1 X105.358 Y105.358 E0.9212
G1 X113.142 Y105.358 E1.1834
G1 X112.692 Y105.808 F3000
G92 E0
G1 X112.692 Y114.692 E0.2992 F1440
G1 X105.808 Y114.692 E0.5311
G1 X105.808 Y105.808 E0.8303
G1 X112.692 Y105.808 E1.0621
G1 X112.243 Y106.257 F3000
G92 E0
G1 X112.243 Y114.243 E0.2689 F1440
G1 X106.257 Y114.243 E0.4705
G1 X106.257 Y106.257 E0.7394
G1 X112.243 Y106.257 E0.9409
G1 X111.793 Y106.707 F3000
G92 E0
G1 X111.793 Y113.793 E0.2386 F1440
G1 X106.707 Y113.793 E0.4098
G1 X106.707 Y106.707 E0.6484
G1 X111.793 Y106.707 E0.8197
G1 X111.342 Y107.158 F3000
G92 E0
G1 X111.343 Y113.343 E0.2083 F1440
G1 X107.157 Y113.343 E0.3492
G1 X107.157 Y107.157 E0.5575
G1 X111.343 Y107.157 E0.6984
G1 X110.893 Y107.607 F3000
G92 E0
G1 X110.892 Y112.892 E0.1780 F1440
G1 X107.608 Y112.892 E0.2886
G1 X107.608 Y107.608 E0.4666
G1 X110.892 Y107.608 E0.5772
G1 X110.442 Y108.058 F3000
G92 E0
G1 X110.442 Y112.442 E0.1477 F1440
G1 X108.058 Y112.442 E0.2280
G1 X108.058 Y108.058 E0.3757
G1 X110.442 Y108.058 E0.4560
G1 X109.993 Y108.507 F3000
G92 E0
G1 X109.993 Y111.993 E0.1174 F1440
G1 X108.507 Y111.993 E0.1674
G1 X108.507 Y108.507 E0.2847
G1 X109.993 Y108.507 E0.3347
G1 X109.543 Y108.957 F3000
G92 E0
G1 X109.543 Y111.543 E0.0871 F1440
G1 X108.957 Y111.543 E0.1068
G1 X108.957 Y108.957 E0.1938
G1 X109.543 Y108.957 E0.2135
; layer 3, Z = 0.600
M106 S255
; inner perimeter
G1 X106.205 Y101.375 F3000
G1 Z0.600 F1000
G92 E0
G1 X117.125 Y101.375 E0.3677 F2400
G1 X117.125 Y119.125 E0.9655
G1 X101.375 Y119.125 E1.4959
G1 X101.375 Y101.375 E2.0936
G1 X101.730 Y101.375 E2.1056
G1 X101.730 Y100.875 E2.1224
G1 X102.676 Y100.875 E2.1543
G1 X102.676 Y101.375 E2.1711
G1 X105.780 Y101.375 E2.2756
G1 X105.780 Y100.875 E2.2925
G1 X106.205 Y100.875 E2.3068
G1 X106.205 Y101.375 E2.3236
G1 X106.655 Y100.925 F3000
G92 E0
G1 X109.314 Y100.925 E0.0896 F2400
G1 X109.314 Y100.425 E0.1064
G1 X110.232 Y100.425 E0.1373
G1 X110.232 Y100.925 E0.1541
G1 X119.575 Y100.925 E0.4688
G1 X119.575 Y102.075 E0.5075
G1 X117.575 Y102.075 E0.5748
G1 X117.575 Y118.425 E1.1254
G1 X119.575 Y118.425 E1.1928
G1 X119.575 Y119.575 E1.2315
G1 X100.925 Y119.575 E1.8596
G1 X100.925 Y100.925 E2.4876
