; generated by PrusaSlicer 2.4.2+win64 on 2022-06-18 at 06:24:22 UTC

; 

; external perimeters extrusion width = 0.45mm
; perimeters extrusion width = 0.45mm
; infill extrusion width = 0.45mm
; solid infill extrusion width = 0.45mm
; top infill extrusion width = 0.40mm
; first layer extrusion width = 0.45mm

; external perimeters extrusion width = 0.45mm
; perimeters extrusion width = 0.45mm
; infill extrusion width = 0.45mm
; solid infill extrusion width = 0.45mm
; top infill extrusion width = 0.40mm
; first layer extrusion width = 0.45mm

; external perimeters extrusion width = 0.45mm
; perimeters extrusion width = 0.45mm
; infill extrusion width = 0.45mm
; solid infill extrusion width = 0.45mm
; top infill extrusion width = 0.40mm
; first layer extrusion width = 0.45mm

; external perimeters extrusion width = 0.45mm
; perimeters extrusion width = 0.45mm
; infill extrusion width = 0.45mm
; solid infill extrusion width = 0.45mm
; top infill extrusion width = 0.40mm
; first layer extrusion width = 0.45mm

M107
;TYPE:Custom
M104 S200 ; set extruder temp
M140 S60 ; set bed temp
M190 S60 ; wait for bed temp
M109 S200 ; wait for extruder temp
G28 ; home all axes
G21 ; set units to millimeters
G90 ; use absolute coordinates
M83 ; use relative distances for extrusion
G1 Z5 F3000 ; lift nozzle
G1 X5 Y10 F1500 ; move to prime start point
G1 Z0.3 F3000 ; get ready to prime
;===Pre-load filament start
T0
G1 E20 F120
G0 X5 Y50 F3000
G1 Y250 E15 F1200
G0 X5.5 F3000
G1 Y50 E15 F1200
G0 X6 F3000
G1 Y250 E15 F1200
G0 X6.5 F3000
G1 Y50 E15 F1200
G0 X7 F3000
G1 Y250 E15 F1200
G0 X7.5 F3000
G1 Y50 E15 F1200
G0 X8 F3000
G1 E-80 F3000
T1
G1 E20 F120
G0 X8 Y50 F3000
G1 Y250 E15 F1200
G0 X8.5 F3000
G1 Y50 E15 F1200
G0 X9 F3000
G1 Y250 E15 F1200
G0 X9.5 F3000
G1 Y50 E15 F1200
G0 X10 F3000
G1 Y250 E15 F1200
G0 X10.5 F3000
G1 Y50 E15 F1200
G0 X11 F3000
G1 E-80 F3000
T2
G1 E20 F120
G0 X11 Y50 F3000
G1 Y250 E15 F1200
G0 X11.5 F3000
G1 Y50 E15 F1200
G0 X12 F3000
G1 Y250 E15 F1200
G0 X12.5 F3000
G1 Y50 E15 F600
G0 X13 F3000
G1 Y250 E15 F1200
G0 X13.5 F3000
G1 Y50 E15 F1200
G0 X14 F3000
G1 E-80 F3000
T3
G1 E20 F120
G0 X14 Y50 F3000
G1 Y250 E15 F1200
G0 X14.5 F3000
G1 Y50 E15 F1200
G0 X15 F3000
G1 Y250 E15 F1200
G0 X15.5 F3000
G1 Y50 E15 F1200
G0 X16 F3000
G1 Y250 E15 F1200
G0 X16.5 F3000
G1 Y50 E15 F1200
G0 X17 F3000
G0 Y155 F4800
;===Pre-load filament end
G21 ; set units to millimeters
G90 ; use absolute coordinates
M83 ; use relative distances for extrusion
;Change extruder
G92 E0
G1 E-80 F3000;pull filament
G92 E0
T0
G92 E0
G1 E20 F2100; push filament-1
G92 E0
G1 E25 F1200; pushfilament-2
G92 E0
G1 E20 F1800; pushfilament-3
G92 E0
G1 E15 F600; push filament-4
G92 E0
; Filament gcode
G1 Z.3 F480
M107
;LAYER_CHANGE
;Z:0.3
;HEIGHT:0.3
G92 E0
G1 Z.3 F480
G92 E0
G1 E-8 F1800
G1 Z.8 F480
G1 X184.5 Y195.5 F4800
G1 Z.3 F480
G1 E8 F1800
;HEIGHT:0.3
;TYPE:Wipe tower
;WIDTH:0.5
G1  X184.500 Y233.500  E2.0646 F900
G1  X125.500  E3.2056
G1  Y195.500  E2.0646
G1  X184.500  E3.2056
G1  Y233.500 
G1  X183.500 
;--------------------
; CP EMPTY GRID START
; layer #1
G1  Y233.000  E0.0272
G1  X126.000  E3.1241
G1  Y232.500  E0.0272
G1  X184.000  E3.1513
G1  Y232.000  E0.0272
G1  X126.000  E3.1513
G1  Y231.500  E0.0272
G1  X184.000  E3.1513
G1  Y231.000  E0.0272
G1  X126.000  E3.1513
G1  Y230.500  E0.0272
G1  X184.000  E3.1513
G1  Y230.000  E0.0272
G1  X126.000  E3.1513
G1  Y229.500  E0.0272
G1  X184.000  E3.1513
G1  Y229.000  E0.0272
G1  X126.000  E3.1513
G1  Y228.500  E0.0272
G1  X184.000  E3.1513
G1  Y228.000  E0.0272
G1  X126.000  E3.1513
G1  Y227.500  E0.0272
G1  X184.000  E3.1513
G1  Y227.000  E0.0272
G1  X126.000  E3.1513
G1  Y226.500  E0.0272
G1  X184.000  E3.1513
G1  Y226.000  E0.0272
G1  X126.000  E3.1513
G1  Y225.500  E0.0272
G1  X184.000  E3.1513
G1  Y225.000  E0.0272
G1  X126.000  E3.1513
G1  Y224.500  E0.0272
G1  X184.000  E3.1513
G1  Y224.000  E0.0272
G1  X126.000  E3.1513
G1  Y223.500  E0.0272
G1  X184.000  E3.1513
G1  Y223.000  E0.0272
G1  X126.000  E3.1513
G1  Y222.500  E0.0272
G1  X184.000  E3.1513
G1  Y222.000  E0.0272
G1  X126.000  E3.1513
G1  Y221.500  E0.0272
G1  X184.000  E3.1513
G1  Y221.000  E0.0272
G1  X126.000  E3.1513
G1  Y220.500  E0.0272
G1  X184.000  E3.1513
G1  Y220.000  E0.0272
G1  X126.000  E3.1513
G1  Y219.500  E0.0272
G1  X184.000  E3.1513
G1  Y219.000  E0.0272
G1  X126.000  E3.1513
G1  Y218.500  E0.0272
G1  X184.000  E3.1513
G1  Y218.000  E0.0272
G1  X126.000  E3.1513
G1  Y217.500  E0.0272
G1  X184.000  E3.1513
G1  Y217.000  E0.0272
G1  X126.000  E3.1513
G1  Y216.500  E0.0272
G1  X184.000  E3.1513
G1  Y216.000  E0.0272
G1  X126.000  E3.1513
G1  Y215.500  E0.0272
G1  X184.000  E3.1513
G1  Y215.000  E0.0272
G1  X126.000  E3.1513
G1  Y214.500  E0.0272
G1  X184.000  E3.1513
G1  Y214.000  E0.0272
G1  X126.000  E3.1513
G1  Y213.500  E0.0272
G1  X184.000  E3.1513
G1  Y213.000  E0.0272
G1  X126.000  E3.1513
G1  Y212.500  E0.0272
G1  X184.000  E3.1513
G1  Y212.000  E0.0272
G1  X126.000  E3.1513
G1  Y211.500  E0.0272
G1  X184.000  E3.1513
G1  Y211.000  E0.0272
G1  X126.000  E3.1513
G1  Y210.500  E0.0272
G1  X184.000  E3.1513
G1  Y210.000  E0.0272
G1  X126.000  E3.1513
G1  Y209.500  E0.0272
G1  X184.000  E3.1513
G1  Y209.000  E0.0272
G1  X126.000  E3.1513
G1  Y208.500  E0.0272
G1  X184.000  E3.1513
G1  Y208.000  E0.0272
G1  X126.000  E3.1513
G1  Y207.500  E0.0272
G1  X184.000  E3.1513
G1  Y207.000  E0.0272
G1  X126.000  E3.1513
G1  Y206.500  E0.0272
G1  X184.000  E3.1513
G1  Y206.000  E0.0272
G1  X126.000  E3.1513
G1  Y205.500  E0.0272
G1  X184.000  E3.1513
G1  Y205.000  E0.0272
G1  X126.000  E3.1513
G1  Y204.500  E0.0272
G1  X184.000  E3.1513
G1  Y204.000  E0.0272
G1  X126.000  E3.1513
G1  Y203.500  E0.0272
G1  X184.000  E3.1513
G1  Y203.000  E0.0272
G1  X126.000  E3.1513
G1  Y202.500  E0.0272
G1  X184.000  E3.1513
G1  Y202.000  E0.0272
G1  X126.000  E3.1513
G1  Y201.500  E0.0272
G1  X184.000  E3.1513
G1  Y201.000  E0.0272
G1  X126.000  E3.1513
G1  Y200.500  E0.0272
G1  X184.000  E3.1513
G1  Y200.000  E0.0272
G1  X126.000  E3.1513
G1  Y199.500  E0.0272
G1  X184.000  E3.1513
G1  Y199.000  E0.0272
G1  X126.000  E3.1513
G1  Y198.500  E0.0272
G1  X184.000  E3.1513
G1  Y198.000  E0.0272
G1  X126.000  E3.1513
G1  Y197.500  E0.0272
G1  X184.000  E3.1513
G1  Y197.000  E0.0272
G1  X126.000  E3.1513
G1  Y196.500  E0.0272
G1  X184.000  E3.1513
G1  Y196.000  E0.0272
G1  X126.000  E3.1513
G1  Y195.500  E0.0272
; CP EMPTY GRID END
;------------------






G1  X125.000 
G1  Y195.000 
G1  X185.000  E3.2600
G1  Y234.000  E2.1190
G1  X125.000  E3.2600
G1  Y195.000  E2.1190
G1  X124.564 
G1  Y194.564 
G1  X185.436  E3.3073
G1  Y234.436  E2.1663
G1  X124.564  E3.3073
G1  Y194.564  E2.1663
G1  X124.129 
G1  Y194.129 
G1  X185.871  E3.3546
G1  Y234.871  E2.2137
G1  X124.129  E3.3546
G1  Y194.129  E2.2137
G1  X123.693 
G1  Y193.693 
G1  X186.307  E3.4020
G1  Y235.307  E2.2610
G1  X123.693  E3.4020
G1  Y193.693  E2.2610
G1  X123.258 
G1  Y193.258 
G1  X186.742  E3.4493
G1  Y235.742  E2.3083
G1  X123.258  E3.4493
G1  Y193.258  E2.3083
G1  X122.822 
G1  Y192.822 
G1  X187.178  E3.4967
G1  Y236.178  E2.3557
G1  X122.822  E3.4967
G1  Y192.822  E2.3557

G1 E-8 F1800
G1 Z.8 F480
G1 X149.744 Y159.898 F4800
G1 Z.3 F480
G1 E8 F1800
;TYPE:Skirt/Brim
;WIDTH:0.45
;HEIGHT:0.3
G1 F900
G1 X149.128 Y159.385 E.03858
G1 X148.163 Y158.496 E.06309
G1 X147.262 Y157.549 E.0629
G1 X146.753 Y156.958 E.03749
G1 X146.249 Y156.32 E.0391
G1 X145.762 Y155.652 E.03977
G1 X145.239 Y154.857 E.04576
G1 X144.626 Y153.816 E.0581
G1 X144.014 Y152.598 E.06561
G1 X143.537 Y151.477 E.05859
G1 X143.124 Y150.328 E.05873
G1 X142.781 Y149.148 E.05906
G1 X142.583 Y148.326 E.04068
G1 X142.439 Y147.599 E.03565
G1 X142.25 Y146.27 E.06455
G1 X142.184 Y145.581 E.0333
G1 X142.137 Y144.646 E.04504
G1 X142.136 Y143.497 E.05524
G1 X143.805 Y118.32 E1.21362
G1 X143.911 Y117.599 E.03502
G1 X144.098 Y116.922 E.03377
G1 X144.378 Y116.262 E.03451
G1 X144.737 Y115.657 E.03383
G1 X145.58 Y114.687 E.0618
G1 X146.117 Y114.265 E.03285
G1 X146.698 Y113.909 E.03276
G1 X147.737 Y113.496 E.05381
G1 X149.201 Y113.279 E.07116
G1 X153.938 Y113.279 E.22781
G1 X154.789 Y113.332 E.04105
G1 X155.044 Y113.281 E.0125
G1 X160.29 Y113.28 E.25233
G1 X161.157 Y113.362 E.04187
G1 X161.787 Y113.505 E.03105
G1 X162.739 Y113.878 E.04918
G1 X163.783 Y114.564 E.06007
G1 X164.308 Y115.075 E.03525
G1 X164.742 Y115.622 E.03361
G1 X165.109 Y116.23 E.03416
G1 X165.392 Y116.878 E.03399
G1 X165.683 Y118.12 E.06134
G1 X167.331 Y142.758 E1.18767
G1 X167.37 Y143.658 E.0433
G1 X167.356 Y144.92 E.06074
G1 X167.264 Y146.173 E.06043
G1 X167.088 Y147.45 E.06198
G1 X166.775 Y148.961 E.07423
G1 X166.378 Y150.34 E.06901
G1 X165.882 Y151.699 E.06959
G1 X165.317 Y152.962 E.06652
G1 X164.701 Y154.128 E.06342
G1 X164.247 Y154.884 E.04242
G1 X163.722 Y155.675 E.04568
G1 X163.092 Y156.525 E.05088
G1 X162.336 Y157.444 E.05724
G1 X161.805 Y158.028 E.03794
G1 X161.233 Y158.602 E.03901
G1 X160.358 Y159.402 E.057
G1 X159.895 Y159.79 E.02903
G1 X158.966 Y160.501 E.0563
G1 X157.693 Y161.346 E.07347
G1 X157.097 Y161.687 E.03304
G1 X156.311 Y162.017 E.04099
G1 X155.027 Y162.271 E.06297
G1 X154.128 Y162.235 E.04328
G1 X153.254 Y162.038 E.04308
G1 X152.374 Y161.67 E.04587
G1 X151.506 Y161.156 E.04851
G1 X150.656 Y160.584 E.04926
G1 X149.792 Y159.934 E.052
G1 X150.024 Y159.626 F4800
G1 F900
G1 X149.378 Y159.092 E.04031
G1 X148.429 Y158.217 E.06209
G1 X147.551 Y157.294 E.0613
G1 X147.053 Y156.716 E.03668
G1 X146.559 Y156.09 E.03837
G1 X146.082 Y155.436 E.03892
G1 X145.564 Y154.649 E.04531
G1 X144.968 Y153.637 E.05649
G1 X144.366 Y152.441 E.06442
G1 X143.898 Y151.341 E.0575
G1 X143.489 Y150.203 E.05817
G1 X143.155 Y149.054 E.05755
G1 X142.959 Y148.24 E.04027
G1 X142.818 Y147.529 E.03482
G1 X142.634 Y146.229 E.06318
G1 X142.569 Y145.557 E.03244
G1 X142.523 Y144.641 E.04415
G1 X142.522 Y143.516 E.05408
G1 X144.189 Y118.353 E1.21294
G1 X144.286 Y117.689 E.03224
G1 X144.458 Y117.06 E.03137
G1 X144.717 Y116.447 E.03199
G1 X145.06 Y115.869 E.03236
G1 X145.833 Y114.979 E.05672
G1 X146.329 Y114.588 E.03034
G1 X146.885 Y114.247 E.03138
G1 X147.858 Y113.863 E.0503
G1 X149.215 Y113.665 E.06596
G1 X153.934 Y113.665 E.227
G1 X154.626 Y113.698 E.03332
G1 X154.776 Y113.73 E.00739
G1 X155.067 Y113.667 E.01429
G1 X160.281 Y113.666 E.2508
G1 X161.108 Y113.745 E.03993
G1 X161.687 Y113.877 E.02858
G1 X162.545 Y114.212 E.0443
G1 X163.528 Y114.854 E.05646
G1 X164.014 Y115.325 E.03256
G1 X164.419 Y115.833 E.03126
G1 X164.762 Y116.398 E.03177
G1 X165.02 Y116.985 E.03085
G1 X165.299 Y118.162 E.05817
G1 X166.946 Y142.782 E1.18678
G1 X166.985 Y143.669 E.04272
G1 X166.97 Y144.91 E.05969
G1 X166.88 Y146.139 E.05927
G1 X166.707 Y147.391 E.06078
G1 X166.399 Y148.876 E.07294
G1 X166.01 Y150.227 E.06763
G1 X165.522 Y151.561 E.06829
G1 X164.973 Y152.787 E.06464
G1 X164.368 Y153.934 E.06236
G1 X163.923 Y154.674 E.04154
G1 X163.403 Y155.458 E.04523
G1 X162.791 Y156.284 E.04945
G1 X162.041 Y157.195 E.05677
G1 X161.528 Y157.759 E.03663
G1 X160.969 Y158.321 E.03815
G1 X160.107 Y159.109 E.05617
G1 X159.658 Y159.486 E.02821
G1 X158.736 Y160.191 E.05578
G1 X157.485 Y161.021 E.07224
G1 X156.935 Y161.337 E.03051
G1 X156.215 Y161.643 E.03763
G1 X155.017 Y161.885 E.05876
G1 X154.194 Y161.855 E.03964
G1 X153.386 Y161.675 E.0398
G1 X152.559 Y161.331 E.0431
G1 X151.717 Y160.833 E.04705
G1 X150.876 Y160.267 E.04875
G1 X150.072 Y159.662 E.04837
G1 X150.304 Y159.354 F4800
G1 F900
G1 X149.629 Y158.799 E.04204
G1 X148.704 Y157.947 E.06048
G1 X147.834 Y157.032 E.06076
G1 X147.348 Y156.467 E.03579
G1 X146.864 Y155.854 E.03761
G1 X146.396 Y155.213 E.03817
G1 X145.894 Y154.449 E.04395
G1 X145.303 Y153.447 E.05594
G1 X144.713 Y152.273 E.0632
G1 X144.255 Y151.195 E.05635
G1 X143.854 Y150.078 E.05708
G1 X143.529 Y148.959 E.05604
G1 X143.335 Y148.153 E.03987
G1 X143.198 Y147.46 E.03399
G1 X143.017 Y146.187 E.06183
G1 X142.954 Y145.534 E.03158
G1 X142.909 Y144.635 E.04327
G1 X142.907 Y143.535 E.05291
G1 X144.574 Y118.385 E1.21228
G1 X144.661 Y117.778 E.02949
G1 X144.818 Y117.198 E.02892
G1 X145.067 Y116.61 E.03069
G1 X145.382 Y116.081 E.02961
G1 X146.086 Y115.27 E.05167
G1 X146.558 Y114.898 E.0289
G1 X147.071 Y114.585 E.0289
G1 X147.977 Y114.23 E.0468
G1 X149.228 Y114.05 E.06079
G1 X153.93 Y114.051 E.22613
G1 X154.586 Y114.082 E.03162
G1 X154.774 Y114.128 E.00928
G1 X155.091 Y114.052 E.0157
G1 X160.272 Y114.051 E.24917
G1 X161.058 Y114.127 E.03797
G1 X161.586 Y114.25 E.02611
G1 X162.352 Y114.547 E.0395
G1 X163.274 Y115.144 E.05284
G1 X163.721 Y115.576 E.02988
G1 X164.096 Y116.045 E.02891
G1 X164.414 Y116.566 E.02933
G1 X164.661 Y117.124 E.02936
G1 X164.915 Y118.203 E.05333
G1 X166.561 Y142.805 E1.18591
G1 X166.599 Y143.68 E.04214
G1 X166.585 Y144.888 E.05807
G1 X166.497 Y146.093 E.05811
G1 X166.328 Y147.319 E.05954
G1 X166.026 Y148.776 E.07158
G1 X165.645 Y150.101 E.06631
G1 X165.168 Y151.409 E.06699
G1 X164.629 Y152.613 E.0634
G1 X164.029 Y153.749 E.0618
G1 X163.599 Y154.465 E.04016
G1 X163.09 Y155.232 E.04429
G1 X162.484 Y156.05 E.04897
G1 X161.752 Y156.939 E.05538
G1 X161.252 Y157.49 E.03578
G1 X160.699 Y158.046 E.03772
G1 X159.85 Y158.822 E.05531
G1 X159.413 Y159.188 E.0274
G1 X158.518 Y159.873 E.05424
G1 X157.277 Y160.696 E.07162
G1 X156.752 Y160.997 E.02908
G1 X156.117 Y161.27 E.03326
G1 X155.008 Y161.499 E.05448
G1 X154.225 Y161.47 E.03765
G1 X153.518 Y161.312 E.03487
G1 X152.743 Y160.992 E.04033
G1 X151.927 Y160.509 E.04558
G1 X151.104 Y159.956 E.04773
G1 X150.352 Y159.39 E.04524
G1 X150.584 Y159.082 F4800
G1 F900
G1 X149.88 Y158.506 E.04376
G1 X148.979 Y157.676 E.05888
G1 X148.116 Y156.769 E.06022
G1 X147.643 Y156.219 E.03489
G1 X147.169 Y155.618 E.03685
G1 X146.711 Y154.989 E.03741
G1 X146.224 Y154.25 E.0426
G1 X145.639 Y153.257 E.0554
G1 X145.061 Y152.106 E.06197
G1 X144.612 Y151.049 E.0552
G1 X144.219 Y149.953 E.056
G1 X143.903 Y148.864 E.05454
G1 X143.71 Y148.067 E.03946
G1 X143.577 Y147.39 E.03316
G1 X143.401 Y146.145 E.06048
G1 X143.338 Y145.51 E.03072
G1 X143.294 Y144.63 E.04238
G1 X143.292 Y143.554 E.05173
G1 X144.958 Y118.418 E1.21161
G1 X145.037 Y117.867 E.02679
G1 X145.179 Y117.334 E.0265
G1 X145.405 Y116.796 E.02808
G1 X145.705 Y116.294 E.02812
G1 X146.34 Y115.561 E.04666
G1 X146.769 Y115.221 E.02634
G1 X147.257 Y114.923 E.02748
G1 X148.095 Y114.597 E.04325
G1 X149.241 Y114.436 E.05567
G1 X153.925 Y114.436 E.22527
G1 X154.543 Y114.466 E.02977
G1 X154.769 Y114.529 E.01128
G1 X155.118 Y114.438 E.01732
G1 X160.262 Y114.437 E.24743
G1 X161.007 Y114.51 E.03598
G1 X161.485 Y114.622 E.02364
G1 X162.16 Y114.882 E.03479
G1 X163.021 Y115.436 E.04921
G1 X163.428 Y115.827 E.02719
G1 X163.774 Y116.258 E.02656
G1 X164.067 Y116.733 E.02685
G1 X164.301 Y117.264 E.02787
G1 X164.532 Y118.245 E.04849
G1 X166.176 Y142.829 E1.18504
G1 X166.214 Y143.692 E.04155
G1 X166.2 Y144.866 E.05646
G1 X166.114 Y146.046 E.05694
G1 X165.949 Y147.247 E.05831
G1 X165.654 Y148.677 E.07021
G1 X165.281 Y149.975 E.06498
G1 X164.813 Y151.258 E.06568
G1 X164.285 Y152.438 E.06216
G1 X163.691 Y153.564 E.06124
G1 X163.275 Y154.255 E.03879
G1 X162.778 Y155.007 E.04335
G1 X162.177 Y155.817 E.04849
G1 X161.464 Y156.684 E.05399
G1 X160.976 Y157.221 E.03493
G1 X160.429 Y157.771 E.03729
G1 X159.593 Y158.534 E.05444
G1 X159.169 Y158.889 E.02659
G1 X158.299 Y159.555 E.0527
G1 X157.069 Y160.372 E.071
G1 X156.57 Y160.657 E.02767
G1 X156.018 Y160.897 E.02896
G1 X154.996 Y161.113 E.05021
G1 X154.29 Y161.09 E.03398
G1 X153.649 Y160.949 E.03159
G1 X152.927 Y160.653 E.03751
G1 X152.138 Y160.186 E.04411
G1 X151.331 Y159.645 E.04672
G1 X150.632 Y159.118 E.0421
G1 X150.863 Y158.81 F4800
G1 F900
G1 X150.13 Y158.213 E.04548
G1 X149.254 Y157.406 E.05728
G1 X148.399 Y156.507 E.05967
G1 X147.939 Y155.971 E.03399
G1 X147.474 Y155.382 E.03609
G1 X147.025 Y154.766 E.03666
G1 X146.553 Y154.05 E.04125
G1 X145.975 Y153.067 E.05485
G1 X145.408 Y151.938 E.06074
G1 X144.969 Y150.904 E.05406
G1 X144.584 Y149.829 E.05492
G1 X144.277 Y148.77 E.05304
G1 X144.086 Y147.98 E.03905
G1 X143.957 Y147.321 E.03233
G1 X143.784 Y146.104 E.05914
G1 X143.723 Y145.486 E.02987
