; G-Code generated by Simplify3D(R) Version 4.0.0
; Jun 29, 2018 at 10:07:31 AM
; Settings Summary
;   processName,Color1
;   applyToModels,cupcake_bottom
;   profileName,ZONESTAR Dual Extruder 3D Printer(300x300x400) (modified)
;   profileVersion,2018-06-15 11:14:19
;   baseProfile,Default
;   printMaterial,PLA
;   printQuality,Medium
;   printExtruders,All Extruders
;   extruderName,Extruder 1,Extruder 2
;   extruderToolheadNumber,0,1
;   extruderDiameter,0.4,0.4
;   extruderAutoWidth,0,0
;   extruderWidth,0.48,0.48
;   extrusionMultiplier,0.9,0.9
;   extruderUseRetract,1,1
;   extruderRetractionDistance,10,10
;   extruderExtraRestartDistance,0,0
;   extruderRetractionZLift,0,0
;   extruderRetractionSpeed,1500,1500
;   extruderUseCoasting,0,0
;   extruderCoastingDistance,0.2,0.2
;   extruderUseWipe,1,1
;   extruderWipeDistance,3,3
;   primaryExtruder,0
;   layerHeight,0.2
;   topSolidLayers,3
;   bottomSolidLayers,3
;   perimeterOutlines,3
;   printPerimetersInsideOut,1
;   startPointOption,2
;   startPointOriginX,0
;   startPointOriginY,0
;   sequentialIslands,0
;   spiralVaseMode,0
;   firstLayerHeightPercentage,120
;   firstLayerWidthPercentage,100
;   firstLayerUnderspeed,0.5
;   useRaft,1
;   raftExtruder,0
;   raftTopLayers,2
;   raftBaseLayers,2
;   raftOffset,3
;   raftSeparationDistance,0.14
;   raftTopInfill,100
;   aboveRaftSpeedMultiplier,0.3
;   useSkirt,0
;   skirtExtruder,0
;   skirtLayers,1
;   skirtOutlines,2
;   skirtOffset,4
;   usePrimePillar,1
;   primePillarExtruder,999
;   primePillarWidth,12
;   primePillarLocation,7
;   primePillarSpeedMultiplier,1
;   useOozeShield,0
;   oozeShieldExtruder,999
;   oozeShieldOffset,2
;   oozeShieldOutlines,1
;   oozeShieldSidewallShape,1
;   oozeShieldSidewallAngle,30
;   oozeShieldSpeedMultiplier,1
;   infillExtruder,0
;   internalInfillPattern,Rectilinear
;   externalInfillPattern,Rectilinear
;   infillPercentage,20
;   outlineOverlapPercentage,15
;   infillExtrusionWidthPercentage,100
;   minInfillLength,5
;   infillLayerInterval,1
;   internalInfillAngles,45,-45
;   overlapInternalInfillAngles,0
;   externalInfillAngles,45,-45
;   generateSupport,0
;   supportExtruder,0
;   supportInfillPercentage,30
;   supportExtraInflation,0
;   supportBaseLayers,0
;   denseSupportExtruder,0
;   denseSupportLayers,0
;   denseSupportInfillPercentage,70
;   supportLayerInterval,1
;   supportHorizontalPartOffset,0.3
;   supportUpperSeparationLayers,1
;   supportLowerSeparationLayers,1
;   supportType,0
;   supportGridSpacing,4
;   maxOverhangAngle,45
;   supportAngles,0
;   temperatureName,Extruder 1,Extruder 2,Heated Bed
;   temperatureNumber,0,1,0
;   temperatureSetpointCount,1,1,1
;   temperatureSetpointLayers,1,1,1
;   temperatureSetpointTemperatures,190,190,60
;   temperatureStabilizeAtStartup,1,1,1
;   temperatureHeatedBed,0,0,1
;   temperatureRelayBetweenLayers,0,0,0
;   temperatureRelayBetweenLoops,0,0,0
;   fanLayers,1,2
;   fanSpeeds,0,100
;   blipFanToFullPower,0
;   adjustSpeedForCooling,1
;   minSpeedLayerTime,15
;   minCoolingSpeedSlowdown,20
;   increaseFanForCooling,0
;   minFanLayerTime,45
;   maxCoolingFanSpeed,100
;   increaseFanForBridging,0
;   bridgingFanSpeed,100
;   use5D,1
;   relativeEdistances,1
;   allowEaxisZeroing,1
;   independentExtruderAxes,0
;   includeM10123,0
;   stickySupport,1
;   applyToolheadOffsets,0
;   gcodeXoffset,0
;   gcodeYoffset,0
;   gcodeZoffset,0
;   overrideMachineDefinition,1
;   machineTypeOverride,0
;   strokeXoverride,300
;   strokeYoverride,300
;   strokeZoverride,400
;   originOffsetXoverride,0
;   originOffsetYoverride,0
;   originOffsetZoverride,0
;   homeXdirOverride,-1
;   homeYdirOverride,-1
;   homeZdirOverride,-1
;   flipXoverride,1
;   flipYoverride,-1
;   flipZoverride,1
;   toolheadOffsets,0,0|0,0|0,0|0,0|0,0|0,0
;   overrideFirmwareConfiguration,1
;   firmwareTypeOverride,RepRap (Marlin/Repetier/Sprinter)
;   GPXconfigOverride,r2
;   baudRateOverride,115200
;   overridePrinterModels,0
;   printerModelsOverride
;   startingGcode,G1 Z5 F120,G28 ; home all axes
;   layerChangeGcode,
;   retractionGcode,
;   toolChangeGcode,
;   endingGcode,M104 S0 ; turn off extruder,M140 S0 ; turn off bed,M84 ; disable motors
;   exportFileFormat,gcode
;   celebration,0
;   celebrationSong,Random Song
;   postProcessing,
;   defaultSpeed,2400
;   outlineUnderspeed,0.5
;   solidInfillUnderspeed,0.8
;   supportUnderspeed,0.8
;   rapidXYspeed,3600
;   rapidZspeed,1002
;   minBridgingArea,50
;   bridgingExtraInflation,0
;   bridgingExtrusionMultiplier,1
;   bridgingSpeedMultiplier,1
;   useFixedBridgingAngle,0
;   fixedBridgingAngle,0
;   applyBridgingToPerimeters,0
;   filamentDiameters,1.75|1.75|1.75|1.75|1.75|1.75
;   filamentPricesPerKg,46|46|46|46|46|46
;   filamentDensities,1.25|1.25|1.25|1.25|1.25|1.25
;   useMinPrintHeight,0
;   minPrintHeight,0
;   useMaxPrintHeight,0
;   maxPrintHeight,0
;   useDiaphragm,0
;   diaphragmLayerInterval,20
;   robustSlicing,1
;   mergeAllIntoSolid,0
;   onlyRetractWhenCrossingOutline,1
;   retractBetweenLayers,1
;   useRetractionMinTravel,0
;   retractionMinTravel,3
;   retractWhileWiping,0
;   onlyWipeOutlines,1
;   avoidCrossingOutline,0
;   maxMovementDetourFactor,3
;   toolChangeRetractionDistance,12
;   toolChangeExtraRestartDistance,-0.5
;   toolChangeRetractionSpeed,600
;   externalThinWallType,0
;   internalThinWallType,2
;   thinWallAllowedOverlapPercentage,10
;   singleExtrusionMinLength,1
;   singleExtrusionMinPrintingWidthPercentage,50
;   singleExtrusionMaxPrintingWidthPercentage,200
;   singleExtrusionEndpointExtension,0.2
;   horizontalSizeCompensation,0
G90
M83
M106 S0
M140 S60
M190 S60
M104 S190 T0
M104 S190 T1
M109 S190 T0
M109 S190 T1
G1 Z5 F120
G28 ; home all axes
G1 E-10.0000 F1500
G1 Z0.600 F1002
; process Color2
; layer 1, Z = 0.600
T0
; tool H0.600 W0.800
; raft
G1 X140.116 Y137.027 F3600
G1 E16.0000 F900
G1 X140.550 Y136.694 E0.0981 F300
G1 X140.858 Y136.518 E0.0637
G1 X141.288 Y136.345 E0.0834
G1 X141.645 Y136.257 E0.0660
G1 X142.143 Y136.206 E0.0900
G1 X142.476 Y136.215 E0.0599
G1 X142.797 Y136.266 E0.0583
G1 X142.949 Y136.299 E0.0279
G1 X144.045 Y136.608 E0.2045
G1 X144.558 Y135.566 E0.2086
G1 X144.673 Y135.377 E0.0398
G1 X144.918 Y135.040 E0.0748
G1 X145.134 Y134.808 E0.0570
G1 X145.446 Y134.546 E0.0732
G1 X145.746 Y134.357 E0.0635
G1 X146.292 Y134.109 E0.1077
G1 X146.780 Y133.992 E0.0902
G1 X147.438 Y133.965 E0.1182
G1 X147.902 Y134.029 E0.0842
G1 X148.426 Y134.202 E0.0991
G1 X148.727 Y134.346 E0.0600
G1 X149.000 Y134.522 E0.0583
G1 X149.125 Y134.614 E0.0279
G1 X150.003 Y135.345 E0.2052
G1 X150.994 Y134.524 E0.2311
G1 X151.265 Y134.351 E0.0577
G1 X151.623 Y134.180 E0.0712
G1 X151.926 Y134.079 E0.0575
G1 X152.396 Y133.984 E0.0861
G1 X152.746 Y133.962 E0.0631
G1 X153.170 Y133.992 E0.0762
G1 X153.461 Y134.046 E0.0532
G1 X153.873 Y134.173 E0.0774
G1 X154.201 Y134.326 E0.0651
G1 X154.663 Y134.627 E0.0990
G1 X154.986 Y134.925 E0.0790
G1 X155.292 Y135.321 E0.0899
G1 X155.429 Y135.541 E0.0464
G1 X155.955 Y136.608 E0.2137
G1 X157.072 Y136.292 E0.2086
G1 X157.290 Y136.251 E0.0398
G1 X157.777 Y136.200 E0.0880
G1 X158.241 Y136.234 E0.0834
G1 X158.853 Y136.391 E0.1135
G1 X159.267 Y136.580 E0.0818
G1 X159.718 Y136.889 E0.0982
G1 X159.981 Y137.127 E0.0637
G1 X160.279 Y137.483 E0.0834
G1 X160.472 Y137.795 E0.0659
G1 X160.674 Y138.253 E0.0900
G1 X160.769 Y138.574 E0.0600
G1 X160.820 Y138.894 E0.0583
G1 X160.836 Y139.049 E0.0279
G1 X160.880 Y140.190 E0.2052
G1 X162.154 Y140.377 E0.2311
G1 X162.463 Y140.463 E0.0577
G1 X162.830 Y140.615 E0.0712
G1 X163.108 Y140.773 E0.0575
G1 X163.492 Y141.058 E0.0860
G1 X163.744 Y141.303 E0.0630
G1 X164.005 Y141.638 E0.0763
G1 X164.160 Y141.891 E0.0533
G1 X164.341 Y142.282 E0.0774
G1 X164.446 Y142.629 E0.0650
G1 X164.532 Y143.173 E0.0989
G1 X164.527 Y143.612 E0.0789
G1 X164.437 Y144.105 E0.0899
G1 X164.365 Y144.353 E0.0465
G1 X163.924 Y145.459 E0.2137
G1 X164.906 Y146.078 E0.2085
G1 X165.083 Y146.212 E0.0399
G1 X165.447 Y146.540 E0.0880
G1 X165.732 Y146.907 E0.0834
G1 X166.024 Y147.467 E0.1136
G1 X166.162 Y147.901 E0.0818
G1 X166.234 Y148.443 E0.0982
G1 X166.232 Y148.798 E0.0637
G1 X166.167 Y149.257 E0.0833
G1 X166.065 Y149.610 E0.0660
G1 X165.859 Y150.067 E0.0900
G1 X165.684 Y150.352 E0.0600
G1 X165.481 Y150.604 E0.0583
G1 X165.376 Y150.719 E0.0279
G1 X164.558 Y151.516 E0.2051
G1 X165.271 Y152.587 E0.2311
G1 X165.414 Y152.875 E0.0577
G1 X165.547 Y153.248 E0.0712
G1 X165.616 Y153.561 E0.0575
G1 X165.666 Y154.090 E0.0954
G1 X165.629 Y154.543 E0.0817
G1 X165.465 Y155.175 E0.1173
G1 X165.242 Y155.636 E0.0919
G1 X164.833 Y156.178 E0.1220
G1 X164.474 Y156.504 E0.0871
G1 X164.028 Y156.778 E0.0940
G1 X163.796 Y156.892 E0.0464
G1 X162.679 Y157.303 E0.2137
G1 X162.876 Y158.448 E0.2085
G1 X162.895 Y158.668 E0.0398
G1 X162.895 Y159.158 E0.0880
G1 X162.813 Y159.616 E0.0835
G1 X162.592 Y160.208 E0.1136
G1 X162.361 Y160.601 E0.0818
G1 X162.007 Y161.017 E0.0981
G1 X161.742 Y161.253 E0.0637
G1 X161.401 Y161.482 E0.0739
G1 X161.170 Y161.606 E0.0470
G1 X160.821 Y161.750 E0.0679
G1 X160.496 Y161.837 E0.0604
G1 X160.051 Y161.897 E0.0806
G1 X159.793 Y161.906 E0.0464
G1 X158.606 Y161.828 E0.2137
G1 X158.320 Y162.953 E0.2085
G1 X158.247 Y163.163 E0.0399
G1 X158.078 Y163.543 E0.0748
G1 X157.914 Y163.815 E0.0570
G1 X157.664 Y164.136 E0.0732
G1 X157.410 Y164.383 E0.0635
G1 X156.928 Y164.739 E0.1077
G1 X156.474 Y164.955 E0.0903
G1 X155.837 Y165.119 E0.1182
G1 X155.369 Y165.152 E0.0842
G1 X154.821 Y165.092 E0.0990
G1 X154.497 Y165.014 E0.0599
G1 X154.193 Y164.898 E0.0583
G1 X154.052 Y164.834 E0.0279
G1 X153.041 Y164.302 E0.2052
G1 X152.242 Y165.311 E0.2311
G1 X152.013 Y165.537 E0.0578
G1 X151.698 Y165.778 E0.0712
G1 X151.423 Y165.940 E0.0574
G1 X150.983 Y166.130 E0.0861
G1 X150.645 Y166.225 E0.0631
G1 X150.224 Y166.284 E0.0763
G1 X149.928 Y166.291 E0.0532
G1 X149.499 Y166.253 E0.0774
G1 X149.146 Y166.171 E0.0650
G1 X148.632 Y165.973 E0.0990
G1 X148.254 Y165.749 E0.0790
G1 X147.872 Y165.425 E0.0899
G1 X147.693 Y165.238 E0.0464
G1 X146.956 Y164.304 E0.2137
G1 X145.928 Y164.845 E0.2086
G1 X145.724 Y164.931 E0.0398
G1 X145.329 Y165.059 E0.0747
G1 X145.017 Y165.120 E0.0570
G1 X144.610 Y165.149 E0.0732
G1 X144.257 Y165.125 E0.0635
G1 X143.670 Y165.005 E0.1078
G1 X143.206 Y164.812 E0.0902
G1 X142.658 Y164.448 E0.1182
G1 X142.320 Y164.123 E0.0842
G1 X141.997 Y163.675 E0.0991
G1 X141.838 Y163.382 E0.0599
G1 X141.722 Y163.079 E0.0583
G1 X141.674 Y162.931 E0.0279
G1 X141.393 Y161.824 E0.2051
G1 X140.109 Y161.906 E0.2311
G1 X139.789 Y161.886 E0.0577
G1 X139.399 Y161.814 E0.0712
G1 X139.094 Y161.718 E0.0575
G1 X138.658 Y161.518 E0.0861
G1 X138.361 Y161.330 E0.0630
G1 X138.036 Y161.057 E0.0763
G1 X137.832 Y160.842 E0.0533
G1 X137.573 Y160.497 E0.0774
G1 X137.398 Y160.180 E0.0650
G1 X137.201 Y159.666 E0.0990
G1 X137.115 Y159.235 E0.0789
G1 X137.101 Y158.734 E0.0899
G1 X137.119 Y158.476 E0.0465
G1 X137.321 Y157.304 E0.2137
G1 X136.231 Y156.902 E0.2085
G1 X136.030 Y156.808 E0.0398
G1 X135.670 Y156.599 E0.0747
G1 X135.417 Y156.408 E0.0570
G1 X135.123 Y156.125 E0.0732
G1 X134.904 Y155.848 E0.0635
G1 X134.600 Y155.330 E0.1078
G1 X134.433 Y154.856 E0.0903
G1 X134.337 Y154.205 E0.1182
G1 X134.353 Y153.737 E0.0842
G1 X134.470 Y153.198 E0.0991
G1 X134.581 Y152.883 E0.0600
G1 X134.728 Y152.594 E0.0583
G1 X134.807 Y152.460 E0.0279
G1 X135.441 Y151.510 E0.2051
G1 X134.522 Y150.611 E0.2311
G1 X134.321 Y150.359 E0.0577
G1 X134.114 Y150.021 E0.0712
G1 X133.982 Y149.730 E0.0575
G1 X133.838 Y149.273 E0.0861
G1 X133.779 Y148.926 E0.0631
G1 X133.765 Y148.502 E0.0762
G1 X133.788 Y148.207 E0.0532
G1 X133.871 Y147.784 E0.0774
G1 X133.990 Y147.442 E0.0651
G1 X134.240 Y146.951 E0.0990
G1 X134.503 Y146.598 E0.0790
G1 X134.865 Y146.253 E0.0899
G1 X135.069 Y146.094 E0.0464
G1 X136.078 Y145.457 E0.2142
G1 X135.595 Y144.243 E0.2348
G1 X135.507 Y143.864 E0.0699
G1 X135.463 Y143.310 E0.0997
G1 X135.500 Y142.881 E0.0774
G1 X135.630 Y142.372 E0.0944
G1 X135.746 Y142.076 E0.0571
G1 X135.934 Y141.728 E0.0711
G1 X136.131 Y141.455 E0.0603
G1 X136.472 Y141.092 E0.0895
G1 X136.732 Y140.878 E0.0606
G1 X137.072 Y140.665 E0.0720
G1 X137.364 Y140.530 E0.0578
G1 X137.764 Y140.401 E0.0754
G1 X137.976 Y140.352 E0.0391
G1 X139.120 Y140.186 E0.2076
G1 X139.165 Y139.026 E0.2085
G1 X139.193 Y138.806 E0.0398
G1 X139.294 Y138.327 E0.0880
G1 X139.470 Y137.897 E0.0835
G1 X139.809 Y137.363 E0.1136
G1 X140.116 Y137.027 E0.0817
G1 E-10.0000 F1500
G1 X129.630 Y170.353 F3600
G1 E10.0000 F1500
G1 X129.630 Y187.553 E3.0892 F300
G1 X112.430 Y187.553 E3.0892
G1 X112.430 Y170.353 E3.0892
G1 X129.630 Y170.353 E3.0892
G1 E-10.0000 F1500
G1 X128.830 Y186.571 F3600
G1 E10.0000 F1500
G1 X113.230 Y186.571 E2.8018 F300
G1 X113.230 Y184.286 E0.4105
G1 X128.830 Y184.286 E2.8018
G1 X128.830 Y182.000 E0.4105
G1 X113.230 Y182.000 E2.8018
G1 X113.230 Y179.714 E0.4105
G1 X128.830 Y179.714 E2.8018
G1 X128.830 Y177.429 E0.4105
G1 X113.230 Y177.429 E2.8018
G1 X113.230 Y175.143 E0.4105
G1 X128.830 Y175.143 E2.8018
G1 X128.830 Y172.857 E0.4105
G1 X113.230 Y172.857 E2.8018
G1 E-10.0000 F1500
G1 X156.950 Y163.714 F3600
G1 E10.0000 F1500
G1 X153.641 Y163.714 E0.5943 F300
G1 X152.826 Y163.285 E0.1656
G1 X152.486 Y163.714 E0.0983
G1 X147.510 Y163.714 E0.8937
G1 X147.172 Y163.286 E0.0979
G1 X146.359 Y163.714 E0.1651
G1 X143.049 Y163.714 E0.5945
G1 X142.927 Y163.597 E0.0304
G1 X142.676 Y163.249 E0.0769
G1 X142.566 Y163.046 E0.0415
G1 X142.477 Y162.813 E0.0448
G1 X142.444 Y162.711 E0.0193
G1 X142.118 Y161.429 E0.2376
G1 X157.882 Y161.429 E2.8312
G1 X157.994 Y160.986 E0.0820
G1 X159.806 Y161.105 E0.3261
G1 X159.985 Y161.099 E0.0321
G1 X160.339 Y161.051 E0.0642
G1 X160.564 Y160.991 E0.0418
G1 X160.828 Y160.882 E0.0513
G1 X160.988 Y160.796 E0.0326
G1 X161.250 Y160.620 E0.0568
G1 X161.433 Y160.456 E0.0441
G1 X161.707 Y160.135 E0.0758
G1 X161.867 Y159.863 E0.0566
G1 X162.038 Y159.403 E0.0882
G1 X162.085 Y159.143 E0.0475
G1 X137.913 Y159.143 E4.3414
G1 X137.902 Y158.751 E0.0704
G1 X137.914 Y158.573 E0.0322
G1 X138.209 Y156.857 E0.3126
G1 X161.791 Y156.857 E4.2354
G1 X161.778 Y156.783 E0.0135
G1 X163.482 Y156.155 E0.3261
G1 X163.643 Y156.076 E0.0321
G1 X163.991 Y155.862 E0.0735
G1 X164.239 Y155.636 E0.0603
G1 X164.556 Y155.216 E0.0945
G1 X164.710 Y154.898 E0.0636
G1 X164.795 Y154.571 E0.0605
G1 X135.200 Y154.571 E5.3155
G1 X135.139 Y154.160 E0.0747
G1 X135.150 Y153.836 E0.0583
G1 X135.241 Y153.418 E0.0769
G1 X135.318 Y153.200 E0.0415
G1 X135.431 Y152.977 E0.0448
G1 X135.485 Y152.884 E0.0193
G1 X135.885 Y152.286 E0.1293
G1 X164.109 Y152.286 E5.0691
G1 X163.524 Y151.406 E0.1897
G1 X164.801 Y150.163 E0.3201
G1 X164.873 Y150.083 E0.0193
G1 X164.940 Y150.000 E0.0192
G1 X135.058 Y150.000 E5.3670
G1 X134.978 Y149.899 E0.0231
G1 X134.822 Y149.645 E0.0535
G1 X134.730 Y149.444 E0.0398
G1 X134.618 Y149.085 E0.0675
G1 X134.577 Y148.845 E0.0437
G1 X134.566 Y148.520 E0.0583
G1 X134.582 Y148.316 E0.0369
G1 X134.646 Y147.993 E0.0592
G1 X134.728 Y147.756 E0.0450
G1 X134.749 Y147.714 E0.0083
G1 X165.251 Y147.714 E5.4783
G1 X165.056 Y147.341 E0.0757
G1 X164.859 Y147.086 E0.0577
G1 X164.573 Y146.829 E0.0690
G1 X164.451 Y146.737 E0.0276
G1 X162.935 Y145.780 E0.3219
G1 X163.075 Y145.429 E0.0680
G1 X136.927 Y145.429 E4.6962
G1 X136.361 Y144.003 E0.2756
G1 X136.300 Y143.741 E0.0484
G1 X136.266 Y143.313 E0.0770
G1 X136.280 Y143.143 E0.0307
G1 X163.718 Y143.143 E4.9279
G1 X163.665 Y142.808 E0.0608
G1 X163.592 Y142.569 E0.0450
G1 X163.453 Y142.270 E0.0592
G1 X163.346 Y142.094 E0.0369
G1 X163.146 Y141.838 E0.0584
G1 X162.972 Y141.668 E0.0436
G1 X162.671 Y141.444 E0.0675
G1 X162.478 Y141.335 E0.0398
G1 X162.203 Y141.221 E0.0535
G1 X161.988 Y141.162 E0.0400
G1 X160.107 Y140.885 E0.3415
G1 X160.106 Y140.857 E0.0050
G1 X139.894 Y140.857 E3.6302
G1 X139.963 Y139.092 E0.3173
G1 X139.982 Y138.939 E0.0276
G1 X140.060 Y138.571 E0.0675
G1 X159.934 Y138.571 E3.5694
G1 X159.922 Y138.529 E0.0079
G1 X159.763 Y138.169 E0.0706
G1 X159.629 Y137.953 E0.0456
G1 X159.402 Y137.683 E0.0634
G1 X159.221 Y137.518 E0.0441
G1 X158.873 Y137.279 E0.0758
G1 X158.586 Y137.149 E0.0566
