; G-Code generated by Simplify3D(R) Version 4.0.0
; Jun 29, 2018 at 10:02:14 AM
; Settings Summary
;   processName,Process1-1-1
;   applyToModels,xyzCalibration_cube
;   profileName,ZONESTAR Single Extruder 3D Printer(220x220x220) (modified)
;   profileVersion,2018-06-19 15:43:09
;   baseProfile,Default (modified)
;   printMaterial,PLA
;   printQuality,Medium
;   printExtruders,
;   extruderName,Primary Extruder
;   extruderToolheadNumber,0
;   extruderDiameter,0.4
;   extruderAutoWidth,0
;   extruderWidth,0.42
;   extrusionMultiplier,0.9
;   extruderUseRetract,1
;   extruderRetractionDistance,20
;   extruderExtraRestartDistance,0.1
;   extruderRetractionZLift,0
;   extruderRetractionSpeed,3000
;   extruderUseCoasting,0
;   extruderCoastingDistance,0.1
;   extruderUseWipe,1
;   extruderWipeDistance,1.5
;   primaryExtruder,0
;   layerHeight,0.2
;   topSolidLayers,3
;   bottomSolidLayers,3
;   perimeterOutlines,3
;   printPerimetersInsideOut,1
;   startPointOption,2
;   startPointOriginX,0
;   startPointOriginY,220
;   sequentialIslands,0
;   spiralVaseMode,0
;   firstLayerHeightPercentage,100
;   firstLayerWidthPercentage,100
;   firstLayerUnderspeed,0.6
;   useRaft,0
;   raftExtruder,0
;   raftTopLayers,3
;   raftBaseLayers,2
;   raftOffset,3
;   raftSeparationDistance,0.14
;   raftTopInfill,100
;   aboveRaftSpeedMultiplier,0.3
;   useSkirt,1
;   skirtExtruder,0
;   skirtLayers,1
;   skirtOutlines,5
;   skirtOffset,0
;   usePrimePillar,0
;   primePillarExtruder,999
;   primePillarWidth,12
;   primePillarLocation,7
;   primePillarSpeedMultiplier,1
;   useOozeShield,0
;   oozeShieldExtruder,999
;   oozeShieldOffset,2
;   oozeShieldOutlines,1
;   oozeShieldSidewallShape,1
;   oozeShieldSidewallAngle,30
;   oozeShieldSpeedMultiplier,1
;   infillExtruder,0
;   internalInfillPattern,Fast Honeycomb
;   externalInfillPattern,Rectilinear
;   infillPercentage,40
;   outlineOverlapPercentage,15
;   infillExtrusionWidthPercentage,90
;   minInfillLength,5
;   infillLayerInterval,1
;   internalInfillAngles,0
;   overlapInternalInfillAngles,0
;   externalInfillAngles,45,-45
;   generateSupport,0
;   supportExtruder,0
;   supportInfillPercentage,30
;   supportExtraInflation,0
;   supportBaseLayers,0
;   denseSupportExtruder,0
;   denseSupportLayers,0
;   denseSupportInfillPercentage,70
;   supportLayerInterval,1
;   supportHorizontalPartOffset,0.3
;   supportUpperSeparationLayers,1
;   supportLowerSeparationLayers,1
;   supportType,0
;   supportGridSpacing,4
;   maxOverhangAngle,45
;   supportAngles,0
;   temperatureName,Primary Extruder,bed
;   temperatureNumber,0,0
;   temperatureSetpointCount,1,1
;   temperatureSetpointLayers,1,1
;   temperatureSetpointTemperatures,195,50
;   temperatureStabilizeAtStartup,1,1
;   temperatureHeatedBed,0,1
;   temperatureRelayBetweenLayers,0,0
;   temperatureRelayBetweenLoops,0,0
;   fanLayers,1,2,3
;   fanSpeeds,0,60,100
;   blipFanToFullPower,0
;   adjustSpeedForCooling,1
;   minSpeedLayerTime,15
;   minCoolingSpeedSlowdown,40
;   increaseFanForCooling,0
;   minFanLayerTime,45
;   maxCoolingFanSpeed,100
;   increaseFanForBridging,0
;   bridgingFanSpeed,100
;   use5D,1
;   relativeEdistances,1
;   allowEaxisZeroing,1
;   independentExtruderAxes,0
;   includeM10123,0
;   stickySupport,1
;   applyToolheadOffsets,0
;   gcodeXoffset,0
;   gcodeYoffset,0
;   gcodeZoffset,0
;   overrideMachineDefinition,1
;   machineTypeOverride,0
;   strokeXoverride,220
;   strokeYoverride,220
;   strokeZoverride,220
;   originOffsetXoverride,0
;   originOffsetYoverride,0
;   originOffsetZoverride,0
;   homeXdirOverride,-1
;   homeYdirOverride,-1
;   homeZdirOverride,-1
;   flipXoverride,1
;   flipYoverride,-1
;   flipZoverride,1
;   toolheadOffsets,0,0|0,0|0,0|0,0|0,0|0,0
;   overrideFirmwareConfiguration,0
;   firmwareTypeOverride,RepRap (Marlin/Repetier/Sprinter)
;   GPXconfigOverride,r2
;   baudRateOverride,115200
;   overridePrinterModels,0
;   printerModelsOverride
;   startingGcode,G1 Z5 F100,G28 ; home all axes,
;   layerChangeGcode,
;   retractionGcode,
;   toolChangeGcode,
;   endingGcode,M104 S0 ; turn off extruder,M140 S0 ; turn off bed,G28 X0 Y0,M84 ; disable motors
;   exportFileFormat,gcode
;   celebration,0
;   celebrationSong,Random Song
;   postProcessing,
;   defaultSpeed,2000
;   outlineUnderspeed,1
;   solidInfillUnderspeed,0.6
;   supportUnderspeed,1
;   rapidXYspeed,2400
;   rapidZspeed,1000
;   minBridgingArea,50
;   bridgingExtraInflation,0
;   bridgingExtrusionMultiplier,1
;   bridgingSpeedMultiplier,1
;   useFixedBridgingAngle,0
;   fixedBridgingAngle,0
;   applyBridgingToPerimeters,0
;   filamentDiameters,1.75|1.75|1.75|1.75|1.75|1.75
;   filamentPricesPerKg,46|46|46|46|46|46
;   filamentDensities,1.25|1.25|1.25|1.25|1.25|1.25
;   useMinPrintHeight,0
;   minPrintHeight,0
;   useMaxPrintHeight,0
;   maxPrintHeight,3
;   useDiaphragm,0
;   diaphragmLayerInterval,20
;   robustSlicing,0
;   mergeAllIntoSolid,0
;   onlyRetractWhenCrossingOutline,1
;   retractBetweenLayers,1
;   useRetractionMinTravel,1
;   retractionMinTravel,5
;   retractWhileWiping,0
;   onlyWipeOutlines,1
;   avoidCrossingOutline,1
;   maxMovementDetourFactor,999
;   toolChangeRetractionDistance,8
;   toolChangeExtraRestartDistance,-0.5
;   toolChangeRetractionSpeed,600
;   externalThinWallType,0
;   internalThinWallType,2
;   thinWallAllowedOverlapPercentage,10
;   singleExtrusionMinLength,1
;   singleExtrusionMinPrintingWidthPercentage,50
;   singleExtrusionMaxPrintingWidthPercentage,200
;   singleExtrusionEndpointExtension,0.2
;   horizontalSizeCompensation,0
G90
M83
M106 S0
M140 S50
M190 S50
M104 S195 T0
M109 S195 T0
G28 ; home all axes
G29 ; bed auto leveling
G92 Z0
G1 E-20.0000 F3000
G1 Z0.200 F1000
; process Process1-1-1
; layer 1, Z = 0.200
T0
; tool H0.200 W0.420
; skirt
G1 X98.110 Y99.217 F2400
G1 E20.1000 F900
G1 X99.217 Y98.110 E0.0492 F1200
G1 X120.783 Y98.110 E0.6778
G1 X121.890 Y99.217 E0.0492
G1 X121.890 Y120.783 E0.6778
G1 X120.783 Y121.890 E0.0492
G1 X99.217 Y121.890 E0.6778
G1 X98.110 Y120.783 E0.0492
G1 X98.110 Y99.217 E0.6778
G1 X98.530 Y99.391 F2400
G1 X99.391 Y98.530 E0.0383 F1200
G1 X120.609 Y98.530 E0.6669
G1 X121.470 Y99.391 E0.0383
G1 X121.470 Y120.609 E0.6669
G1 X120.609 Y121.470 E0.0383
G1 X99.391 Y121.470 E0.6669
G1 X98.530 Y120.609 E0.0383
G1 X98.530 Y99.391 E0.6669
G1 X98.950 Y99.565 F2400
G1 X99.565 Y98.950 E0.0273 F1200
G1 X120.435 Y98.950 E0.6560
G1 X121.050 Y99.565 E0.0273
G1 X121.050 Y120.435 E0.6560
G1 X120.435 Y121.050 E0.0273
G1 X99.565 Y121.050 E0.6560
G1 X98.950 Y120.435 E0.0273
G1 X98.950 Y99.565 E0.6560
G1 X99.370 Y99.739 F2400
G1 X99.739 Y99.370 E0.0164 F1200
G1 X120.261 Y99.370 E0.6450
G1 X120.630 Y99.739 E0.0164
G1 X120.630 Y120.261 E0.6450
G1 X120.261 Y120.630 E0.0164
G1 X99.739 Y120.630 E0.6450
G1 X99.370 Y120.261 E0.0164
G1 X99.370 Y99.739 E0.6450
G1 X99.790 Y99.913 F2400
G1 X99.913 Y99.790 E0.0055 F1200
G1 X120.087 Y99.790 E0.6341
G1 X120.210 Y99.913 E0.0055
G1 X120.210 Y120.087 E0.6341
G1 X120.087 Y120.210 E0.0055
G1 X99.913 Y120.210 E0.6341
G1 X99.790 Y120.087 E0.0055
G1 X99.790 Y99.913 E0.6341
; inner perimeter
G1 X100.206 Y100.206 F2400
G1 X100.206 Y100.288 F2400
G1 X101.050 Y101.050 F2400
G1 X118.950 Y101.050 E0.5626 F1200
G1 X118.950 Y118.950 E0.5626
G1 X101.050 Y118.950 E0.5626
G1 X101.050 Y101.050 E0.5626
G1 X100.630 Y100.630 F2400
G1 X119.370 Y100.630 E0.5890 F1200
G1 X119.370 Y119.370 E0.5890
G1 X100.630 Y119.370 E0.5890
G1 X100.630 Y100.630 E0.5890
; outer perimeter
G1 X100.210 Y100.210 F2400
G1 X119.790 Y100.210 E0.6154 F1200
G1 X119.790 Y119.790 E0.6154
G1 X100.210 Y119.790 E0.6154
G1 X100.210 Y100.210 E0.6154
G1 X101.710 Y100.210 F2000
; solid layer
G1 X118.038 Y101.407 F2400
G1 X118.593 Y101.962 E0.0247 F720
G1 X118.593 Y102.556 E0.0187
G1 X117.444 Y101.407 E0.0511
G1 X116.850 Y101.407 E0.0187
G1 X118.593 Y103.150 E0.0775
G1 X118.593 Y103.744 E0.0187
G1 X116.256 Y101.407 E0.1039
G1 X115.662 Y101.407 E0.0187
G1 X118.593 Y104.338 E0.1303
G1 X118.593 Y104.932 E0.0187
G1 X115.068 Y101.407 E0.1567
G1 X114.474 Y101.407 E0.0187
G1 X118.593 Y105.526 E0.1831
G1 X118.593 Y106.120 E0.0187
G1 X113.880 Y101.407 E0.2095
G1 X113.286 Y101.407 E0.0187
G1 X118.593 Y106.714 E0.2359
G1 X118.593 Y107.308 E0.0187
G1 X112.692 Y101.407 E0.2623
G1 X112.098 Y101.407 E0.0187
G1 X118.593 Y107.902 E0.2887
G1 X118.593 Y108.496 E0.0187
G1 X111.504 Y101.407 E0.3151
G1 X110.911 Y101.407 E0.0187
G1 X118.593 Y109.089 E0.3415
G1 X118.593 Y109.683 E0.0187
G1 X110.317 Y101.407 E0.3679
G1 X109.723 Y101.407 E0.0187
G1 X118.593 Y110.277 E0.3943
G1 X118.593 Y110.871 E0.0187
G1 X109.129 Y101.407 E0.4207
G1 X108.535 Y101.407 E0.0187
G1 X118.593 Y111.465 E0.4471
G1 X118.593 Y112.059 E0.0187
G1 X107.941 Y101.407 E0.4735
G1 X107.347 Y101.407 E0.0187
G1 X118.593 Y112.653 E0.4999
G1 X118.593 Y113.247 E0.0187
G1 X106.753 Y101.407 E0.5263
G1 X106.159 Y101.407 E0.0187
G1 X118.593 Y113.841 E0.5527
G1 X118.593 Y114.435 E0.0187
G1 X105.565 Y101.407 E0.5791
G1 X104.971 Y101.407 E0.0187
G1 X118.593 Y115.029 E0.6055
G1 X118.593 Y115.623 E0.0187
G1 X104.377 Y101.407 E0.6319
G1 X103.783 Y101.407 E0.0187
G1 X118.593 Y116.217 E0.6583
G1 X118.593 Y116.811 E0.0187
G1 X103.189 Y101.407 E0.6847
G1 X102.595 Y101.407 E0.0187
G1 X118.593 Y117.405 E0.7111
G1 X118.593 Y117.999 E0.0187
G1 X102.001 Y101.407 E0.7375
G1 X101.407 Y101.407 E0.0187
G1 X118.593 Y118.593 E0.7639
G1 X117.999 Y118.593 E0.0187
G1 X101.407 Y102.001 E0.7375
G1 X101.407 Y102.595 E0.0187
G1 X117.405 Y118.593 E0.7111
G1 X116.811 Y118.593 E0.0187
G1 X101.407 Y103.189 E0.6847
G1 X101.407 Y103.783 E0.0187
G1 X116.217 Y118.593 E0.6583
G1 X115.623 Y118.593 E0.0187
G1 X101.407 Y104.377 E0.6319
G1 X101.407 Y104.971 E0.0187
G1 X115.029 Y118.593 E0.6055
G1 X114.435 Y118.593 E0.0187
G1 X101.407 Y105.565 E0.5791
G1 X101.407 Y106.159 E0.0187
G1 X113.841 Y118.593 E0.5527
G1 X113.247 Y118.593 E0.0187
G1 X101.407 Y106.753 E0.5263
G1 X101.407 Y107.347 E0.0187
G1 X112.653 Y118.593 E0.4999
G1 X112.059 Y118.593 E0.0187
G1 X101.407 Y107.941 E0.4735
G1 X101.407 Y108.535 E0.0187
G1 X111.465 Y118.593 E0.4471
G1 X110.871 Y118.593 E0.0187
G1 X101.407 Y109.129 E0.4207
G1 X101.407 Y109.723 E0.0187
G1 X110.277 Y118.593 E0.3943
G1 X109.683 Y118.593 E0.0187
G1 X101.407 Y110.317 E0.3679
G1 X101.407 Y110.911 E0.0187
G1 X109.089 Y118.593 E0.3415
G1 X108.496 Y118.593 E0.0187
G1 X101.407 Y111.504 E0.3151
G1 X101.407 Y112.098 E0.0187
G1 X107.902 Y118.593 E0.2887
G1 X107.308 Y118.593 E0.0187
G1 X101.407 Y112.692 E0.2623
G1 X101.407 Y113.286 E0.0187
G1 X106.714 Y118.593 E0.2359
G1 X106.120 Y118.593 E0.0187
G1 X101.407 Y113.880 E0.2095
G1 X101.407 Y114.474 E0.0187
G1 X105.526 Y118.593 E0.1831
G1 X104.932 Y118.593 E0.0187
G1 X101.407 Y115.068 E0.1567
G1 X101.407 Y115.662 E0.0187
G1 X104.338 Y118.593 E0.1303
G1 X103.744 Y118.593 E0.0187
G1 X101.407 Y116.256 E0.1039
G1 X101.407 Y116.850 E0.0187
G1 X103.150 Y118.593 E0.0775
G1 X102.556 Y118.593 E0.0187
G1 X101.407 Y117.444 E0.0511
G1 X101.407 Y118.038 E0.0187
G1 X101.962 Y118.593 E0.0247
G1 E-20.0000 F3000
; layer 2, Z = 0.400
M106 S153
; inner perimeter
G1 X101.050 Y118.950 F2400
G1 Z0.400 F1000
G1 E20.1000 F3000
G1 X101.050 Y101.050 E0.5626 F2000
G1 X118.950 Y101.050 E0.5626
G1 X118.950 Y118.950 E0.5626
G1 X101.050 Y118.950 E0.5626
G1 X100.630 Y119.370 F2400
G1 X100.630 Y100.630 E0.5890 F2000
G1 X119.370 Y100.630 E0.5890
G1 X119.370 Y119.370 E0.5890
G1 X100.630 Y119.370 E0.5890
; outer perimeter
G1 X100.210 Y119.790 F2400
G1 X100.210 Y100.210 E0.6154 F2000
G1 X119.790 Y100.210 E0.6154
G1 X119.790 Y119.790 E0.6154
G1 X100.210 Y119.790 E0.6154
G1 X100.210 Y118.290 F2000
; solid layer
G1 X101.407 Y101.962 F2400
G1 X101.962 Y101.407 E0.0247 F1200
G1 X102.556 Y101.407 E0.0187
G1 X101.407 Y102.556 E0.0511
G1 X101.407 Y103.150 E0.0187
G1 X103.150 Y101.407 E0.0775
G1 X103.744 Y101.407 E0.0187
G1 X101.407 Y103.744 E0.1039
G1 X101.407 Y104.338 E0.0187
G1 X104.338 Y101.407 E0.1303
G1 X104.932 Y101.407 E0.0187
G1 X101.407 Y104.932 E0.1567
G1 X101.407 Y105.526 E0.0187
G1 X105.526 Y101.407 E0.1831
G1 X106.120 Y101.407 E0.0187
G1 X101.407 Y106.120 E0.2095
G1 X101.407 Y106.714 E0.0187
G1 X106.714 Y101.407 E0.2359
G1 X107.308 Y101.407 E0.0187
G1 X101.407 Y107.308 E0.2623
G1 X101.407 Y107.902 E0.0187
G1 X107.902 Y101.407 E0.2887
G1 X108.496 Y101.407 E0.0187
G1 X101.407 Y108.496 E0.3151
G1 X101.407 Y109.090 E0.0187
G1 X109.090 Y101.407 E0.3415
G1 X109.683 Y101.407 E0.0187
G1 X101.407 Y109.683 E0.3679
G1 X101.407 Y110.277 E0.0187
G1 X110.277 Y101.407 E0.3943
G1 X110.871 Y101.407 E0.0187
G1 X101.407 Y110.871 E0.4207
G1 X101.407 Y111.465 E0.0187
G1 X111.465 Y101.407 E0.4471
G1 X112.059 Y101.407 E0.0187
G1 X101.407 Y112.059 E0.4735
G1 X101.407 Y112.653 E0.0187
G1 X112.653 Y101.407 E0.4999
G1 X113.247 Y101.407 E0.0187
G1 X101.407 Y113.247 E0.5263
G1 X101.407 Y113.841 E0.0187
G1 X113.841 Y101.407 E0.5527
G1 X114.435 Y101.407 E0.0187
G1 X101.407 Y114.435 E0.5791
G1 X101.407 Y115.029 E0.0187
G1 X115.029 Y101.407 E0.6055
G1 X115.623 Y101.407 E0.0187
G1 X101.407 Y115.623 E0.6319
G1 X101.407 Y116.217 E0.0187
G1 X116.217 Y101.407 E0.6583
G1 X116.811 Y101.407 E0.0187
G1 X101.407 Y116.811 E0.6847
G1 X101.407 Y117.405 E0.0187
G1 X117.405 Y101.407 E0.7111
G1 X117.999 Y101.407 E0.0187
G1 X101.407 Y117.999 E0.7375
G1 X101.407 Y118.593 E0.0187
G1 X118.593 Y101.407 E0.7639
G1 X118.593 Y102.001 E0.0187
G1 X102.001 Y118.593 E0.7375
G1 X102.595 Y118.593 E0.0187
G1 X118.593 Y102.595 E0.7111
G1 X118.593 Y103.189 E0.0187
G1 X103.189 Y118.593 E0.6847
G1 X103.783 Y118.593 E0.0187
G1 X118.593 Y103.783 E0.6583
G1 X118.593 Y104.377 E0.0187
G1 X104.377 Y118.593 E0.6319
G1 X104.971 Y118.593 E0.0187
G1 X118.593 Y104.971 E0.6055
G1 X118.593 Y105.565 E0.0187
G1 X105.565 Y118.593 E0.5791
G1 X106.159 Y118.593 E0.0187
G1 X118.593 Y106.159 E0.5527
G1 X118.593 Y106.753 E0.0187
G1 X106.753 Y118.593 E0.5263
G1 X107.347 Y118.593 E0.0187
G1 X118.593 Y107.347 E0.4999
G1 X118.593 Y107.941 E0.0187
G1 X107.941 Y118.593 E0.4735
G1 X108.535 Y118.593 E0.0187
G1 X118.593 Y108.535 E0.4471
G1 X118.593 Y109.129 E0.0187
G1 X109.129 Y118.593 E0.4207
G1 X109.723 Y118.593 E0.0187
G1 X118.593 Y109.723 E0.3943
G1 X118.593 Y110.317 E0.0187
G1 X110.317 Y118.593 E0.3679
G1 X110.911 Y118.593 E0.0187
G1 X118.593 Y110.911 E0.3415
G1 X118.593 Y111.505 E0.0187
G1 X111.505 Y118.593 E0.3151
G1 X112.098 Y118.593 E0.0187
G1 X118.593 Y112.098 E0.2887
G1 X118.593 Y112.692 E0.0187
G1 X112.692 Y118.593 E0.2623
G1 X113.286 Y118.593 E0.0187
G1 X118.593 Y113.286 E0.2359
G1 X118.593 Y113.880 E0.0187
G1 X113.880 Y118.593 E0.2095
G1 X114.474 Y118.593 E0.0187
G1 X118.593 Y114.474 E0.1831
G1 X118.593 Y115.068 E0.0187
G1 X115.068 Y118.593 E0.1567
G1 X115.662 Y118.593 E0.0187
G1 X118.593 Y115.662 E0.1303
G1 X118.593 Y116.256 E0.0187
G1 X116.256 Y118.593 E0.1039
G1 X116.850 Y118.593 E0.0187
G1 X118.593 Y116.850 E0.0775
G1 X118.593 Y117.444 E0.0187
G1 X117.444 Y118.593 E0.0511
G1 X118.038 Y118.593 E0.0187
G1 X118.593 Y118.038 E0.0247
G1 E-20.0000 F3000
; layer 3, Z = 0.600
M106 S255
; inner perimeter
G1 X118.950 Y118.950 F2400
G1 Z0.600 F1000
G1 E20.1000 F3000
G1 X101.050 Y118.950 E0.5626 F2000
G1 X101.050 Y101.050 E0.5626
G1 X118.950 Y101.050 E0.5626
G1 X118.950 Y118.950 E0.5626
G1 X119.370 Y119.370 F2400
G1 X100.630 Y119.370 E0.5890 F2000
G1 X100.630 Y100.630 E0.5890
G1 X119.370 Y100.630 E0.5890
G1 X119.370 Y119.370 E0.5890
; outer perimeter
G1 X119.790 Y119.790 F2400
G1 X100.210 Y119.790 E0.6154 F2000
G1 X100.210 Y100.210 E0.6154
G1 X119.790 Y100.210 E0.6154
G1 X119.790 Y119.790 E0.6154
G1 X118.290 Y119.790 F2000
; solid layer
G1 X101.962 Y118.593 F2400
G1 X101.407 Y118.038 E0.0247 F1200
G1 X101.407 Y117.444 E0.0187
G1 X102.556 Y118.593 E0.0511
G1 X103.150 Y118.593 E0.0187
G1 X101.407 Y116.850 E0.0775
G1 X101.407 Y116.256 E0.0187
G1 X103.744 Y118.593 E0.1039
G1 X104.338 Y118.593 E0.0187
G1 X101.407 Y115.662 E0.1303
G1 X101.407 Y115.068 E0.0187
G1 X104.932 Y118.593 E0.1567
G1 X105.526 Y118.593 E0.0187
G1 X101.407 Y114.474 E0.1831
G1 X101.407 Y113.880 E0.0187
G1 X106.120 Y118.593 E0.2095
G1 X106.714 Y118.593 E0.0187
