; G-Code generated by Simplify3D(R) Version 4.1.2
; Jun 7, 2021 at 2:04:49 PM
; Settings Summary
;   processName,Process1
;   applyToModels,fan_duck_m4_v3
;   profileName,ZONESTAR Single Extruder 3D Printer(300x300x400) (modified)
;   profileVersion,2021-04-02 14:28:37
;   baseProfile,Default (modified)
;   printMaterial,PLA
;   printQuality,Medium
;   printExtruders,
;   extruderName,Primary Extruder
;   extruderToolheadNumber,0
;   extruderDiameter,0.4
;   extruderAutoWidth,1
;   extruderWidth,0.48
;   extrusionMultiplier,1.2
;   extruderUseRetract,1
;   extruderRetractionDistance,10
;   extruderExtraRestartDistance,0.05
;   extruderRetractionZLift,0
;   extruderRetractionSpeed,1800
;   extruderUseCoasting,0
;   extruderCoastingDistance,0.2
;   extruderUseWipe,1
;   extruderWipeDistance,1.5
;   primaryExtruder,0
;   layerHeight,0.2
;   topSolidLayers,2
;   bottomSolidLayers,2
;   perimeterOutlines,2
;   printPerimetersInsideOut,1
;   startPointOption,2
;   startPointOriginX,300
;   startPointOriginY,310
;   sequentialIslands,0
;   spiralVaseMode,0
;   firstLayerHeightPercentage,150
;   firstLayerWidthPercentage,100
;   firstLayerUnderspeed,0.5
;   useRaft,0
;   raftExtruder,0
;   raftTopLayers,3
;   raftBaseLayers,2
;   raftOffset,20
;   raftSeparationDistance,0
;   raftTopInfill,100
;   aboveRaftSpeedMultiplier,0.3
;   useSkirt,0
;   skirtExtruder,0
;   skirtLayers,1
;   skirtOutlines,10
;   skirtOffset,0
;   usePrimePillar,0
;   primePillarExtruder,999
;   primePillarWidth,12
;   primePillarLocation,7
;   primePillarSpeedMultiplier,1
;   useOozeShield,0
;   oozeShieldExtruder,999
;   oozeShieldOffset,2
;   oozeShieldOutlines,1
;   oozeShieldSidewallShape,1
;   oozeShieldSidewallAngle,30
;   oozeShieldSpeedMultiplier,1
;   infillExtruder,0
;   internalInfillPattern,Rectilinear
;   externalInfillPattern,Concentric
;   infillPercentage,25
;   outlineOverlapPercentage,15
;   infillExtrusionWidthPercentage,90
;   minInfillLength,5
;   infillLayerInterval,1
;   internalInfillAngles,45,-45
;   overlapInternalInfillAngles,0
;   externalInfillAngles,45,-45
;   generateSupport,1
;   supportExtruder,0
;   supportInfillPercentage,20
;   supportExtraInflation,0
;   supportBaseLayers,0
;   denseSupportExtruder,0
;   denseSupportLayers,0
;   denseSupportInfillPercentage,70
;   supportLayerInterval,1
;   supportHorizontalPartOffset,0.3
;   supportUpperSeparationLayers,1
;   supportLowerSeparationLayers,1
;   supportType,1
;   supportGridSpacing,4
;   maxOverhangAngle,60
;   supportAngles,0
;   temperatureName,Primary Extruder,bed
;   temperatureNumber,0,0
;   temperatureSetpointCount,1,1
;   temperatureSetpointLayers,1,1
;   temperatureSetpointTemperatures,200,60
;   temperatureStabilizeAtStartup,1,1
;   temperatureHeatedBed,0,1
;   fanLayers,1,3
;   fanSpeeds,0,100
;   blipFanToFullPower,0
;   adjustSpeedForCooling,1
;   minSpeedLayerTime,20
;   minCoolingSpeedSlowdown,20
;   increaseFanForCooling,0
;   minFanLayerTime,45
;   maxCoolingFanSpeed,100
;   increaseFanForBridging,0
;   bridgingFanSpeed,100
;   use5D,1
;   relativeEdistances,0
;   allowEaxisZeroing,1
;   independentExtruderAxes,0
;   includeM10123,0
;   stickySupport,1
;   applyToolheadOffsets,0
;   gcodeXoffset,0
;   gcodeYoffset,0
;   gcodeZoffset,0
;   overrideMachineDefinition,1
;   machineTypeOverride,0
;   strokeXoverride,300
;   strokeYoverride,300
;   strokeZoverride,400
;   originOffsetXoverride,0
;   originOffsetYoverride,0
;   originOffsetZoverride,0
;   homeXdirOverride,-1
;   homeYdirOverride,-1
;   homeZdirOverride,-1
;   flipXoverride,1
;   flipYoverride,-1
;   flipZoverride,1
;   toolheadOffsets,0,0|0,0|0,0|0,0|0,0|0,0
;   overrideFirmwareConfiguration,0
;   firmwareTypeOverride,RepRap (Marlin/Repetier/Sprinter)
;   GPXconfigOverride,r2
;   baudRateOverride,115200
;   overridePrinterModels,0
;   printerModelsOverride
;   startingGcode,G28 ; home all axes,G1 Z5 F3000 ; lift,G1 X5 Y10 F1500 ; move to prime,G1 Z0.2 F3000 ; get ready to prime,G92 E0 ; reset extrusion distance,G1 Y80 E10 F600 ; prime nozzle,G1 Y100 F5000 ; quick wipe,,
;   layerChangeGcode,
;   retractionGcode,
;   toolChangeGcode,
;   endingGcode,G28 YX,M106 S0 ; turn off FAN,M104 S0 ; turn off extruder,M140 S0 ; turn off bed,M84 ; disable motors
;   exportFileFormat,gcode
;   celebration,0
;   celebrationSong,Random Song
;   postProcessing,
;   defaultSpeed,3000
;   outlineUnderspeed,0.6
;   solidInfillUnderspeed,0.6
;   supportUnderspeed,1
;   rapidXYspeed,4200
;   rapidZspeed,480
;   minBridgingArea,50
;   bridgingExtraInflation,0
;   bridgingExtrusionMultiplier,1
;   bridgingSpeedMultiplier,1
;   useFixedBridgingAngle,0
;   fixedBridgingAngle,0
;   applyBridgingToPerimeters,0
;   filamentDiameters,1.75|1.75|1.75|1.75|1.75|1.75
;   filamentPricesPerKg,46|46|46|46|46|46
;   filamentDensities,1.25|1.25|1.25|1.25|1.25|1.25
;   useMinPrintHeight,0
;   minPrintHeight,0
;   useMaxPrintHeight,0
;   maxPrintHeight,129.81
;   useDiaphragm,0
;   diaphragmLayerInterval,20
;   robustSlicing,1
;   mergeAllIntoSolid,0
;   onlyRetractWhenCrossingOutline,1
;   retractBetweenLayers,0
;   useRetractionMinTravel,1
;   retractionMinTravel,3
;   retractWhileWiping,0
;   onlyWipeOutlines,1
;   avoidCrossingOutline,1
;   maxMovementDetourFactor,3
;   toolChangeRetractionDistance,8
;   toolChangeExtraRestartDistance,-0.2
;   toolChangeRetractionSpeed,1800
;   externalThinWallType,0
;   internalThinWallType,2
;   thinWallAllowedOverlapPercentage,10
;   singleExtrusionMinLength,1
;   singleExtrusionMinPrintingWidthPercentage,50
;   singleExtrusionMaxPrintingWidthPercentage,200
;   singleExtrusionEndpointExtension,0.2
;   horizontalSizeCompensation,0
G90
M82
M106 S0
M140 S60
M190 S60
M104 S200 T0
M109 S200 T0
G28 ; home all axes
G1 Z5 F3000 ; lift
G1 X5 Y10 F1500 ; move to prime
G1 Z0.2 F3000 ; get ready to prime
G92 E0 ; reset extrusion distance
G1 Y80 E10 F600 ; prime nozzle
G1 Y100 F5000 ; quick wipe
; process Process1
; layer 1, Z = 0.300
T0
G92 E0.0000
G1 E-10.0000 F1800
; feature inner perimeter
; tool H0.300 W0.480
G1 Z0.300 F480
G1 X133.720 Y133.220 F4200
G1 E0.0500 F1800
G92 E0.0000
G1 X165.280 Y133.220 E2.2673 F1200
G1 X165.280 Y138.780 E2.6668
G1 X133.720 Y138.780 E4.9341
G1 X133.720 Y133.220 E5.3335
; feature outer perimeter
G1 X133.240 Y132.740 F4200
G92 E0.0000
G1 X165.760 Y132.740 E2.3363 F900
G1 X165.760 Y139.260 E2.8047
G1 X133.240 Y139.260 E5.1410
G1 X133.240 Y132.740 E5.6094
G1 X134.740 Y132.740 F900
; feature solid layer
G1 X134.128 Y133.628 F4200
G92 E0.0000
G1 X164.872 Y133.628 E2.2087 F900
G1 X164.872 Y138.372 E2.5495
G1 X134.128 Y138.372 E4.7582
G1 X134.128 Y133.628 E5.0991
G1 X134.608 Y134.108 F4200
G92 E0.0000
G1 X164.392 Y134.108 E2.1397 F900
G1 X164.392 Y137.892 E2.4116
G1 X134.608 Y137.892 E4.5513
G1 X134.608 Y134.108 E4.8232
G1 X135.088 Y134.588 F4200
G92 E0.0000
G1 X163.912 Y134.588 E2.0708 F900
G1 X163.912 Y137.412 E2.2737
G1 X135.088 Y137.412 E4.3444
G1 X135.088 Y134.588 E4.5473
G1 X135.568 Y135.068 F4200
G92 E0.0000
G1 X163.432 Y135.068 E2.0018 F900
G1 X163.432 Y136.932 E2.1357
G1 X135.568 Y136.932 E4.1375
G1 X135.568 Y135.068 E4.2714
G1 X136.048 Y135.548 F4200
G92 E0.0000
G1 X162.952 Y135.548 E1.9328 F900
G1 X162.952 Y136.452 E1.9978
G1 X136.048 Y136.452 E3.9306
G1 X136.048 Y135.548 E3.9956
G92 E0.0000
G1 E-10.0000 F1800
; feature outer perimeter
G1 X159.278 Y139.260 F4200
G1 X165.760 Y139.260
G1 X168.540 Y140.740
G1 E0.0500 F1800
G92 E0.0000
G1 X175.260 Y140.740 E0.4828 F900
G1 X175.260 Y166.260 E2.3162
G1 X168.540 Y166.260 E2.7990
G1 X168.540 Y140.740 E4.6324
G1 X170.040 Y140.740 F900
G1 X169.260 Y141.460 F4200
G92 E0.0000
G1 X169.260 Y152.997 E0.8289 F900
G1 X174.540 Y152.997 E1.2082
G1 X174.540 Y141.460 E2.0370
G1 X169.260 Y141.460 E2.4164
G1 X169.260 Y142.960 F900
G1 X169.260 Y154.003 F4200
G92 E0.0000
G1 X169.260 Y165.540 E0.8289 F900
G1 X174.540 Y165.540 E1.2082
G1 X174.540 Y154.003 E2.0370
G1 X169.260 Y154.003 E2.4164
G1 X169.260 Y155.503 F900
; feature gap fill
G1 X169.208 Y153.595 F4200
G92 E0.0000
G1 X169.018 Y153.405 E0.0193 F1500
G1 X169.697 Y153.405 E0.0680
G1 X169.887 Y153.595 E0.0873
G1 X170.565 Y153.595 E0.1361
G1 X170.376 Y153.405 E0.1554
G1 X171.055 Y153.405 E0.2041
G1 X171.244 Y153.595 E0.2234
G1 X171.923 Y153.595 E0.2722
G1 X171.733 Y153.405 E0.2914
G1 X172.412 Y153.405 E0.3402
G1 X172.602 Y153.595 E0.3595
G1 X173.281 Y153.595 E0.4083
G1 X173.091 Y153.405 E0.4275
G1 X173.770 Y153.405 E0.4763
G1 X173.960 Y153.595 E0.4956
G1 X174.638 Y153.595 E0.5443
G1 X174.449 Y153.405 E0.5636
G92 E0.0000
G1 E-10.0000 F1800
; feature support
G1 X174.238 Y152.997 F4200
G1 X169.260 Y152.997
G1 X169.260 Y143.332
G1 X168.540 Y141.934
G1 X168.540 Y140.740
G1 X167.750 Y140.400
G1 E0.0500 F1800
G92 E0.0000
G1 X164.030 Y140.400 E0.2673 F1500
G1 X164.030 Y140.050 E0.2924
G1 X166.550 Y140.050 E0.4734
G1 X166.550 Y138.000 E0.6207
G1 X175.970 Y138.000 E1.2975
G1 X175.970 Y135.600 E1.4699
G1 X166.550 Y135.600 E2.1466
G92 E0.0000
G1 E-10.0000 F1800
G1 X124.030 Y135.600 F4200
G1 E0.0500 F1800
G92 E0.0000
G1 X131.970 Y135.600 E0.5704 F1500
G1 X131.970 Y138.000 E0.7428
G1 X124.030 Y138.000 E1.3133
G1 X124.030 Y140.400 E1.4857
G1 X135.970 Y140.400 E2.3435
G1 X135.970 Y141.970 E2.4563
G1 X131.970 Y141.970 E2.7436
G1 X131.970 Y142.800 E2.8033
G1 X124.030 Y142.800 E3.3737
G1 X124.030 Y145.200 E3.5461
G1 X131.970 Y145.200 E4.1165
G1 X131.970 Y147.600 E4.2890
G1 X124.030 Y147.600 E4.8594
G1 X124.030 Y150.000 E5.0318
G1 X131.970 Y150.000 E5.6022
G1 X131.970 Y152.400 E5.7747
G1 X124.030 Y152.400 E6.3451
G1 X124.030 Y154.800 E6.5175
G1 X131.970 Y154.800 E7.0879
G1 X131.970 Y157.200 E7.2603
G1 X124.030 Y157.200 E7.8308
G1 X124.030 Y159.600 E8.0032
G1 X131.970 Y159.600 E8.5736
G1 X131.970 Y162.000 E8.7460
G1 X124.030 Y162.000 E9.3165
G1 X124.030 Y164.400 E9.4889
G1 X131.970 Y164.400 E10.0593
G92 E0.0000
G1 E-10.0000 F1800
; layer 2, Z = 0.500
; feature inner perimeter
; tool H0.200 W0.480
G1 Z0.500 F480
G1 X133.240 Y139.260 F4200
G1 X133.687 Y139.260
G1 X133.720 Y138.780
G1 E0.0500 F1800
G92 E0.0000
G1 X133.720 Y133.220 E0.2663 F2400
G1 X165.280 Y133.220 E1.7778
G1 X165.280 Y138.780 E2.0441
G1 X133.720 Y138.780 E3.5557
; feature outer perimeter
G1 X133.240 Y139.260 F4200
G92 E0.0000
G1 X133.240 Y132.740 E0.3123 F1800
G1 X165.760 Y132.740 E1.8698
G1 X165.760 Y139.260 E2.1821
G1 X133.240 Y139.260 E3.7396
G1 X133.240 Y137.760 F1800
; feature solid layer
G1 X134.128 Y138.372 F4200
G92 E0.0000
G1 X134.128 Y133.628 E0.2272 F1800
G1 X164.872 Y133.628 E1.6997
G1 X164.872 Y138.372 E1.9269
G1 X134.128 Y138.372 E3.3994
G1 X134.608 Y137.892 F4200
G92 E0.0000
G1 X134.608 Y134.108 E0.1812 F1800
G1 X164.392 Y134.108 E1.6077
G1 X164.392 Y137.892 E1.7890
G1 X134.608 Y137.892 E3.2155
G1 X135.088 Y137.412 F4200
G92 E0.0000
G1 X135.088 Y134.588 E0.1353 F1800
G1 X163.912 Y134.588 E1.5158
G1 X163.912 Y137.412 E1.6510
G1 X135.088 Y137.412 E3.0315
G1 X135.568 Y136.932 F4200
G92 E0.0000
G1 X135.568 Y135.068 E0.0893 F1800
G1 X163.432 Y135.068 E1.4238
G1 X163.432 Y136.932 E1.5131
G1 X135.568 Y136.932 E2.8476
G1 X136.048 Y136.452 F4200
G92 E0.0000
G1 X136.048 Y135.548 E0.0433 F1800
G1 X162.952 Y135.548 E1.3319
G1 X162.952 Y136.452 E1.3751
G1 X136.048 Y136.452 E2.6637
G92 E0.0000
G1 E-10.0000 F1800
; feature outer perimeter
G1 X157.325 Y139.260 F4200
G1 X165.760 Y139.260
G1 X168.540 Y140.740
G1 E0.0500 F1800
G92 E0.0000
G1 X175.260 Y140.740 E0.3219 F1800
G1 X175.260 Y166.260 E1.5441
G1 X168.540 Y166.260 E1.8660
G1 X168.540 Y140.740 E3.0882
G1 X170.040 Y140.740 F1800
G1 X169.260 Y141.460 F4200
G92 E0.0000
G1 X169.260 Y152.926 E0.5491 F1800
G1 X174.540 Y152.926 E0.8020
G1 X174.540 Y141.460 E1.3512
G1 X169.260 Y141.460 E1.6041
G1 X169.260 Y142.960 F1800
G1 X169.260 Y154.074 F4200
G92 E0.0000
G1 X169.260 Y165.540 E0.5491 F1800
G1 X174.540 Y165.540 E0.8020
G1 X174.540 Y154.074 E1.3512
G1 X169.260 Y154.074 E1.6041
G1 X169.260 Y155.574 F1800
; feature gap fill
G1 X168.948 Y153.453 F4200
G92 E0.0000
G1 X169.067 Y153.334 E0.0081 F3000
G1 X169.746 Y153.334 E0.0406
G1 X169.414 Y153.666 E0.0631
G1 X170.093 Y153.666 E0.0956
G1 X170.425 Y153.334 E0.1182
G1 X171.104 Y153.334 E0.1507
G1 X170.771 Y153.666 E0.1732
G1 X171.450 Y153.666 E0.2057
G1 X171.783 Y153.334 E0.2282
G1 X172.462 Y153.334 E0.2608
G1 X172.129 Y153.666 E0.2833
G1 X172.808 Y153.666 E0.3158
G1 X173.140 Y153.334 E0.3383
G1 X173.819 Y153.334 E0.3708
G1 X173.487 Y153.666 E0.3934
G1 X174.165 Y153.666 E0.4259
G1 X174.498 Y153.334 E0.4484
G1 X174.852 Y153.334 E0.4653
G1 X174.852 Y153.659 E0.4809
G1 X174.844 Y153.666 E0.4814
G92 E0.0000
G1 E-10.0000 F1800
; feature support
G1 X174.448 Y152.926 F4200
G1 X169.260 Y152.926
G1 X169.260 Y143.224
G1 X168.540 Y141.877
G1 X168.540 Y140.740
G1 X167.750 Y140.400
G1 E0.0500 F1800
G92 E0.0000
G1 X164.030 Y140.400 E0.1782 F3000
G1 X164.030 Y140.050 E0.1949
G1 X166.550 Y140.050 E0.3156
G1 X166.550 Y138.000 E0.4138
G1 X175.970 Y138.000 E0.8650
G1 X175.970 Y135.600 E0.9799
G1 X166.550 Y135.600 E1.4311
G92 E0.0000
G1 E-10.0000 F1800
G1 X124.030 Y135.600 F4200
G1 E0.0500 F1800
G92 E0.0000
G1 X131.970 Y135.600 E0.3803 F3000
G1 X131.970 Y138.000 E0.4952
G1 X124.030 Y138.000 E0.8755
G1 X124.030 Y140.400 E0.9905
G1 X135.970 Y140.400 E1.5623
G1 X135.970 Y141.970 E1.6375
G1 X131.970 Y141.970 E1.8291
G1 X131.970 Y142.800 E1.8688
G1 X124.030 Y142.800 E2.2491
G1 X124.030 Y145.200 E2.3641
G1 X131.970 Y145.200 E2.7444
G1 X131.970 Y147.600 E2.8593
G1 X124.030 Y147.600 E3.2396
G1 X124.030 Y150.000 E3.3545
G1 X131.970 Y150.000 E3.7348
G1 X131.970 Y152.400 E3.8498
G1 X124.030 Y152.400 E4.2301
G1 X124.030 Y154.800 E4.3450
G1 X131.970 Y154.800 E4.7253
G1 X131.970 Y157.200 E4.8402
G1 X124.030 Y157.200 E5.2205
G1 X124.030 Y159.600 E5.3355
G1 X131.970 Y159.600 E5.7157
G1 X131.970 Y162.000 E5.8307
G1 X124.030 Y162.000 E6.2110
G1 X124.030 Y164.400 E6.3259
G1 X131.970 Y164.400 E6.7062
G92 E0.0000
G1 E-10.0000 F1800
; layer 3, Z = 0.700
M106 S255
; feature inner perimeter
G1 Z0.700 F480
G1 X133.240 Y139.260 F4200
G1 X133.687 Y139.260
G1 X133.720 Y138.780
G1 E0.0500 F1800
G92 E0.0000
G1 X133.720 Y133.220 E0.2663 F1776
G1 X165.280 Y133.220 E1.7778
G1 X165.280 Y138.780 E2.0441
G1 X133.720 Y138.780 E3.5557
; feature outer perimeter
G1 X133.240 Y139.260 F4200
G92 E0.0000
G1 X133.240 Y132.740 E0.3123 F1332
G1 X165.760 Y132.740 E1.8698
G1 X165.760 Y139.260 E2.1821
G1 X133.240 Y139.260 E3.7396
G1 X133.240 Y137.760 F1332
; feature infill
; tool H0.200 W0.432
G1 X134.104 Y136.548 F4200
G92 E0.0000
G1 X135.952 Y138.396 E0.1127 F2219
G1 X138.396 Y138.396 E0.2180
G1 X134.104 Y134.104 E0.4796
G1 X134.104 Y133.604 E0.5012
G1 X136.048 Y133.604 E0.5850
G1 X140.840 Y138.396 E0.8771
G1 X143.284 Y138.396 E0.9824
G1 X138.492 Y133.604 E1.2746
G1 X140.935 Y133.604 E1.3799
G1 X145.727 Y138.396 E1.6720
G1 X148.171 Y138.396 E1.7774
G1 X143.379 Y133.604 E2.0695
G1 X145.823 Y133.604 E2.1748
G1 X150.615 Y138.396 E2.4669
G1 X153.059 Y138.396 E2.5723
G1 X148.267 Y133.604 E2.8644
G1 X150.710 Y133.604 E2.9697
G1 X155.502 Y138.396 E3.2619
G1 X157.946 Y138.396 E3.3672
G1 X153.154 Y133.604 E3.6593
G1 X155.598 Y133.604 E3.7647
G1 X160.390 Y138.396 E4.0568
G1 X162.834 Y138.396 E4.1621
G1 X158.042 Y133.604 E4.4542
G1 X160.485 Y133.604 E4.5596
G1 X164.896 Y138.015 E4.8284
G1 X164.896 Y135.571 E4.9338
G1 X162.929 Y133.604 E5.0537
G92 E0.0000
G1 E-10.0000 F1800
; feature outer perimeter
; tool H0.200 W0.480
G1 X165.760 Y137.204 F4200
G1 X165.760 Y139.260
G1 X168.540 Y140.740
G1 E0.0500 F1800
G92 E0.0000
G1 X175.260 Y140.740 E0.3219 F1332
G1 X175.260 Y166.260 E1.5441
G1 X168.540 Y166.260 E1.8660
G1 X168.540 Y140.740 E3.0882
G1 X170.040 Y140.740 F1332
G1 X169.260 Y141.460 F4200
G92 E0.0000
G1 X169.260 Y152.869 E0.5464 F1332
G1 X174.540 Y152.869 E0.7993
G1 X174.540 Y141.460 E1.3457
G1 X169.260 Y141.460 E1.5986
G1 X169.260 Y142.960 F1332
G1 X169.260 Y154.131 F4200
G92 E0.0000
G1 X169.260 Y165.540 E0.5464 F1332
G1 X174.540 Y165.540 E0.7993
G1 X174.540 Y154.131 E1.3457
G1 X169.260 Y154.131 E1.5986
G1 X169.260 Y155.631 F1332
; feature gap fill
G1 X169.260 Y154.131 F4200
G1 X169.320 Y154.131
